(G-code generated by FlatCAM Evo vUnstable - Version Date: 2023/6/31)

(Name: VTVMbattElim-B_Mask.gbr_edit_iso_combined_cnc)
(Type: G-code from Geometry)
(Units: MM)

(Created on Monday, 29 January 2024 at 12:01)

(This preprocessor is used with a motion controller loaded with GRBL firmware.)
(It is configured to be compatible with almost any version of GRBL firmware. No M6 command.)

(TOOL DIAMETER: -0.2 mm)
(Feedrate_XY: 60.0 mm/min)
(Feedrate_Z: 30.0 mm/min)
(Feedrate rapids 1500.0 mm/min)

(Z_Cut: -0.07 mm)
(Z_Move: 2.0 mm)
(Z Start: None mm)
(Z End: 15.0 mm)
(X,Y End: None mm)
(Steps per circle: 16)
(Steps per circle: 16)
(Preprocessor Geometry: GRBL_11_no_M6)

(X range:    6.4418 ...   44.1455  mm)
(Y range:  -20.7515 ...   -3.7045  mm)

(Spindle Speed: 10000.0 RPM)
G21
G90
G17
G94


G01 F60.00
G00 Z2.0000

M03 S10000.0
G01 F60.00
G00 X8.6336 Y-18.0830
G01 F30.00
G01 Z-0.0700
G01 F60.00
G01 X8.5891 Y-18.1234 F60.00
G01 X8.5537 Y-18.1423 F60.00
G01 X8.5153 Y-18.1539 F60.00
G01 X8.4729 Y-18.1580 F60.00
G01 X6.6491 Y-18.1580 F60.00
G01 X6.6067 Y-18.1539 F60.00
G01 X6.5501 Y-18.1337 F60.00
G01 X6.5168 Y-18.1114 F60.00
G01 X6.4764 Y-18.0669 F60.00
G01 X6.4507 Y-18.0126 F60.00
G01 X6.4418 Y-17.9507 F60.00
G01 X6.4418 Y-14.8153 F60.00
G01 X6.4459 Y-14.7729 F60.00
G01 X6.4661 Y-14.7163 F60.00
G01 X6.4884 Y-14.6830 F60.00
G01 X6.5329 Y-14.6426 F60.00
G01 X6.5872 Y-14.6169 F60.00
G01 X6.6491 Y-14.6080 F60.00
G01 X8.4729 Y-14.6080 F60.00
G01 X8.5153 Y-14.6121 F60.00
G01 X8.5719 Y-14.6323 F60.00
G01 X8.6201 Y-14.6681 F60.00
G01 X8.6456 Y-14.6991 F60.00
G01 X8.6713 Y-14.7534 F60.00
G01 X8.6802 Y-14.8153 F60.00
G01 X8.6802 Y-17.9507 F60.00
G01 X8.6713 Y-18.0126 F60.00
G01 X8.6559 Y-18.0497 F60.00
G01 X8.6336 Y-18.0830 F60.00
G00 Z2.0000
G00 X17.1201 Y-18.0979
G01 F30.00
G01 Z-0.0700
G01 F60.00
G01 X17.0891 Y-18.1234 F60.00
G01 X17.0537 Y-18.1423 F60.00
G01 X17.0153 Y-18.1539 F60.00
G01 X16.9729 Y-18.1580 F60.00
G01 X15.1491 Y-18.1580 F60.00
G01 X15.1067 Y-18.1539 F60.00
G01 X15.0501 Y-18.1337 F60.00
G01 X15.0019 Y-18.0979 F60.00
G01 X14.9764 Y-18.0669 F60.00
G01 X14.9507 Y-18.0126 F60.00
G01 X14.9418 Y-17.9507 F60.00
G01 X14.9418 Y-14.8153 F60.00
G01 X14.9459 Y-14.7729 F60.00
G01 X14.9661 Y-14.7163 F60.00
G01 X15.0019 Y-14.6681 F60.00
G01 X15.0329 Y-14.6426 F60.00
G01 X15.0872 Y-14.6169 F60.00
G01 X15.1491 Y-14.6080 F60.00
G01 X16.9729 Y-14.6080 F60.00
G01 X17.0153 Y-14.6121 F60.00
G01 X17.0719 Y-14.6323 F60.00
G01 X17.1201 Y-14.6681 F60.00
G01 X17.1456 Y-14.6991 F60.00
G01 X17.1713 Y-14.7534 F60.00
G01 X17.1802 Y-14.8153 F60.00
G01 X17.1802 Y-17.9507 F60.00
G01 X17.1761 Y-17.9931 F60.00
G01 X17.1645 Y-18.0315 F60.00
G01 X17.1456 Y-18.0669 F60.00
G01 X17.1201 Y-18.0979 F60.00
G00 Z2.0000
G00 X23.0374 Y-11.8115
G01 F30.00
G01 Z-0.0700
G01 F60.00
G01 X23.0119 Y-11.7860 F60.00
G01 X22.9841 Y-11.7397 F60.00
G01 X22.9737 Y-11.7052 F60.00
G01 X22.9700 Y-11.6669 F60.00
G01 X22.9710 Y-10.9695 F60.00
G01 X22.9841 Y-10.9171 F60.00
G01 X23.0011 Y-10.8853 F60.00
G01 X23.0240 Y-10.8574 F60.00
G01 X23.0519 Y-10.8345 F60.00
G01 X23.0837 Y-10.8175 F60.00
G01 X23.1182 Y-10.8071 F60.00
G01 X23.1565 Y-10.8034 F60.00
G01 X23.8539 Y-10.8044 F60.00
G01 X23.9063 Y-10.8175 F60.00
G01 X23.9381 Y-10.8345 F60.00
G01 X23.9660 Y-10.8574 F60.00
G01 X23.9889 Y-10.8853 F60.00
G01 X24.0059 Y-10.9171 F60.00
G01 X24.0163 Y-10.9516 F60.00
G01 X24.0200 Y-10.9899 F60.00
G01 X24.0190 Y-11.6873 F60.00
G01 X24.0059 Y-11.7397 F60.00
G01 X23.9889 Y-11.7715 F60.00
G01 X23.9660 Y-11.7994 F60.00
G01 X23.9381 Y-11.8223 F60.00
G01 X23.9063 Y-11.8393 F60.00
G01 X23.8718 Y-11.8497 F60.00
G01 X23.8335 Y-11.8534 F60.00
G01 X23.1361 Y-11.8524 F60.00
G01 X23.0837 Y-11.8393 F60.00
G01 X23.0374 Y-11.8115 F60.00
G00 Z2.0000
G00 X23.0374 Y-8.4587
G01 F30.00
G01 Z-0.0700
G01 F60.00
G01 X23.0119 Y-8.4332 F60.00
G01 X22.9841 Y-8.3869 F60.00
G01 X22.9737 Y-8.3524 F60.00
G01 X22.9700 Y-8.3141 F60.00
G01 X22.9710 Y-7.6167 F60.00
G01 X22.9841 Y-7.5643 F60.00
G01 X23.0011 Y-7.5325 F60.00
G01 X23.0240 Y-7.5046 F60.00
G01 X23.0519 Y-7.4817 F60.00
G01 X23.0837 Y-7.4647 F60.00
G01 X23.1182 Y-7.4543 F60.00
G01 X23.1565 Y-7.4506 F60.00
G01 X23.8539 Y-7.4516 F60.00
G01 X23.9063 Y-7.4647 F60.00
G01 X23.9381 Y-7.4817 F60.00
G01 X23.9660 Y-7.5046 F60.00
G01 X23.9889 Y-7.5325 F60.00
G01 X24.0059 Y-7.5643 F60.00
G01 X24.0163 Y-7.5988 F60.00
G01 X24.0200 Y-7.6371 F60.00
G01 X24.0190 Y-8.3345 F60.00
G01 X24.0059 Y-8.3869 F60.00
G01 X23.9889 Y-8.4187 F60.00
G01 X23.9660 Y-8.4466 F60.00
G01 X23.9381 Y-8.4695 F60.00
G01 X23.9063 Y-8.4865 F60.00
G01 X23.8718 Y-8.4969 F60.00
G01 X23.8335 Y-8.5006 F60.00
G01 X23.1361 Y-8.4996 F60.00
G01 X23.0837 Y-8.4865 F60.00
G01 X23.0374 Y-8.4587 F60.00
G00 Z2.0000
G00 X28.8350 Y-7.5920
G01 F30.00
G01 Z-0.0700
G01 F60.00
G01 X28.8025 Y-7.5434 F60.00
G01 X28.7940 Y-7.5152 F60.00
G01 X28.7910 Y-7.4835 F60.00
G01 X28.7910 Y-6.6635 F60.00
G01 X28.7940 Y-6.6318 F60.00
G01 X28.8088 Y-6.5903 F60.00
G01 X28.8251 Y-6.5659 F60.00
G01 X28.8577 Y-6.5364 F60.00
G01 X28.8975 Y-6.5176 F60.00
G01 X28.9435 Y-6.5110 F60.00
G01 X30.2385 Y-6.5110 F60.00
G01 X30.2702 Y-6.5140 F60.00
G01 X30.3117 Y-6.5288 F60.00
G01 X30.3470 Y-6.5550 F60.00
G01 X30.3656 Y-6.5777 F60.00
G01 X30.3844 Y-6.6175 F60.00
G01 X30.3910 Y-6.6635 F60.00
G01 X30.3910 Y-7.4835 F60.00
G01 X30.3880 Y-7.5152 F60.00
G01 X30.3732 Y-7.5567 F60.00
G01 X30.3569 Y-7.5811 F60.00
G01 X30.3243 Y-7.6106 F60.00
G01 X30.2845 Y-7.6294 F60.00
G01 X30.2385 Y-7.6360 F60.00
G01 X28.9435 Y-7.6360 F60.00
G01 X28.9118 Y-7.6330 F60.00
G01 X28.8836 Y-7.6245 F60.00
G01 X28.8350 Y-7.5920 F60.00
G00 Z2.0000
G00 X28.8350 Y-10.7170
G01 F30.00
G01 Z-0.0700
G01 F60.00
G01 X28.8025 Y-10.6684 F60.00
G01 X28.7940 Y-10.6402 F60.00
G01 X28.7910 Y-10.6085 F60.00
G01 X28.7910 Y-9.7885 F60.00
G01 X28.7940 Y-9.7568 F60.00
G01 X28.8088 Y-9.7153 F60.00
G01 X28.8251 Y-9.6909 F60.00
G01 X28.8577 Y-9.6614 F60.00
G01 X28.8975 Y-9.6426 F60.00
G01 X28.9435 Y-9.6360 F60.00
G01 X30.2385 Y-9.6360 F60.00
G01 X30.2702 Y-9.6390 F60.00
G01 X30.3117 Y-9.6538 F60.00
G01 X30.3470 Y-9.6800 F60.00
G01 X30.3656 Y-9.7027 F60.00
G01 X30.3844 Y-9.7425 F60.00
G01 X30.3910 Y-9.7885 F60.00
G01 X30.3910 Y-10.6085 F60.00
G01 X30.3880 Y-10.6402 F60.00
G01 X30.3732 Y-10.6817 F60.00
G01 X30.3569 Y-10.7061 F60.00
G01 X30.3243 Y-10.7356 F60.00
G01 X30.2845 Y-10.7544 F60.00
G01 X30.2385 Y-10.7610 F60.00
G01 X28.9435 Y-10.7610 F60.00
G01 X28.9118 Y-10.7580 F60.00
G01 X28.8836 Y-10.7495 F60.00
G01 X28.8350 Y-10.7170 F60.00
G00 Z2.0000
G00 X31.5270 Y-9.8780
G01 F30.00
G01 Z-0.0700
G01 F60.00
G01 X31.4945 Y-9.8294 F60.00
G01 X31.4860 Y-9.8012 F60.00
G01 X31.4830 Y-9.7695 F60.00
G01 X31.4830 Y-8.9745 F60.00
G01 X31.4860 Y-8.9428 F60.00
G01 X31.5008 Y-8.9013 F60.00
G01 X31.5171 Y-8.8769 F60.00
G01 X31.5497 Y-8.8474 F60.00
G01 X31.5895 Y-8.8286 F60.00
G01 X31.6355 Y-8.8220 F60.00
G01 X32.8805 Y-8.8220 F60.00
G01 X32.9122 Y-8.8250 F60.00
G01 X32.9537 Y-8.8398 F60.00
G01 X32.9781 Y-8.8561 F60.00
G01 X33.0076 Y-8.8887 F60.00
G01 X33.0264 Y-8.9285 F60.00
G01 X33.0330 Y-8.9745 F60.00
G01 X33.0330 Y-9.7695 F60.00
G01 X33.0300 Y-9.8012 F60.00
G01 X33.0152 Y-9.8427 F60.00
G01 X32.9890 Y-9.8780 F60.00
G01 X32.9663 Y-9.8966 F60.00
G01 X32.9265 Y-9.9154 F60.00
G01 X32.8805 Y-9.9220 F60.00
G01 X31.6355 Y-9.9220 F60.00
G01 X31.6038 Y-9.9190 F60.00
G01 X31.5756 Y-9.9105 F60.00
G01 X31.5270 Y-9.8780 F60.00
G00 Z2.0000
G00 X34.5580 Y-10.1750
G01 F30.00
G01 Z-0.0700
G01 F60.00
G01 X34.5580 Y-8.8750 F60.00
G01 X36.3580 Y-8.8750 F60.00
G01 X36.3580 Y-10.1750 F60.00
G01 X34.5580 Y-10.1750 F60.00
G00 Z2.0000
G00 X34.5580 Y-7.8750
G01 F30.00
G01 Z-0.0700
G01 F60.00
G01 X34.5580 Y-6.5750 F60.00
G01 X36.3580 Y-6.5750 F60.00
G01 X36.3580 Y-7.8750 F60.00
G01 X34.5580 Y-7.8750 F60.00
G00 Z2.0000
G00 X35.6369 Y-4.7005
G01 F30.00
G01 Z-0.0700
G01 F60.00
G01 X35.6090 Y-4.7234 F60.00
G01 X35.5772 Y-4.7404 F60.00
G01 X35.5427 Y-4.7508 F60.00
G01 X35.5044 Y-4.7545 F60.00
G01 X34.8070 Y-4.7535 F60.00
G01 X34.7546 Y-4.7404 F60.00
G01 X34.7228 Y-4.7234 F60.00
G01 X34.6949 Y-4.7005 F60.00
G01 X34.6720 Y-4.6726 F60.00
G01 X34.6550 Y-4.6408 F60.00
G01 X34.6446 Y-4.6063 F60.00
G01 X34.6409 Y-4.5680 F60.00
G01 X34.6419 Y-3.8706 F60.00
G01 X34.6550 Y-3.8182 F60.00
G01 X34.6720 Y-3.7864 F60.00
G01 X34.6949 Y-3.7585 F60.00
G01 X34.7228 Y-3.7356 F60.00
G01 X34.7546 Y-3.7186 F60.00
G01 X34.7891 Y-3.7082 F60.00
G01 X34.8274 Y-3.7045 F60.00
G01 X35.5248 Y-3.7055 F60.00
G01 X35.5772 Y-3.7186 F60.00
G01 X35.6090 Y-3.7356 F60.00
G01 X35.6369 Y-3.7585 F60.00
G01 X35.6598 Y-3.7864 F60.00
G01 X35.6768 Y-3.8182 F60.00
G01 X35.6872 Y-3.8527 F60.00
G01 X35.6909 Y-3.8910 F60.00
G01 X35.6899 Y-4.5884 F60.00
G01 X35.6768 Y-4.6408 F60.00
G01 X35.6598 Y-4.6726 F60.00
G01 X35.6369 Y-4.7005 F60.00
G00 Z2.0000
G00 X32.2841 Y-4.7005
G01 F30.00
G01 Z-0.0700
G01 F60.00
G01 X32.2562 Y-4.7234 F60.00
G01 X32.2244 Y-4.7404 F60.00
G01 X32.1899 Y-4.7508 F60.00
G01 X32.1516 Y-4.7545 F60.00
G01 X31.4542 Y-4.7535 F60.00
G01 X31.4018 Y-4.7404 F60.00
G01 X31.3700 Y-4.7234 F60.00
G01 X31.3421 Y-4.7005 F60.00
G01 X31.3192 Y-4.6726 F60.00
G01 X31.3022 Y-4.6408 F60.00
G01 X31.2918 Y-4.6063 F60.00
G01 X31.2881 Y-4.5680 F60.00
G01 X31.2891 Y-3.8706 F60.00
G01 X31.3022 Y-3.8182 F60.00
G01 X31.3192 Y-3.7864 F60.00
G01 X31.3421 Y-3.7585 F60.00
G01 X31.3700 Y-3.7356 F60.00
G01 X31.4018 Y-3.7186 F60.00
G01 X31.4363 Y-3.7082 F60.00
G01 X31.4746 Y-3.7045 F60.00
G01 X32.1720 Y-3.7055 F60.00
G01 X32.2244 Y-3.7186 F60.00
G01 X32.2562 Y-3.7356 F60.00
G01 X32.2841 Y-3.7585 F60.00
G01 X32.3070 Y-3.7864 F60.00
G01 X32.3240 Y-3.8182 F60.00
G01 X32.3344 Y-3.8527 F60.00
G01 X32.3381 Y-3.8910 F60.00
G01 X32.3371 Y-4.5884 F60.00
G01 X32.3240 Y-4.6408 F60.00
G01 X32.3070 Y-4.6726 F60.00
G01 X32.2841 Y-4.7005 F60.00
G00 Z2.0000
G00 X34.5580 Y-12.4750
G01 F30.00
G01 Z-0.0700
G01 F60.00
G01 X34.5580 Y-11.1750 F60.00
G01 X36.3580 Y-11.1750 F60.00
G01 X36.3580 Y-12.4750 F60.00
G01 X34.5580 Y-12.4750 F60.00
G00 Z2.0000
G00 X31.5270 Y-12.9780
G01 F30.00
G01 Z-0.0700
G01 F60.00
G01 X31.4945 Y-12.9294 F60.00
G01 X31.4860 Y-12.9012 F60.00
G01 X31.4830 Y-12.8695 F60.00
G01 X31.4830 Y-12.0745 F60.00
G01 X31.4860 Y-12.0428 F60.00
G01 X31.5008 Y-12.0013 F60.00
G01 X31.5171 Y-11.9769 F60.00
G01 X31.5497 Y-11.9474 F60.00
G01 X31.5895 Y-11.9286 F60.00
G01 X31.6355 Y-11.9220 F60.00
G01 X32.8805 Y-11.9220 F60.00
G01 X32.9122 Y-11.9250 F60.00
G01 X32.9537 Y-11.9398 F60.00
G01 X32.9781 Y-11.9561 F60.00
G01 X33.0076 Y-11.9887 F60.00
G01 X33.0264 Y-12.0285 F60.00
G01 X33.0330 Y-12.0745 F60.00
G01 X33.0330 Y-12.8695 F60.00
G01 X33.0300 Y-12.9012 F60.00
G01 X33.0152 Y-12.9427 F60.00
G01 X32.9890 Y-12.9780 F60.00
G01 X32.9663 Y-12.9966 F60.00
G01 X32.9265 Y-13.0154 F60.00
G01 X32.8805 Y-13.0220 F60.00
G01 X31.6355 Y-13.0220 F60.00
G01 X31.6038 Y-13.0190 F60.00
G01 X31.5756 Y-13.0105 F60.00
G01 X31.5270 Y-12.9780 F60.00
G00 Z2.0000
G00 X33.6270 Y-15.4630
G01 F30.00
G01 Z-0.0700
G01 F60.00
G01 X33.5784 Y-15.4955 F60.00
G01 X33.5502 Y-15.5040 F60.00
G01 X33.5185 Y-15.5070 F60.00
G01 X32.7235 Y-15.5070 F60.00
G01 X32.6918 Y-15.5040 F60.00
G01 X32.6503 Y-15.4892 F60.00
G01 X32.6150 Y-15.4630 F60.00
G01 X32.5964 Y-15.4403 F60.00
G01 X32.5776 Y-15.4005 F60.00
G01 X32.5710 Y-15.3545 F60.00
G01 X32.5710 Y-14.1095 F60.00
G01 X32.5740 Y-14.0778 F60.00
G01 X32.5888 Y-14.0363 F60.00
G01 X32.6150 Y-14.0010 F60.00
G01 X32.6377 Y-13.9824 F60.00
G01 X32.6775 Y-13.9636 F60.00
G01 X32.7235 Y-13.9570 F60.00
G01 X33.5185 Y-13.9570 F60.00
G01 X33.5502 Y-13.9600 F60.00
G01 X33.5917 Y-13.9748 F60.00
G01 X33.6270 Y-14.0010 F60.00
G01 X33.6456 Y-14.0237 F60.00
G01 X33.6644 Y-14.0635 F60.00
G01 X33.6710 Y-14.1095 F60.00
G01 X33.6710 Y-15.3545 F60.00
G01 X33.6680 Y-15.3862 F60.00
G01 X33.6595 Y-15.4144 F60.00
G01 X33.6270 Y-15.4630 F60.00
G00 Z2.0000
G00 X32.5660 Y-16.7950
G01 F30.00
G01 Z-0.0700
G01 F60.00
G01 X32.6146 Y-16.7625 F60.00
G01 X32.6428 Y-16.7540 F60.00
G01 X32.6745 Y-16.7510 F60.00
G01 X33.4695 Y-16.7510 F60.00
G01 X33.5012 Y-16.7540 F60.00
G01 X33.5427 Y-16.7688 F60.00
G01 X33.5671 Y-16.7851 F60.00
G01 X33.5966 Y-16.8177 F60.00
G01 X33.6154 Y-16.8575 F60.00
G01 X33.6220 Y-16.9035 F60.00
G01 X33.6220 Y-18.1485 F60.00
G01 X33.6190 Y-18.1802 F60.00
G01 X33.6042 Y-18.2217 F60.00
G01 X33.5780 Y-18.2570 F60.00
G01 X33.5553 Y-18.2756 F60.00
G01 X33.5155 Y-18.2944 F60.00
G01 X33.4695 Y-18.3010 F60.00
G01 X32.6745 Y-18.3010 F60.00
G01 X32.6428 Y-18.2980 F60.00
G01 X32.6013 Y-18.2832 F60.00
G01 X32.5769 Y-18.2669 F60.00
G01 X32.5474 Y-18.2343 F60.00
G01 X32.5286 Y-18.1945 F60.00
G01 X32.5220 Y-18.1485 F60.00
G01 X32.5220 Y-16.9035 F60.00
G01 X32.5250 Y-16.8718 F60.00
G01 X32.5335 Y-16.8436 F60.00
G01 X32.5660 Y-16.7950 F60.00
G00 Z2.0000
G00 X32.5660 Y-19.1955
G01 F30.00
G01 Z-0.0700
G01 F60.00
G01 X32.6146 Y-19.1630 F60.00
G01 X32.6428 Y-19.1545 F60.00
G01 X32.6745 Y-19.1515 F60.00
G01 X33.4945 Y-19.1515 F60.00
G01 X33.5262 Y-19.1545 F60.00
G01 X33.5677 Y-19.1693 F60.00
G01 X33.5921 Y-19.1856 F60.00
G01 X33.6216 Y-19.2182 F60.00
G01 X33.6404 Y-19.2580 F60.00
G01 X33.6470 Y-19.3040 F60.00
G01 X33.6470 Y-20.5990 F60.00
G01 X33.6440 Y-20.6307 F60.00
G01 X33.6292 Y-20.6722 F60.00
G01 X33.6030 Y-20.7075 F60.00
G01 X33.5803 Y-20.7261 F60.00
G01 X33.5405 Y-20.7449 F60.00
G01 X33.4945 Y-20.7515 F60.00
G01 X32.6745 Y-20.7515 F60.00
G01 X32.6428 Y-20.7485 F60.00
G01 X32.6013 Y-20.7337 F60.00
G01 X32.5769 Y-20.7174 F60.00
G01 X32.5474 Y-20.6848 F60.00
G01 X32.5286 Y-20.6450 F60.00
G01 X32.5220 Y-20.5990 F60.00
G01 X32.5220 Y-19.3040 F60.00
G01 X32.5250 Y-19.2723 F60.00
G01 X32.5335 Y-19.2441 F60.00
G01 X32.5660 Y-19.1955 F60.00
G00 Z2.0000
G00 X29.4311 Y-19.2064
G01 F30.00
G01 Z-0.0700
G01 F60.00
G01 X29.4763 Y-19.1693 F60.00
G01 X29.5323 Y-19.1523 F60.00
G01 X30.3695 Y-19.1515 F60.00
G01 X30.4012 Y-19.1545 F60.00
G01 X30.4427 Y-19.1693 F60.00
G01 X30.4671 Y-19.1856 F60.00
G01 X30.4966 Y-19.2182 F60.00
G01 X30.5154 Y-19.2580 F60.00
G01 X30.5220 Y-19.3040 F60.00
G01 X30.5220 Y-20.5990 F60.00
G01 X30.5190 Y-20.6307 F60.00
G01 X30.5042 Y-20.6722 F60.00
G01 X30.4879 Y-20.6966 F60.00
G01 X30.4553 Y-20.7261 F60.00
G01 X30.4155 Y-20.7449 F60.00
G01 X30.3695 Y-20.7515 F60.00
G01 X29.5495 Y-20.7515 F60.00
G01 X29.5178 Y-20.7485 F60.00
G01 X29.4763 Y-20.7337 F60.00
G01 X29.4519 Y-20.7174 F60.00
G01 X29.4224 Y-20.6848 F60.00
G01 X29.4036 Y-20.6450 F60.00
G01 X29.3970 Y-20.5990 F60.00
G01 X29.3970 Y-19.3040 F60.00
G01 X29.4036 Y-19.2580 F60.00
G01 X29.4311 Y-19.2064 F60.00
G00 Z2.0000
G00 X29.4660 Y-16.7950
G01 F30.00
G01 Z-0.0700
G01 F60.00
G01 X29.5146 Y-16.7625 F60.00
G01 X29.5428 Y-16.7540 F60.00
G01 X29.5745 Y-16.7510 F60.00
G01 X30.3695 Y-16.7510 F60.00
G01 X30.4012 Y-16.7540 F60.00
G01 X30.4427 Y-16.7688 F60.00
G01 X30.4671 Y-16.7851 F60.00
G01 X30.4966 Y-16.8177 F60.00
G01 X30.5154 Y-16.8575 F60.00
G01 X30.5220 Y-16.9035 F60.00
G01 X30.5220 Y-18.1485 F60.00
G01 X30.5190 Y-18.1802 F60.00
G01 X30.5042 Y-18.2217 F60.00
G01 X30.4879 Y-18.2461 F60.00
G01 X30.4553 Y-18.2756 F60.00
G01 X30.4155 Y-18.2944 F60.00
G01 X30.3695 Y-18.3010 F60.00
G01 X29.5745 Y-18.3010 F60.00
G01 X29.5428 Y-18.2980 F60.00
G01 X29.5013 Y-18.2832 F60.00
G01 X29.4769 Y-18.2669 F60.00
G01 X29.4474 Y-18.2343 F60.00
G01 X29.4286 Y-18.1945 F60.00
G01 X29.4220 Y-18.1485 F60.00
G01 X29.4220 Y-16.9035 F60.00
G01 X29.4250 Y-16.8718 F60.00
G01 X29.4335 Y-16.8436 F60.00
G01 X29.4660 Y-16.7950 F60.00
G00 Z2.0000
G00 X36.7369 Y-15.4521
G01 F30.00
G01 Z-0.0700
G01 F60.00
G01 X36.6917 Y-15.4892 F60.00
G01 X36.6357 Y-15.5062 F60.00
G01 X35.8235 Y-15.5070 F60.00
G01 X35.7918 Y-15.5040 F60.00
G01 X35.7503 Y-15.4892 F60.00
G01 X35.7150 Y-15.4630 F60.00
G01 X35.6964 Y-15.4403 F60.00
G01 X35.6776 Y-15.4005 F60.00
G01 X35.6710 Y-15.3545 F60.00
G01 X35.6710 Y-14.1095 F60.00
G01 X35.6740 Y-14.0778 F60.00
G01 X35.6888 Y-14.0363 F60.00
G01 X35.7150 Y-14.0010 F60.00
G01 X35.7377 Y-13.9824 F60.00
G01 X35.7775 Y-13.9636 F60.00
G01 X35.8235 Y-13.9570 F60.00
G01 X36.6185 Y-13.9570 F60.00
G01 X36.6502 Y-13.9600 F60.00
G01 X36.6917 Y-13.9748 F60.00
G01 X36.7270 Y-14.0010 F60.00
G01 X36.7456 Y-14.0237 F60.00
G01 X36.7644 Y-14.0635 F60.00
G01 X36.7710 Y-14.1095 F60.00
G01 X36.7710 Y-15.3545 F60.00
G01 X36.7644 Y-15.4005 F60.00
G01 X36.7369 Y-15.4521 F60.00
G00 Z2.0000
G00 X40.1999 Y-17.3809
G01 F30.00
G01 Z-0.0700
G01 F60.00
G01 X40.1628 Y-17.3357 F60.00
G01 X40.1458 Y-17.2797 F60.00
G01 X40.1450 Y-16.4675 F60.00
G01 X40.1480 Y-16.4358 F60.00
G01 X40.1628 Y-16.3943 F60.00
G01 X40.1890 Y-16.3590 F60.00
G01 X40.2117 Y-16.3404 F60.00
G01 X40.2515 Y-16.3216 F60.00
G01 X40.2975 Y-16.3150 F60.00
G01 X41.5425 Y-16.3150 F60.00
G01 X41.5742 Y-16.3180 F60.00
G01 X41.6157 Y-16.3328 F60.00
G01 X41.6401 Y-16.3491 F60.00
G01 X41.6696 Y-16.3817 F60.00
G01 X41.6884 Y-16.4215 F60.00
G01 X41.6950 Y-16.4675 F60.00
G01 X41.6950 Y-17.2625 F60.00
G01 X41.6920 Y-17.2942 F60.00
G01 X41.6772 Y-17.3357 F60.00
G01 X41.6510 Y-17.3710 F60.00
G01 X41.6283 Y-17.3896 F60.00
G01 X41.5885 Y-17.4084 F60.00
G01 X41.5425 Y-17.4150 F60.00
G01 X40.2975 Y-17.4150 F60.00
G01 X40.2515 Y-17.4084 F60.00
G01 X40.1999 Y-17.3809 F60.00
G00 Z2.0000
G00 X42.5895 Y-17.3710
G01 F30.00
G01 Z-0.0700
G01 F60.00
G01 X42.5570 Y-17.3224 F60.00
G01 X42.5485 Y-17.2942 F60.00
G01 X42.5455 Y-17.2625 F60.00
G01 X42.5455 Y-16.4425 F60.00
G01 X42.5485 Y-16.4108 F60.00
G01 X42.5633 Y-16.3693 F60.00
G01 X42.5895 Y-16.3340 F60.00
G01 X42.6122 Y-16.3154 F60.00
G01 X42.6520 Y-16.2966 F60.00
G01 X42.6980 Y-16.2900 F60.00
G01 X43.9930 Y-16.2900 F60.00
G01 X44.0247 Y-16.2930 F60.00
G01 X44.0662 Y-16.3078 F60.00
G01 X44.0906 Y-16.3241 F60.00
G01 X44.1201 Y-16.3567 F60.00
G01 X44.1389 Y-16.3965 F60.00
G01 X44.1455 Y-16.4425 F60.00
G01 X44.1455 Y-17.2625 F60.00
G01 X44.1425 Y-17.2942 F60.00
G01 X44.1277 Y-17.3357 F60.00
G01 X44.1015 Y-17.3710 F60.00
G01 X44.0788 Y-17.3896 F60.00
G01 X44.0390 Y-17.4084 F60.00
G01 X43.9930 Y-17.4150 F60.00
G01 X42.6980 Y-17.4150 F60.00
G01 X42.6663 Y-17.4120 F60.00
G01 X42.6381 Y-17.4035 F60.00
G01 X42.5895 Y-17.3710 F60.00
G00 Z2.0000
G00 X42.6004 Y-20.5059
G01 F30.00
G01 Z-0.0700
G01 F60.00
G01 X42.5633 Y-20.4607 F60.00
G01 X42.5463 Y-20.4047 F60.00
G01 X42.5455 Y-19.5675 F60.00
G01 X42.5485 Y-19.5358 F60.00
G01 X42.5633 Y-19.4943 F60.00
G01 X42.5895 Y-19.4590 F60.00
G01 X42.6122 Y-19.4404 F60.00
G01 X42.6520 Y-19.4216 F60.00
G01 X42.6980 Y-19.4150 F60.00
G01 X43.9930 Y-19.4150 F60.00
G01 X44.0247 Y-19.4180 F60.00
G01 X44.0662 Y-19.4328 F60.00
G01 X44.0906 Y-19.4491 F60.00
G01 X44.1201 Y-19.4817 F60.00
G01 X44.1389 Y-19.5215 F60.00
G01 X44.1455 Y-19.5675 F60.00
G01 X44.1455 Y-20.3875 F60.00
G01 X44.1425 Y-20.4192 F60.00
G01 X44.1277 Y-20.4607 F60.00
G01 X44.1015 Y-20.4960 F60.00
G01 X44.0788 Y-20.5146 F60.00
G01 X44.0390 Y-20.5334 F60.00
G01 X43.9930 Y-20.5400 F60.00
G01 X42.6980 Y-20.5400 F60.00
G01 X42.6520 Y-20.5334 F60.00
G01 X42.6004 Y-20.5059 F60.00
G00 Z2.0000
G00 X40.1890 Y-20.4710
G01 F30.00
G01 Z-0.0700
G01 F60.00
G01 X40.1565 Y-20.4224 F60.00
G01 X40.1480 Y-20.3942 F60.00
G01 X40.1450 Y-20.3625 F60.00
G01 X40.1450 Y-19.5675 F60.00
G01 X40.1480 Y-19.5358 F60.00
G01 X40.1628 Y-19.4943 F60.00
G01 X40.1890 Y-19.4590 F60.00
G01 X40.2117 Y-19.4404 F60.00
G01 X40.2515 Y-19.4216 F60.00
G01 X40.2975 Y-19.4150 F60.00
G01 X41.5425 Y-19.4150 F60.00
G01 X41.5742 Y-19.4180 F60.00
G01 X41.6157 Y-19.4328 F60.00
G01 X41.6401 Y-19.4491 F60.00
G01 X41.6696 Y-19.4817 F60.00
G01 X41.6884 Y-19.5215 F60.00
G01 X41.6950 Y-19.5675 F60.00
G01 X41.6950 Y-20.3625 F60.00
G01 X41.6920 Y-20.3942 F60.00
G01 X41.6772 Y-20.4357 F60.00
G01 X41.6510 Y-20.4710 F60.00
G01 X41.6283 Y-20.4896 F60.00
G01 X41.5885 Y-20.5084 F60.00
G01 X41.5425 Y-20.5150 F60.00
G01 X40.2975 Y-20.5150 F60.00
G01 X40.2658 Y-20.5120 F60.00
G01 X40.2376 Y-20.5035 F60.00
G01 X40.1890 Y-20.4710 F60.00
G00 Z2.0000
G00 X42.6580 Y-11.3250
G01 F30.00
G01 Z-0.0700
G01 F60.00
G01 X40.8580 Y-11.3250 F60.00
G01 X40.8580 Y-7.7250 F60.00
G01 X42.6580 Y-7.7250 F60.00
G01 X42.6580 Y-11.3250 F60.00
G00 Z2.0000
M05
G00 Z2.0000
G00 Z15.00


