(G-code generated by FlatCAM Evo vUnstable - Version Date: 2023/6/31)

(Name: VTVMbattElim-B_Paste.gbr_edit_iso_combined_1_cnc)
(Type: G-code from Geometry)
(Units: MM)

(Created on Tuesday, 30 April 2024 at 22:44)

(This preprocessor is used with a motion controller loaded with GRBL firmware.)
(It is configured to be compatible with almost any version of GRBL firmware. No M6 command.)

(TOOL DIAMETER: 0.1375 mm)
(Feedrate_XY: 100.0 mm/min)
(Feedrate_Z: 60.0 mm/min)
(Feedrate rapids 1500.0 mm/min)

(Z_Cut: -0.07 mm)
(Z_Move: 2.0 mm)
(Z Start: None mm)
(Z End: 15.0 mm)
(X,Y End: None mm)
(Steps per circle: 16)
(Steps per circle: 16)
(Preprocessor Geometry: GRBL_11_no_M6)

(X range:   -0.1188 ...   50.1568  mm)
(Y range:  -26.2808 ...    0.1188  mm)

(Spindle Speed: 10000.0 RPM)
G21
G90
G17
G94


G01 F100.00
G00 Z2.0000

M03 S10000.0
G01 F100.00
G00 X-0.1178 Y0.0150
G01 F60.00
G01 Z-0.0700
G01 F100.00
G01 X-0.1048 Y0.0560 F100.00
G01 X-0.0779 Y0.0896 F100.00
G01 X-0.0423 Y0.1109 F100.00
G01 X0.0000 Y0.1188 F100.00
G01 X50.0380 Y0.1188 F100.00
G01 X50.0645 Y0.1158 F100.00
G01 X50.0940 Y0.1048 F100.00
G01 X50.1195 Y0.0863 F100.00
G01 X50.1386 Y0.0631 F100.00
G01 X50.1517 Y0.0345 F100.00
G01 X50.1568 Y-0.0000 F100.00
G01 X50.1568 Y-26.1620 F100.00
G01 X50.1538 Y-26.1885 F100.00
G01 X50.1428 Y-26.2180 F100.00
G01 X50.1243 Y-26.2435 F100.00
G01 X50.1011 Y-26.2626 F100.00
G01 X50.0725 Y-26.2757 F100.00
G01 X50.0380 Y-26.2808 F100.00
G01 X0.0000 Y-26.2808 F100.00
G01 X-0.0265 Y-26.2778 F100.00
G01 X-0.0560 Y-26.2668 F100.00
G01 X-0.0815 Y-26.2483 F100.00
G01 X-0.1006 Y-26.2251 F100.00
G01 X-0.1137 Y-26.1965 F100.00
G01 X-0.1188 Y-26.1620 F100.00
G01 X-0.1178 Y0.0150 F100.00
G00 Z2.0000
G00 X8.4746 Y-14.5393
G01 F60.00
G01 Z-0.0700
G01 F100.00
G01 X8.5287 Y-14.5446 F100.00
G01 X8.5800 Y-14.5602 F100.00
G01 X8.6273 Y-14.5855 F100.00
G01 X8.6663 Y-14.6171 F100.00
G01 X8.7027 Y-14.6609 F100.00
G01 X8.7266 Y-14.7051 F100.00
G01 X8.7380 Y-14.7367 F100.00
G01 X8.7478 Y-14.7894 F100.00
G01 X8.7489 Y-17.9507 F100.00
G01 X8.7428 Y-18.0098 F100.00
G01 X8.7165 Y-18.0821 F100.00
G01 X8.6711 Y-18.1441 F100.00
G01 X8.6273 Y-18.1805 F100.00
G01 X8.5580 Y-18.2138 F100.00
G01 X8.4988 Y-18.2256 F100.00
G01 X6.6474 Y-18.2267 F100.00
G01 X6.5900 Y-18.2206 F100.00
G01 X6.5177 Y-18.1943 F100.00
G01 X6.4533 Y-18.1465 F100.00
G01 X6.4071 Y-18.0850 F100.00
G01 X6.3840 Y-18.0293 F100.00
G01 X6.3731 Y-17.9524 F100.00
G01 X6.3731 Y-14.8153 F100.00
G01 X6.3792 Y-14.7562 F100.00
G01 X6.4055 Y-14.6839 F100.00
G01 X6.4509 Y-14.6219 F100.00
G01 X6.4947 Y-14.5855 F100.00
G01 X6.5640 Y-14.5522 F100.00
G01 X6.6232 Y-14.5404 F100.00
G01 X8.4746 Y-14.5393 F100.00
G00 Z2.0000
G00 X17.2266 Y-18.0609
G01 F60.00
G01 Z-0.0700
G01 F100.00
G01 X17.1868 Y-18.1267 F100.00
G01 X17.1273 Y-18.1805 F100.00
G01 X17.0548 Y-18.2149 F100.00
G01 X16.9746 Y-18.2267 F100.00
G01 X15.1232 Y-18.2256 F100.00
G01 X15.0672 Y-18.2149 F100.00
G01 X15.0148 Y-18.1927 F100.00
G01 X14.9557 Y-18.1489 F100.00
G01 X14.9193 Y-18.1051 F100.00
G01 X14.8849 Y-18.0326 F100.00
G01 X14.8731 Y-17.9524 F100.00
G01 X14.8731 Y-14.8136 F100.00
G01 X14.8792 Y-14.7562 F100.00
G01 X14.9055 Y-14.6839 F100.00
G01 X14.9374 Y-14.6368 F100.00
G01 X14.9947 Y-14.5855 F100.00
G01 X15.0672 Y-14.5511 F100.00
G01 X15.1474 Y-14.5393 F100.00
G01 X16.9746 Y-14.5393 F100.00
G01 X17.0320 Y-14.5454 F100.00
G01 X17.1043 Y-14.5717 F100.00
G01 X17.1663 Y-14.6171 F100.00
G01 X17.2027 Y-14.6609 F100.00
G01 X17.2371 Y-14.7334 F100.00
G01 X17.2489 Y-14.8153 F100.00
G01 X17.2489 Y-17.9507 F100.00
G01 X17.2436 Y-18.0065 F100.00
G01 X17.2266 Y-18.0609 F100.00
G00 Z2.0000
G00 X23.0543 Y-11.9014
G01 F60.00
G01 Z-0.0700
G01 F100.00
G01 X22.9938 Y-11.8647 F100.00
G01 X22.9459 Y-11.8125 F100.00
G01 X22.9194 Y-11.7629 F100.00
G01 X22.9026 Y-11.6941 F100.00
G01 X22.9023 Y-10.9661 F100.00
G01 X22.9206 Y-10.8908 F100.00
G01 X22.9587 Y-10.8272 F100.00
G01 X22.9964 Y-10.7901 F100.00
G01 X23.0543 Y-10.7554 F100.00
G01 X23.1048 Y-10.7396 F100.00
G01 X23.1549 Y-10.7347 F100.00
G01 X23.8573 Y-10.7357 F100.00
G01 X23.9326 Y-10.7540 F100.00
G01 X23.9962 Y-10.7921 F100.00
G01 X24.0333 Y-10.8298 F100.00
G01 X24.0680 Y-10.8877 F100.00
G01 X24.0838 Y-10.9382 F100.00
G01 X24.0887 Y-10.9883 F100.00
G01 X24.0877 Y-11.6907 F100.00
G01 X24.0694 Y-11.7660 F100.00
G01 X24.0313 Y-11.8296 F100.00
G01 X23.9962 Y-11.8647 F100.00
G01 X23.9550 Y-11.8922 F100.00
G01 X23.9093 Y-11.9111 F100.00
G01 X23.8573 Y-11.9211 F100.00
G01 X23.1549 Y-11.9221 F100.00
G01 X23.1048 Y-11.9172 F100.00
G01 X23.0543 Y-11.9014 F100.00
G00 Z2.0000
G00 X23.0543 Y-8.5486
G01 F60.00
G01 Z-0.0700
G01 F100.00
G01 X22.9938 Y-8.5119 F100.00
G01 X22.9459 Y-8.4597 F100.00
G01 X22.9194 Y-8.4101 F100.00
G01 X22.9026 Y-8.3413 F100.00
G01 X22.9023 Y-7.6133 F100.00
G01 X22.9206 Y-7.5380 F100.00
G01 X22.9587 Y-7.4744 F100.00
G01 X22.9964 Y-7.4373 F100.00
G01 X23.0543 Y-7.4026 F100.00
G01 X23.1048 Y-7.3868 F100.00
G01 X23.1549 Y-7.3819 F100.00
G01 X23.8573 Y-7.3829 F100.00
G01 X23.9326 Y-7.4012 F100.00
G01 X23.9962 Y-7.4393 F100.00
G01 X24.0333 Y-7.4770 F100.00
G01 X24.0680 Y-7.5349 F100.00
G01 X24.0838 Y-7.5854 F100.00
G01 X24.0887 Y-7.6355 F100.00
G01 X24.0877 Y-8.3379 F100.00
G01 X24.0694 Y-8.4132 F100.00
G01 X24.0313 Y-8.4768 F100.00
G01 X23.9962 Y-8.5119 F100.00
G01 X23.9550 Y-8.5394 F100.00
G01 X23.9093 Y-8.5583 F100.00
G01 X23.8573 Y-8.5683 F100.00
G01 X23.1549 Y-8.5693 F100.00
G01 X23.1048 Y-8.5644 F100.00
G01 X23.0543 Y-8.5486 F100.00
G00 Z2.0000
G00 X28.8542 Y-7.6866
G01 F60.00
G01 Z-0.0700
G01 F100.00
G01 X28.8023 Y-7.6550 F100.00
G01 X28.7592 Y-7.6075 F100.00
G01 X28.7318 Y-7.5495 F100.00
G01 X28.7223 Y-7.4852 F100.00
G01 X28.7234 Y-6.6396 F100.00
G01 X28.7318 Y-6.5975 F100.00
G01 X28.7498 Y-6.5550 F100.00
G01 X28.7841 Y-6.5088 F100.00
G01 X28.8168 Y-6.4812 F100.00
G01 X28.8775 Y-6.4518 F100.00
G01 X28.9418 Y-6.4423 F100.00
G01 X30.2402 Y-6.4423 F100.00
G01 X30.2869 Y-6.4473 F100.00
G01 X30.3441 Y-6.4682 F100.00
G01 X30.3823 Y-6.4942 F100.00
G01 X30.4208 Y-6.5368 F100.00
G01 X30.4502 Y-6.5975 F100.00
G01 X30.4597 Y-6.6601 F100.00
G01 X30.4588 Y-7.5041 F100.00
G01 X30.4502 Y-7.5495 F100.00
G01 X30.4322 Y-7.5920 F100.00
G01 X30.3979 Y-7.6382 F100.00
G01 X30.3652 Y-7.6658 F100.00
G01 X30.3045 Y-7.6952 F100.00
G01 X30.2402 Y-7.7047 F100.00
G01 X28.9418 Y-7.7047 F100.00
G01 X28.8983 Y-7.7004 F100.00
G01 X28.8542 Y-7.6866 F100.00
G00 Z2.0000
G00 X28.8542 Y-10.8116
G01 F60.00
G01 Z-0.0700
G01 F100.00
G01 X28.8023 Y-10.7800 F100.00
G01 X28.7592 Y-10.7325 F100.00
G01 X28.7318 Y-10.6745 F100.00
G01 X28.7223 Y-10.6102 F100.00
G01 X28.7234 Y-9.7646 F100.00
G01 X28.7318 Y-9.7225 F100.00
G01 X28.7498 Y-9.6800 F100.00
G01 X28.7742 Y-9.6447 F100.00
G01 X28.8168 Y-9.6062 F100.00
G01 X28.8775 Y-9.5768 F100.00
G01 X28.9418 Y-9.5673 F100.00
G01 X30.2402 Y-9.5673 F100.00
G01 X30.2869 Y-9.5723 F100.00
G01 X30.3441 Y-9.5932 F100.00
G01 X30.3823 Y-9.6192 F100.00
G01 X30.4208 Y-9.6618 F100.00
G01 X30.4502 Y-9.7225 F100.00
G01 X30.4597 Y-9.7851 F100.00
G01 X30.4588 Y-10.6291 F100.00
G01 X30.4502 Y-10.6745 F100.00
G01 X30.4322 Y-10.7170 F100.00
G01 X30.4078 Y-10.7523 F100.00
G01 X30.3652 Y-10.7908 F100.00
G01 X30.3045 Y-10.8202 F100.00
G01 X30.2402 Y-10.8297 F100.00
G01 X28.9418 Y-10.8297 F100.00
G01 X28.8983 Y-10.8254 F100.00
G01 X28.8542 Y-10.8116 F100.00
G00 Z2.0000
G00 X31.5493 Y-9.9740
G01 F60.00
G01 Z-0.0700
G01 F100.00
G01 X31.4943 Y-9.9410 F100.00
G01 X31.4512 Y-9.8935 F100.00
G01 X31.4238 Y-9.8355 F100.00
G01 X31.4143 Y-9.7729 F100.00
G01 X31.4154 Y-8.9506 F100.00
G01 X31.4238 Y-8.9085 F100.00
G01 X31.4402 Y-8.8689 F100.00
G01 X31.4640 Y-8.8333 F100.00
G01 X31.4970 Y-8.8009 F100.00
G01 X31.5299 Y-8.7792 F100.00
G01 X31.5663 Y-8.7638 F100.00
G01 X31.6338 Y-8.7533 F100.00
G01 X32.8822 Y-8.7533 F100.00
G01 X32.9289 Y-8.7583 F100.00
G01 X32.9830 Y-8.7777 F100.00
G01 X33.0217 Y-8.8030 F100.00
G01 X33.0541 Y-8.8360 F100.00
G01 X33.0850 Y-8.8883 F100.00
G01 X33.1008 Y-8.9539 F100.00
G01 X33.1017 Y-9.7712 F100.00
G01 X33.0967 Y-9.8179 F100.00
G01 X33.0773 Y-9.8720 F100.00
G01 X33.0520 Y-9.9107 F100.00
G01 X33.0190 Y-9.9431 F100.00
G01 X32.9861 Y-9.9648 F100.00
G01 X32.9497 Y-9.9802 F100.00
G01 X32.8822 Y-9.9907 F100.00
G01 X31.6338 Y-9.9907 F100.00
G01 X31.5903 Y-9.9864 F100.00
G01 X31.5493 Y-9.9740 F100.00
G00 Z2.0000
G00 X31.5493 Y-13.0740
G01 F60.00
G01 Z-0.0700
G01 F100.00
G01 X31.4943 Y-13.0410 F100.00
G01 X31.4512 Y-12.9935 F100.00
G01 X31.4238 Y-12.9355 F100.00
G01 X31.4143 Y-12.8729 F100.00
G01 X31.4154 Y-12.0506 F100.00
G01 X31.4238 Y-12.0085 F100.00
G01 X31.4402 Y-11.9689 F100.00
G01 X31.4640 Y-11.9333 F100.00
G01 X31.4970 Y-11.9009 F100.00
G01 X31.5299 Y-11.8792 F100.00
G01 X31.5663 Y-11.8638 F100.00
G01 X31.6338 Y-11.8533 F100.00
G01 X32.8822 Y-11.8533 F100.00
G01 X32.9289 Y-11.8583 F100.00
G01 X32.9830 Y-11.8777 F100.00
G01 X33.0217 Y-11.9030 F100.00
G01 X33.0541 Y-11.9360 F100.00
G01 X33.0850 Y-11.9883 F100.00
G01 X33.1008 Y-12.0539 F100.00
G01 X33.1017 Y-12.8712 F100.00
G01 X33.0967 Y-12.9179 F100.00
G01 X33.0773 Y-12.9720 F100.00
G01 X33.0520 Y-13.0107 F100.00
G01 X33.0190 Y-13.0431 F100.00
G01 X32.9861 Y-13.0648 F100.00
G01 X32.9497 Y-13.0802 F100.00
G01 X32.8822 Y-13.0907 F100.00
G01 X31.6338 Y-13.0907 F100.00
G01 X31.5903 Y-13.0864 F100.00
G01 X31.5493 Y-13.0740 F100.00
G00 Z2.0000
G00 X33.7230 Y-15.4407
G01 F60.00
G01 Z-0.0700
G01 F100.00
G01 X33.6900 Y-15.4957 F100.00
G01 X33.6425 Y-15.5388 F100.00
G01 X33.5845 Y-15.5662 F100.00
G01 X33.5219 Y-15.5757 F100.00
G01 X32.6996 Y-15.5746 F100.00
G01 X32.6575 Y-15.5662 F100.00
G01 X32.6179 Y-15.5498 F100.00
G01 X32.5823 Y-15.5260 F100.00
G01 X32.5499 Y-15.4930 F100.00
G01 X32.5282 Y-15.4601 F100.00
G01 X32.5128 Y-15.4237 F100.00
G01 X32.5023 Y-15.3562 F100.00
G01 X32.5023 Y-14.1078 F100.00
G01 X32.5073 Y-14.0611 F100.00
G01 X32.5267 Y-14.0070 F100.00
G01 X32.5520 Y-13.9683 F100.00
G01 X32.5850 Y-13.9359 F100.00
G01 X32.6373 Y-13.9050 F100.00
G01 X32.7029 Y-13.8892 F100.00
G01 X33.5202 Y-13.8883 F100.00
G01 X33.5669 Y-13.8933 F100.00
G01 X33.6210 Y-13.9127 F100.00
G01 X33.6597 Y-13.9380 F100.00
G01 X33.6921 Y-13.9710 F100.00
G01 X33.7138 Y-14.0039 F100.00
G01 X33.7292 Y-14.0403 F100.00
G01 X33.7397 Y-14.1078 F100.00
G01 X33.7397 Y-15.3562 F100.00
G01 X33.7354 Y-15.3997 F100.00
G01 X33.7230 Y-15.4407 F100.00
G00 Z2.0000
G00 X32.4714 Y-16.8142
G01 F60.00
G01 Z-0.0700
G01 F100.00
G01 X32.5030 Y-16.7623 F100.00
G01 X32.5505 Y-16.7192 F100.00
G01 X32.6085 Y-16.6918 F100.00
G01 X32.6711 Y-16.6823 F100.00
G01 X33.4934 Y-16.6834 F100.00
G01 X33.5355 Y-16.6918 F100.00
G01 X33.5751 Y-16.7082 F100.00
G01 X33.6107 Y-16.7320 F100.00
G01 X33.6431 Y-16.7650 F100.00
G01 X33.6648 Y-16.7979 F100.00
G01 X33.6802 Y-16.8343 F100.00
G01 X33.6907 Y-16.9018 F100.00
G01 X33.6907 Y-18.1502 F100.00
G01 X33.6857 Y-18.1969 F100.00
G01 X33.6663 Y-18.2510 F100.00
G01 X33.6410 Y-18.2897 F100.00
G01 X33.6080 Y-18.3221 F100.00
G01 X33.5557 Y-18.3530 F100.00
G01 X33.4901 Y-18.3688 F100.00
G01 X32.6728 Y-18.3697 F100.00
G01 X32.6261 Y-18.3647 F100.00
G01 X32.5720 Y-18.3453 F100.00
G01 X32.5333 Y-18.3200 F100.00
G01 X32.5009 Y-18.2870 F100.00
G01 X32.4792 Y-18.2541 F100.00
G01 X32.4638 Y-18.2177 F100.00
G01 X32.4533 Y-18.1502 F100.00
G01 X32.4533 Y-16.9018 F100.00
G01 X32.4576 Y-16.8583 F100.00
G01 X32.4714 Y-16.8142 F100.00
G00 Z2.0000
G00 X32.4700 Y-19.2178
G01 F60.00
G01 Z-0.0700
G01 F100.00
G01 X32.5030 Y-19.1628 F100.00
G01 X32.5505 Y-19.1197 F100.00
G01 X32.6085 Y-19.0923 F100.00
G01 X32.6711 Y-19.0828 F100.00
G01 X33.5184 Y-19.0839 F100.00
G01 X33.5605 Y-19.0923 F100.00
G01 X33.6001 Y-19.1087 F100.00
G01 X33.6357 Y-19.1325 F100.00
G01 X33.6681 Y-19.1655 F100.00
G01 X33.6898 Y-19.1984 F100.00
G01 X33.7052 Y-19.2348 F100.00
G01 X33.7157 Y-19.3023 F100.00
G01 X33.7157 Y-20.6007 F100.00
G01 X33.7107 Y-20.6474 F100.00
G01 X33.6913 Y-20.7015 F100.00
G01 X33.6660 Y-20.7402 F100.00
G01 X33.6330 Y-20.7726 F100.00
G01 X33.5807 Y-20.8035 F100.00
G01 X33.5151 Y-20.8193 F100.00
G01 X32.6728 Y-20.8202 F100.00
G01 X32.6261 Y-20.8152 F100.00
G01 X32.5720 Y-20.7958 F100.00
G01 X32.5333 Y-20.7705 F100.00
G01 X32.5009 Y-20.7375 F100.00
G01 X32.4792 Y-20.7046 F100.00
G01 X32.4638 Y-20.6682 F100.00
G01 X32.4533 Y-20.6007 F100.00
G01 X32.4533 Y-19.3040 F100.00
G01 X32.4576 Y-19.2588 F100.00
G01 X32.4700 Y-19.2178 F100.00
G00 Z2.0000
G00 X29.3450 Y-19.2178
G01 F60.00
G01 Z-0.0700
G01 F100.00
G01 X29.3780 Y-19.1628 F100.00
G01 X29.4255 Y-19.1197 F100.00
G01 X29.4835 Y-19.0923 F100.00
G01 X29.5461 Y-19.0828 F100.00
G01 X30.3934 Y-19.0839 F100.00
G01 X30.4355 Y-19.0923 F100.00
G01 X30.4751 Y-19.1087 F100.00
G01 X30.5107 Y-19.1325 F100.00
G01 X30.5431 Y-19.1655 F100.00
G01 X30.5648 Y-19.1984 F100.00
G01 X30.5802 Y-19.2348 F100.00
G01 X30.5907 Y-19.3023 F100.00
G01 X30.5907 Y-20.6007 F100.00
G01 X30.5857 Y-20.6474 F100.00
G01 X30.5663 Y-20.7015 F100.00
G01 X30.5410 Y-20.7402 F100.00
G01 X30.5080 Y-20.7726 F100.00
G01 X30.4557 Y-20.8035 F100.00
G01 X30.3901 Y-20.8193 F100.00
G01 X29.5478 Y-20.8202 F100.00
G01 X29.5011 Y-20.8152 F100.00
G01 X29.4470 Y-20.7958 F100.00
G01 X29.4083 Y-20.7705 F100.00
G01 X29.3759 Y-20.7375 F100.00
G01 X29.3542 Y-20.7046 F100.00
G01 X29.3388 Y-20.6682 F100.00
G01 X29.3283 Y-20.6007 F100.00
G01 X29.3283 Y-19.3040 F100.00
G01 X29.3326 Y-19.2588 F100.00
G01 X29.3450 Y-19.2178 F100.00
G00 Z2.0000
G00 X29.3714 Y-16.8142
G01 F60.00
G01 Z-0.0700
G01 F100.00
G01 X29.4030 Y-16.7623 F100.00
G01 X29.4505 Y-16.7192 F100.00
G01 X29.5085 Y-16.6918 F100.00
G01 X29.5711 Y-16.6823 F100.00
G01 X30.3934 Y-16.6834 F100.00
G01 X30.4355 Y-16.6918 F100.00
G01 X30.4751 Y-16.7082 F100.00
G01 X30.5107 Y-16.7320 F100.00
G01 X30.5431 Y-16.7650 F100.00
G01 X30.5648 Y-16.7979 F100.00
G01 X30.5802 Y-16.8343 F100.00
G01 X30.5907 Y-16.9018 F100.00
G01 X30.5907 Y-18.1502 F100.00
G01 X30.5857 Y-18.1969 F100.00
G01 X30.5663 Y-18.2510 F100.00
G01 X30.5410 Y-18.2897 F100.00
G01 X30.5080 Y-18.3221 F100.00
G01 X30.4557 Y-18.3530 F100.00
G01 X30.3901 Y-18.3688 F100.00
G01 X29.5728 Y-18.3697 F100.00
G01 X29.5261 Y-18.3647 F100.00
G01 X29.4720 Y-18.3453 F100.00
G01 X29.4333 Y-18.3200 F100.00
G01 X29.4009 Y-18.2870 F100.00
G01 X29.3792 Y-18.2541 F100.00
G01 X29.3638 Y-18.2177 F100.00
G01 X29.3533 Y-18.1502 F100.00
G01 X29.3533 Y-16.9018 F100.00
G01 X29.3576 Y-16.8583 F100.00
G01 X29.3714 Y-16.8142 F100.00
G00 Z2.0000
G00 X36.8216 Y-15.4438
G01 F60.00
G01 Z-0.0700
G01 F100.00
G01 X36.7900 Y-15.4957 F100.00
G01 X36.7425 Y-15.5388 F100.00
G01 X36.6845 Y-15.5662 F100.00
G01 X36.6219 Y-15.5757 F100.00
G01 X35.7996 Y-15.5746 F100.00
G01 X35.7575 Y-15.5662 F100.00
G01 X35.7179 Y-15.5498 F100.00
G01 X35.6823 Y-15.5260 F100.00
G01 X35.6499 Y-15.4930 F100.00
G01 X35.6282 Y-15.4601 F100.00
G01 X35.6128 Y-15.4237 F100.00
G01 X35.6023 Y-15.3562 F100.00
G01 X35.6023 Y-14.1078 F100.00
G01 X35.6073 Y-14.0611 F100.00
G01 X35.6267 Y-14.0070 F100.00
G01 X35.6520 Y-13.9683 F100.00
G01 X35.6850 Y-13.9359 F100.00
G01 X35.7373 Y-13.9050 F100.00
G01 X35.8029 Y-13.8892 F100.00
G01 X36.6202 Y-13.8883 F100.00
G01 X36.6669 Y-13.8933 F100.00
G01 X36.7210 Y-13.9127 F100.00
G01 X36.7597 Y-13.9380 F100.00
G01 X36.7921 Y-13.9710 F100.00
G01 X36.8138 Y-14.0039 F100.00
G01 X36.8292 Y-14.0403 F100.00
G01 X36.8397 Y-14.1078 F100.00
G01 X36.8397 Y-15.3562 F100.00
G01 X36.8354 Y-15.3997 F100.00
G01 X36.8216 Y-15.4438 F100.00
G00 Z2.0000
G00 X40.2082 Y-17.4656
G01 F60.00
G01 Z-0.0700
G01 F100.00
G01 X40.1563 Y-17.4340 F100.00
G01 X40.1132 Y-17.3865 F100.00
G01 X40.0858 Y-17.3285 F100.00
G01 X40.0763 Y-17.2659 F100.00
G01 X40.0774 Y-16.4436 F100.00
G01 X40.0858 Y-16.4015 F100.00
G01 X40.1022 Y-16.3619 F100.00
G01 X40.1260 Y-16.3263 F100.00
G01 X40.1590 Y-16.2939 F100.00
G01 X40.1919 Y-16.2722 F100.00
G01 X40.2283 Y-16.2568 F100.00
G01 X40.2958 Y-16.2463 F100.00
G01 X41.5442 Y-16.2463 F100.00
G01 X41.5909 Y-16.2513 F100.00
G01 X41.6450 Y-16.2707 F100.00
G01 X41.6837 Y-16.2960 F100.00
G01 X41.7161 Y-16.3290 F100.00
G01 X41.7470 Y-16.3813 F100.00
G01 X41.7628 Y-16.4469 F100.00
G01 X41.7637 Y-17.2642 F100.00
G01 X41.7587 Y-17.3109 F100.00
G01 X41.7393 Y-17.3650 F100.00
G01 X41.7140 Y-17.4037 F100.00
G01 X41.6810 Y-17.4361 F100.00
G01 X41.6481 Y-17.4578 F100.00
G01 X41.6117 Y-17.4732 F100.00
G01 X41.5442 Y-17.4837 F100.00
G01 X40.2958 Y-17.4837 F100.00
G01 X40.2523 Y-17.4794 F100.00
G01 X40.2082 Y-17.4656 F100.00
G00 Z2.0000
G00 X42.6087 Y-17.4656
G01 F60.00
G01 Z-0.0700
G01 F100.00
G01 X42.5568 Y-17.4340 F100.00
G01 X42.5137 Y-17.3865 F100.00
G01 X42.4863 Y-17.3285 F100.00
G01 X42.4768 Y-17.2642 F100.00
G01 X42.4779 Y-16.4186 F100.00
G01 X42.4863 Y-16.3765 F100.00
G01 X42.5043 Y-16.3340 F100.00
G01 X42.5287 Y-16.2987 F100.00
G01 X42.5713 Y-16.2602 F100.00
G01 X42.6320 Y-16.2308 F100.00
G01 X42.6963 Y-16.2213 F100.00
G01 X43.9947 Y-16.2213 F100.00
G01 X44.0414 Y-16.2263 F100.00
G01 X44.0986 Y-16.2472 F100.00
G01 X44.1368 Y-16.2732 F100.00
G01 X44.1753 Y-16.3158 F100.00
G01 X44.2047 Y-16.3765 F100.00
G01 X44.2142 Y-16.4391 F100.00
G01 X44.2133 Y-17.2831 F100.00
G01 X44.2047 Y-17.3285 F100.00
G01 X44.1867 Y-17.3710 F100.00
G01 X44.1623 Y-17.4063 F100.00
G01 X44.1197 Y-17.4448 F100.00
G01 X44.0590 Y-17.4742 F100.00
G01 X43.9947 Y-17.4837 F100.00
G01 X42.6963 Y-17.4837 F100.00
G01 X42.6528 Y-17.4794 F100.00
G01 X42.6087 Y-17.4656 F100.00
G00 Z2.0000
G00 X42.6087 Y-20.5906
G01 F60.00
G01 Z-0.0700
G01 F100.00
G01 X42.5568 Y-20.5590 F100.00
G01 X42.5137 Y-20.5115 F100.00
G01 X42.4863 Y-20.4535 F100.00
G01 X42.4768 Y-20.3892 F100.00
G01 X42.4779 Y-19.5436 F100.00
G01 X42.4863 Y-19.5015 F100.00
G01 X42.5043 Y-19.4590 F100.00
G01 X42.5287 Y-19.4237 F100.00
G01 X42.5713 Y-19.3852 F100.00
G01 X42.6320 Y-19.3558 F100.00
G01 X42.6963 Y-19.3463 F100.00
G01 X43.9947 Y-19.3463 F100.00
G01 X44.0414 Y-19.3513 F100.00
G01 X44.0986 Y-19.3722 F100.00
G01 X44.1368 Y-19.3982 F100.00
G01 X44.1753 Y-19.4408 F100.00
G01 X44.2047 Y-19.5015 F100.00
G01 X44.2142 Y-19.5641 F100.00
G01 X44.2133 Y-20.4081 F100.00
G01 X44.2047 Y-20.4535 F100.00
G01 X44.1867 Y-20.4960 F100.00
G01 X44.1623 Y-20.5313 F100.00
G01 X44.1197 Y-20.5698 F100.00
G01 X44.0590 Y-20.5992 F100.00
G01 X43.9947 Y-20.6087 F100.00
G01 X42.6963 Y-20.6087 F100.00
G01 X42.6528 Y-20.6044 F100.00
G01 X42.6087 Y-20.5906 F100.00
G00 Z2.0000
G00 X40.2082 Y-20.5656
G01 F60.00
G01 Z-0.0700
G01 F100.00
G01 X40.1563 Y-20.5340 F100.00
G01 X40.1132 Y-20.4865 F100.00
G01 X40.0858 Y-20.4285 F100.00
G01 X40.0763 Y-20.3659 F100.00
G01 X40.0774 Y-19.5436 F100.00
G01 X40.0858 Y-19.5015 F100.00
G01 X40.1022 Y-19.4619 F100.00
G01 X40.1260 Y-19.4263 F100.00
G01 X40.1590 Y-19.3939 F100.00
G01 X40.1919 Y-19.3722 F100.00
G01 X40.2283 Y-19.3568 F100.00
G01 X40.2958 Y-19.3463 F100.00
G01 X41.5442 Y-19.3463 F100.00
G01 X41.5909 Y-19.3513 F100.00
G01 X41.6450 Y-19.3707 F100.00
G01 X41.6837 Y-19.3960 F100.00
G01 X41.7161 Y-19.4290 F100.00
G01 X41.7470 Y-19.4813 F100.00
G01 X41.7628 Y-19.5469 F100.00
G01 X41.7637 Y-20.3642 F100.00
G01 X41.7587 Y-20.4109 F100.00
G01 X41.7393 Y-20.4650 F100.00
G01 X41.7140 Y-20.5037 F100.00
G01 X41.6810 Y-20.5361 F100.00
G01 X41.6481 Y-20.5578 F100.00
G01 X41.6117 Y-20.5732 F100.00
G01 X41.5442 Y-20.5837 F100.00
G01 X40.2958 Y-20.5837 F100.00
G01 X40.2523 Y-20.5794 F100.00
G01 X40.2082 Y-20.5656 F100.00
G00 Z2.0000
G00 X34.4990 Y-11.1397
G01 F60.00
G01 Z-0.0700
G01 F100.00
G01 X34.5227 Y-11.1160 F100.00
G01 X34.5580 Y-11.1062 F100.00
G01 X36.3580 Y-11.1062 F100.00
G01 X36.3812 Y-11.1103 F100.00
G01 X36.3990 Y-11.1198 F100.00
G01 X36.4201 Y-11.1456 F100.00
G01 X36.4268 Y-11.1750 F100.00
G01 X36.4268 Y-12.4750 F100.00
G01 X36.4227 Y-12.4982 F100.00
G01 X36.4132 Y-12.5160 F100.00
G01 X36.3874 Y-12.5371 F100.00
G01 X36.3580 Y-12.5438 F100.00
G01 X34.5580 Y-12.5438 F100.00
G01 X34.5348 Y-12.5397 F100.00
G01 X34.5170 Y-12.5302 F100.00
G01 X34.4959 Y-12.5044 F100.00
G01 X34.4892 Y-12.4750 F100.00
G01 X34.4892 Y-11.1750 F100.00
G01 X34.4990 Y-11.1397 F100.00
G00 Z2.0000
G00 X34.4990 Y-8.8397
G01 F60.00
G01 Z-0.0700
G01 F100.00
G01 X34.5227 Y-8.8160 F100.00
G01 X34.5580 Y-8.8062 F100.00
G01 X36.3580 Y-8.8062 F100.00
G01 X36.3812 Y-8.8103 F100.00
G01 X36.3990 Y-8.8198 F100.00
G01 X36.4201 Y-8.8456 F100.00
G01 X36.4268 Y-8.8750 F100.00
G01 X36.4268 Y-10.1750 F100.00
G01 X36.4227 Y-10.1982 F100.00
G01 X36.4132 Y-10.2160 F100.00
G01 X36.3874 Y-10.2371 F100.00
G01 X36.3580 Y-10.2438 F100.00
G01 X34.5580 Y-10.2438 F100.00
G01 X34.5348 Y-10.2397 F100.00
G01 X34.5170 Y-10.2302 F100.00
G01 X34.4959 Y-10.2044 F100.00
G01 X34.4892 Y-10.1750 F100.00
G01 X34.4892 Y-8.8750 F100.00
G01 X34.4990 Y-8.8397 F100.00
G00 Z2.0000
G00 X34.4990 Y-6.5397
G01 F60.00
G01 Z-0.0700
G01 F100.00
G01 X34.5227 Y-6.5160 F100.00
G01 X34.5580 Y-6.5062 F100.00
G01 X36.3580 Y-6.5062 F100.00
G01 X36.3812 Y-6.5103 F100.00
G01 X36.3990 Y-6.5198 F100.00
G01 X36.4201 Y-6.5456 F100.00
G01 X36.4268 Y-6.5750 F100.00
G01 X36.4268 Y-7.8750 F100.00
G01 X36.4227 Y-7.8982 F100.00
G01 X36.4132 Y-7.9160 F100.00
G01 X36.3874 Y-7.9371 F100.00
G01 X36.3580 Y-7.9438 F100.00
G01 X34.5580 Y-7.9438 F100.00
G01 X34.5348 Y-7.9397 F100.00
G01 X34.5170 Y-7.9302 F100.00
G01 X34.4959 Y-7.9044 F100.00
G01 X34.4892 Y-7.8750 F100.00
G01 X34.4892 Y-6.5750 F100.00
G01 X34.4990 Y-6.5397 F100.00
G00 Z2.0000
G00 X35.7389 Y-4.6702
G01 F60.00
G01 Z-0.0700
G01 F100.00
G01 X35.7022 Y-4.7307 F100.00
G01 X35.6500 Y-4.7786 F100.00
G01 X35.6004 Y-4.8051 F100.00
G01 X35.5316 Y-4.8219 F100.00
G01 X34.8036 Y-4.8222 F100.00
G01 X34.7283 Y-4.8039 F100.00
G01 X34.6647 Y-4.7658 F100.00
G01 X34.6276 Y-4.7281 F100.00
G01 X34.5929 Y-4.6702 F100.00
G01 X34.5771 Y-4.6197 F100.00
G01 X34.5722 Y-4.5696 F100.00
G01 X34.5732 Y-3.8672 F100.00
G01 X34.5915 Y-3.7919 F100.00
G01 X34.6296 Y-3.7283 F100.00
G01 X34.6673 Y-3.6912 F100.00
G01 X34.7252 Y-3.6565 F100.00
G01 X34.7757 Y-3.6407 F100.00
G01 X34.8258 Y-3.6358 F100.00
G01 X35.5282 Y-3.6368 F100.00
G01 X35.6035 Y-3.6551 F100.00
G01 X35.6671 Y-3.6932 F100.00
G01 X35.7022 Y-3.7283 F100.00
G01 X35.7297 Y-3.7695 F100.00
G01 X35.7486 Y-3.8152 F100.00
G01 X35.7586 Y-3.8672 F100.00
G01 X35.7596 Y-4.5696 F100.00
G01 X35.7547 Y-4.6197 F100.00
G01 X35.7389 Y-4.6702 F100.00
G00 Z2.0000
G00 X32.3875 Y-4.6671
G01 F60.00
G01 Z-0.0700
G01 F100.00
G01 X32.3514 Y-4.7281 F100.00
G01 X32.3117 Y-4.7678 F100.00
G01 X32.2507 Y-4.8039 F100.00
G01 X32.1788 Y-4.8219 F100.00
G01 X31.4508 Y-4.8222 F100.00
G01 X31.3755 Y-4.8039 F100.00
G01 X31.3119 Y-4.7658 F100.00
G01 X31.2748 Y-4.7281 F100.00
G01 X31.2401 Y-4.6702 F100.00
G01 X31.2243 Y-4.6197 F100.00
G01 X31.2194 Y-4.5696 F100.00
G01 X31.2204 Y-3.8672 F100.00
G01 X31.2387 Y-3.7919 F100.00
G01 X31.2768 Y-3.7283 F100.00
G01 X31.3145 Y-3.6912 F100.00
G01 X31.3724 Y-3.6565 F100.00
G01 X31.4229 Y-3.6407 F100.00
G01 X31.4730 Y-3.6358 F100.00
G01 X32.1754 Y-3.6368 F100.00
G01 X32.2507 Y-3.6551 F100.00
G01 X32.3143 Y-3.6932 F100.00
G01 X32.3494 Y-3.7283 F100.00
G01 X32.3769 Y-3.7695 F100.00
G01 X32.3958 Y-3.8152 F100.00
G01 X32.4055 Y-3.8638 F100.00
G01 X32.4068 Y-4.5696 F100.00
G01 X32.4019 Y-4.6197 F100.00
G01 X32.3875 Y-4.6671 F100.00
G00 Z2.0000
G00 X40.7990 Y-7.6897
G01 F60.00
G01 Z-0.0700
G01 F100.00
G01 X40.8227 Y-7.6660 F100.00
G01 X40.8580 Y-7.6562 F100.00
G01 X42.6580 Y-7.6562 F100.00
G01 X42.6933 Y-7.6660 F100.00
G01 X42.7201 Y-7.6956 F100.00
G01 X42.7267 Y-7.7250 F100.00
G01 X42.7268 Y-11.3250 F100.00
G01 X42.7170 Y-11.3603 F100.00
G01 X42.6874 Y-11.3871 F100.00
G01 X42.6580 Y-11.3938 F100.00
G01 X40.8580 Y-11.3938 F100.00
G01 X40.8227 Y-11.3840 F100.00
G01 X40.7959 Y-11.3544 F100.00
G01 X40.7893 Y-11.3250 F100.00
G01 X40.7892 Y-7.7250 F100.00
G01 X40.7990 Y-7.6897 F100.00
G00 Z2.0000
M05
G00 Z2.0000
G00 Z15.00


