(G-code generated by FlatCAM Evo vUnstable - Version Date: 2023/6/31)

(Name: solderingStationPCB-F_Cu.gbr_iso_combined_cnc)
(Type: G-code from Geometry)
(Units: MM)

(Created on Wednesday, 01 May 2024 at 00:38)

(This preprocessor is used with a motion controller loaded with GRBL firmware.)
(It is configured to be compatible with almost any version of GRBL firmware. No M6 command.)

(TOOL DIAMETER: 0.1375 mm)
(Feedrate_XY: 100.0 mm/min)
(Feedrate_Z: 60.0 mm/min)
(Feedrate rapids 1500.0 mm/min)

(Z_Cut: -0.07 mm)
(Z_Move: 2.0 mm)
(Z Start: None mm)
(Z End: 15.0 mm)
(X,Y End: None mm)
(Steps per circle: 16)
(Steps per circle: 16)
(Preprocessor Geometry: GRBL_11_no_M6)

(X range:   -0.4149 ...   74.2903  mm)
(Y range:  -29.2961 ...    0.1015  mm)

(Spindle Speed: 10000.0 RPM)
G21
G90
G17
G94


G01 F100.00
G00 Z2.0000

M03 S10000.0
G01 F100.00
G00 X3.2499 Y-6.0417
G01 F60.00
G01 Z-0.0700
G01 F100.00
G01 X3.2763 Y-5.9353 F100.00
G01 X3.3136 Y-5.8318 F100.00
G01 X3.3594 Y-5.7357 F100.00
G01 X3.4107 Y-5.6502 F100.00
G01 X3.4768 Y-5.5607 F100.00
G01 X3.5498 Y-5.4806 F100.00
G01 X3.6251 Y-5.4124 F100.00
G01 X3.7090 Y-5.3500 F100.00
G01 X3.8061 Y-5.2918 F100.00
G01 X3.8962 Y-5.2492 F100.00
G01 X3.9956 Y-5.2133 F100.00
G01 X3.9956 Y-5.1439 F100.00
G01 X3.8728 Y-5.1838 F100.00
G01 X3.7114 Y-5.2660 F100.00
G01 X3.5649 Y-5.3725 F100.00
G01 X3.4369 Y-5.5005 F100.00
G01 X3.3304 Y-5.6470 F100.00
G01 X3.2482 Y-5.8084 F100.00
G01 X3.1923 Y-5.9806 F100.00
G01 X3.1640 Y-6.1594 F100.00
G01 X3.1640 Y-6.1852 F100.00
G01 X3.2327 Y-6.1852 F100.00
G01 X3.2499 Y-6.0417 F100.00
G00 Z2.0000
G00 X3.2763 Y-7.0727
G01 F60.00
G01 Z-0.0700
G01 F100.00
G01 X3.2505 Y-6.9697 F100.00
G01 X3.2327 Y-6.8228 F100.00
G01 X3.1640 Y-6.8228 F100.00
G01 X3.1640 Y-6.8485 F100.00
G01 X3.1923 Y-7.0274 F100.00
G01 X3.2482 Y-7.1996 F100.00
G01 X3.2798 Y-7.2616 F100.00
G01 X3.3302 Y-7.2113 F100.00
G01 X3.2763 Y-7.0727 F100.00
G00 Z2.0000
G00 X3.9025 Y-7.7613
G01 F60.00
G01 Z-0.0700
G01 F100.00
G01 X3.8061 Y-7.7162 F100.00
G01 X3.7146 Y-7.6617 F100.00
G01 X3.6251 Y-7.5956 F100.00
G01 X3.5593 Y-7.5360 F100.00
G01 X3.5124 Y-7.5830 F100.00
G01 X3.5649 Y-7.6355 F100.00
G01 X3.7114 Y-7.7420 F100.00
G01 X3.8728 Y-7.8242 F100.00
G01 X3.9956 Y-7.8641 F100.00
G01 X3.9956 Y-7.7947 F100.00
G01 X3.9025 Y-7.7613 F100.00
G00 Z2.0000
G00 X5.3806 Y-7.1996
G01 F60.00
G01 Z-0.0700
G01 F100.00
G01 X5.4365 Y-7.0274 F100.00
G01 X5.4648 Y-6.8486 F100.00
G01 X5.4648 Y-6.8228 F100.00
G01 X5.3961 Y-6.8228 F100.00
G01 X5.3776 Y-6.9729 F100.00
G01 X5.3525 Y-7.0727 F100.00
G01 X5.3178 Y-7.1700 F100.00
G01 X5.2694 Y-7.2723 F100.00
G01 X5.2144 Y-7.3634 F100.00
G01 X5.1520 Y-7.4473 F100.00
G01 X5.0790 Y-7.5274 F100.00
G01 X5.0037 Y-7.5956 F100.00
G01 X4.9198 Y-7.6580 F100.00
G01 X4.8227 Y-7.7162 F100.00
G01 X4.7326 Y-7.7588 F100.00
G01 X4.6332 Y-7.7947 F100.00
G01 X4.6332 Y-7.8641 F100.00
G01 X4.7560 Y-7.8242 F100.00
G01 X4.9174 Y-7.7420 F100.00
G01 X5.0639 Y-7.6355 F100.00
G01 X5.1919 Y-7.5075 F100.00
G01 X5.2984 Y-7.3610 F100.00
G01 X5.3806 Y-7.1996 F100.00
G00 Z2.0000
G00 X4.9142 Y-5.3463
G01 F60.00
G01 Z-0.0700
G01 F100.00
G01 X5.0037 Y-5.4124 F100.00
G01 X5.0814 Y-5.4830 F100.00
G01 X5.1520 Y-5.5607 F100.00
G01 X5.2181 Y-5.6502 F100.00
G01 X5.2726 Y-5.7417 F100.00
G01 X5.3152 Y-5.8318 F100.00
G01 X5.3514 Y-5.9319 F100.00
G01 X5.3783 Y-6.0383 F100.00
G01 X5.3961 Y-6.1852 F100.00
G01 X5.4648 Y-6.1852 F100.00
G01 X5.4648 Y-6.1595 F100.00
G01 X5.4365 Y-5.9806 F100.00
G01 X5.3806 Y-5.8084 F100.00
G01 X5.2984 Y-5.6470 F100.00
G01 X5.1919 Y-5.5005 F100.00
G01 X5.0639 Y-5.3725 F100.00
G01 X4.9174 Y-5.2660 F100.00
G01 X4.7560 Y-5.1838 F100.00
G01 X4.6332 Y-5.1439 F100.00
G01 X4.6332 Y-5.2133 F100.00
G01 X4.7326 Y-5.2492 F100.00
G01 X4.8227 Y-5.2918 F100.00
G01 X4.9142 Y-5.3463 F100.00
G00 Z2.0000
G00 X7.2065 Y-8.6082
G01 F60.00
G01 Z-0.0700
G01 F100.00
G01 X7.2419 Y-8.5651 F100.00
G01 X7.2700 Y-8.5395 F100.00
G01 X7.3210 Y-8.5060 F100.00
G01 X7.3739 Y-8.4840 F100.00
G01 X7.4417 Y-8.4705 F100.00
G01 X7.6238 Y-8.4693 F100.00
G01 X7.6239 Y-7.9954 F100.00
G01 X7.6313 Y-7.9452 F100.00
G01 X7.6486 Y-7.9036 F100.00
G01 X7.6811 Y-7.8603 F100.00
G01 X8.3302 Y-7.2113 F100.00
G01 X8.2763 Y-7.0727 F100.00
G01 X8.2505 Y-6.9697 F100.00
G01 X8.2350 Y-6.8652 F100.00
G01 X8.2297 Y-6.7580 F100.00
G01 X8.2297 Y-6.2500 F100.00
G01 X8.2346 Y-6.1470 F100.00
G01 X8.2505 Y-6.0383 F100.00
G01 X8.2774 Y-5.9319 F100.00
G01 X8.3136 Y-5.8318 F100.00
G01 X8.3562 Y-5.7417 F100.00
G01 X8.4144 Y-5.6446 F100.00
G01 X8.4768 Y-5.5607 F100.00
G01 X8.5450 Y-5.4854 F100.00
G01 X8.6251 Y-5.4124 F100.00
G01 X8.7090 Y-5.3500 F100.00
G01 X8.8001 Y-5.2950 F100.00
G01 X8.9024 Y-5.2466 F100.00
G01 X8.9997 Y-5.2119 F100.00
G01 X9.0995 Y-5.1868 F100.00
G01 X9.2114 Y-5.1702 F100.00
G01 X9.3144 Y-5.1653 F100.00
G01 X9.4216 Y-5.1706 F100.00
G01 X9.5261 Y-5.1861 F100.00
G01 X9.6260 Y-5.2111 F100.00
G01 X9.7326 Y-5.2492 F100.00
G01 X9.8287 Y-5.2950 F100.00
G01 X9.9198 Y-5.3500 F100.00
G01 X10.0051 Y-5.4137 F100.00
G01 X10.0838 Y-5.4854 F100.00
G01 X10.1520 Y-5.5607 F100.00
G01 X10.2144 Y-5.6446 F100.00
G01 X10.2694 Y-5.7357 F100.00
G01 X10.3178 Y-5.8380 F100.00
G01 X10.3525 Y-5.9353 F100.00
G01 X10.3783 Y-6.0383 F100.00
G01 X10.3938 Y-6.1428 F100.00
G01 X10.3991 Y-6.2466 F100.00
G01 X10.3991 Y-6.7580 F100.00
G01 X10.3942 Y-6.8610 F100.00
G01 X10.3783 Y-6.9697 F100.00
G01 X10.3525 Y-7.0727 F100.00
G01 X10.3152 Y-7.1762 F100.00
G01 X10.2694 Y-7.2723 F100.00
G01 X10.2144 Y-7.3634 F100.00
G01 X10.1507 Y-7.4487 F100.00
G01 X10.0814 Y-7.5250 F100.00
G01 X9.9999 Y-7.5986 F100.00
G01 X9.9142 Y-7.6617 F100.00
G01 X9.8287 Y-7.7130 F100.00
G01 X9.7326 Y-7.7588 F100.00
G01 X9.6260 Y-7.7969 F100.00
G01 X9.5261 Y-7.8219 F100.00
G01 X9.4216 Y-7.8374 F100.00
G01 X9.3110 Y-7.8427 F100.00
G01 X9.2072 Y-7.8374 F100.00
G01 X9.1027 Y-7.8219 F100.00
G01 X8.9963 Y-7.7950 F100.00
G01 X8.8962 Y-7.7588 F100.00
G01 X8.8061 Y-7.7162 F100.00
G01 X8.7090 Y-7.6580 F100.00
G01 X8.6251 Y-7.5956 F100.00
G01 X8.5593 Y-7.5360 F100.00
G01 X8.0154 Y-8.0799 F100.00
G01 X8.0154 Y-8.4692 F100.00
G01 X8.1975 Y-8.4705 F100.00
G01 X8.2619 Y-8.4829 F100.00
G01 X8.2947 Y-8.4949 F100.00
G01 X8.3438 Y-8.5212 F100.00
G01 X8.3744 Y-8.5438 F100.00
G01 X8.4138 Y-8.5832 F100.00
G01 X8.4364 Y-8.6138 F100.00
G01 X8.4627 Y-8.6629 F100.00
G01 X8.4828 Y-8.7291 F100.00
G01 X8.4883 Y-8.7880 F100.00
G01 X8.4883 Y-9.0422 F100.00
G01 X14.0830 Y-9.0422 F100.00
G01 X14.1245 Y-9.0467 F100.00
G01 X14.1782 Y-9.0670 F100.00
G01 X14.2215 Y-9.0995 F100.00
G01 X16.2693 Y-11.1474 F100.00
G01 X17.0113 Y-11.1474 F100.00
G01 X17.0477 Y-11.1306 F100.00
G01 X17.0892 Y-11.1245 F100.00
G01 X18.4316 Y-11.1256 F100.00
G01 X18.4708 Y-11.1361 F100.00
G01 X18.5027 Y-11.1550 F100.00
G01 X18.5318 Y-11.1856 F100.00
G01 X18.5482 Y-11.2163 F100.00
G01 X18.5579 Y-11.2682 F100.00
G01 X18.5579 Y-11.4216 F100.00
G01 X18.5527 Y-11.4567 F100.00
G01 X18.5349 Y-11.4963 F100.00
G01 X18.5027 Y-11.5314 F100.00
G01 X18.4661 Y-11.5522 F100.00
G01 X18.4176 Y-11.5619 F100.00
G01 X17.0892 Y-11.5619 F100.00
G01 X17.0477 Y-11.5558 F100.00
G01 X17.0113 Y-11.5390 F100.00
G01 X16.1882 Y-11.5390 F100.00
G01 X16.1499 Y-11.5352 F100.00
G01 X16.1102 Y-11.5227 F100.00
G01 X16.0767 Y-11.5041 F100.00
G01 X16.0498 Y-11.4817 F100.00
G01 X14.0019 Y-9.4338 F100.00
G01 X8.4884 Y-9.4338 F100.00
G01 X8.4883 Y-9.6914 F100.00
G01 X8.4747 Y-9.7803 F100.00
G01 X8.4516 Y-9.8366 F100.00
G01 X8.4179 Y-9.8878 F100.00
G01 X8.3694 Y-9.9363 F100.00
G01 X8.3182 Y-9.9700 F100.00
G01 X8.2589 Y-9.9939 F100.00
G01 X8.1730 Y-10.0067 F100.00
G01 X7.4696 Y-10.0067 F100.00
G01 X7.3803 Y-9.9939 F100.00
G01 X7.3445 Y-9.9811 F100.00
G01 X7.2954 Y-9.9548 F100.00
G01 X7.2648 Y-9.9322 F100.00
G01 X7.2254 Y-9.8928 F100.00
G01 X7.2028 Y-9.8622 F100.00
G01 X7.1765 Y-9.8131 F100.00
G01 X7.1637 Y-9.7773 F100.00
G01 X7.1525 Y-9.7201 F100.00
G01 X7.1509 Y-8.7846 F100.00
G01 X7.1645 Y-8.6957 F100.00
G01 X7.1870 Y-8.6408 F100.00
G01 X7.2065 Y-8.6082 F100.00
G00 Z2.0000
G00 X3.1008 Y-9.4632
G01 F60.00
G01 Z-0.0700
G01 F100.00
G01 X3.1147 Y-9.4077 F100.00
G01 X3.1527 Y-9.3170 F100.00
G01 X3.1800 Y-9.2720 F100.00
G01 X3.2396 Y-9.1994 F100.00
G01 X3.3226 Y-9.1313 F100.00
G01 X3.4054 Y-9.0870 F100.00
G01 X3.4592 Y-9.0677 F100.00
G01 X3.5513 Y-9.0494 F100.00
G01 X3.6050 Y-9.0465 F100.00
G01 X3.6587 Y-9.0494 F100.00
G01 X3.7539 Y-9.0686 F100.00
G01 X3.8046 Y-9.0870 F100.00
G01 X3.8885 Y-9.1319 F100.00
G01 X3.9333 Y-9.1653 F100.00
G01 X4.0005 Y-9.2326 F100.00
G01 X4.0337 Y-9.2776 F100.00
G01 X4.0787 Y-9.3619 F100.00
G01 X4.0973 Y-9.4142 F100.00
G01 X4.1160 Y-9.5096 F100.00
G01 X4.1185 Y-10.7091 F100.00
G01 X4.1486 Y-10.7392 F100.00
G01 X4.1495 Y-10.6939 F100.00
G01 X4.1581 Y-10.6532 F100.00
G01 X4.1734 Y-10.6180 F100.00
G01 X4.1952 Y-10.5864 F100.00
G01 X5.1509 Y-9.6298 F100.00
G01 X5.1525 Y-8.7559 F100.00
G01 X5.1645 Y-8.6957 F100.00
G01 X5.1870 Y-8.6408 F100.00
G01 X5.2065 Y-8.6082 F100.00
G01 X5.2442 Y-8.5626 F100.00
G01 X5.2898 Y-8.5249 F100.00
G01 X5.3445 Y-8.4949 F100.00
G01 X5.4041 Y-8.4761 F100.00
G01 X5.4417 Y-8.4705 F100.00
G01 X6.1730 Y-8.4693 F100.00
G01 X6.2589 Y-8.4821 F100.00
G01 X6.3182 Y-8.5060 F100.00
G01 X6.3744 Y-8.5438 F100.00
G01 X6.4327 Y-8.6082 F100.00
G01 X6.4653 Y-8.6692 F100.00
G01 X6.4867 Y-8.7559 F100.00
G01 X6.4883 Y-9.6914 F100.00
G01 X6.4747 Y-9.7803 F100.00
G01 X6.4522 Y-9.8352 F100.00
G01 X6.4327 Y-9.8678 F100.00
G01 X6.3744 Y-9.9322 F100.00
G01 X6.3228 Y-9.9674 F100.00
G01 X6.2619 Y-9.9931 F100.00
G01 X6.2017 Y-10.0051 F100.00
G01 X5.4662 Y-10.0067 F100.00
G01 X5.4059 Y-10.0003 F100.00
G01 X5.3508 Y-9.9837 F100.00
G01 X4.5402 Y-10.7943 F100.00
G01 X4.5402 Y-10.9924 F100.00
G01 X4.7944 Y-10.9925 F100.00
G01 X4.8533 Y-10.9980 F100.00
G01 X4.9195 Y-11.0181 F100.00
G01 X4.9942 Y-11.0629 F100.00
G01 X5.0221 Y-11.0883 F100.00
G01 X5.0575 Y-11.1314 F100.00
G01 X5.0770 Y-11.1640 F100.00
G01 X5.0995 Y-11.2189 F100.00
G01 X5.1119 Y-11.2833 F100.00
G01 X5.1131 Y-11.4618 F100.00
G01 X7.0848 Y-11.4618 F100.00
G01 X7.0865 Y-11.2755 F100.00
G01 X7.0985 Y-11.2153 F100.00
G01 X7.1216 Y-11.1590 F100.00
G01 X7.1553 Y-11.1078 F100.00
G01 X7.1988 Y-11.0634 F100.00
G01 X7.2550 Y-11.0256 F100.00
G01 X7.3079 Y-11.0036 F100.00
G01 X7.3447 Y-10.9944 F100.00
G01 X7.4036 Y-10.9889 F100.00
G01 X8.3036 Y-10.9889 F100.00
G01 X8.3382 Y-10.9908 F100.00
G01 X8.3959 Y-11.0025 F100.00
G01 X8.4287 Y-11.0145 F100.00
G01 X8.4778 Y-11.0408 F100.00
G01 X8.5084 Y-11.0634 F100.00
G01 X8.5478 Y-11.1028 F100.00
G01 X8.5704 Y-11.1334 F100.00
G01 X8.5967 Y-11.1825 F100.00
G01 X8.6168 Y-11.2487 F100.00
G01 X8.6223 Y-11.3076 F100.00
G01 X8.6223 Y-12.0110 F100.00
G01 X8.6095 Y-12.0969 F100.00
G01 X8.5856 Y-12.1562 F100.00
G01 X8.5478 Y-12.2124 F100.00
G01 X8.4834 Y-12.2707 F100.00
G01 X8.4224 Y-12.3033 F100.00
G01 X8.3382 Y-12.3244 F100.00
G01 X7.3715 Y-12.3247 F100.00
G01 X7.3079 Y-12.3116 F100.00
G01 X7.2294 Y-12.2744 F100.00
G01 X7.1782 Y-12.2330 F100.00
G01 X7.1368 Y-12.1818 F100.00
G01 X7.1079 Y-12.1264 F100.00
G01 X7.0904 Y-12.0665 F100.00
G01 X7.0849 Y-12.0110 F100.00
G01 X7.0849 Y-11.8534 F100.00
G01 X5.1132 Y-11.8534 F100.00
G01 X5.1115 Y-12.0433 F100.00
G01 X5.0995 Y-12.1035 F100.00
G01 X5.0764 Y-12.1598 F100.00
G01 X5.0427 Y-12.2110 F100.00
G01 X4.9942 Y-12.2595 F100.00
G01 X4.9430 Y-12.2932 F100.00
G01 X4.8867 Y-12.3163 F100.00
G01 X4.8290 Y-12.3280 F100.00
G01 X4.7944 Y-12.3299 F100.00
G01 X3.8944 Y-12.3299 F100.00
G01 X3.8289 Y-12.3231 F100.00
G01 X3.7458 Y-12.2932 F100.00
G01 X3.6946 Y-12.2595 F100.00
G01 X3.6461 Y-12.2110 F100.00
G01 X3.6124 Y-12.1598 F100.00
G01 X3.5885 Y-12.1005 F100.00
G01 X3.5757 Y-12.0146 F100.00
G01 X3.5757 Y-11.6186 F100.00
G01 X3.2060 Y-11.2449 F100.00
G01 X3.1763 Y-11.2042 F100.00
G01 X3.1320 Y-11.1214 F100.00
G01 X3.1021 Y-11.0253 F100.00
G01 X3.0915 Y-10.9218 F100.00
G01 X3.0915 Y-9.5600 F100.00
G01 X3.1008 Y-9.4632 F100.00
G00 Z2.0000
G00 X1.4331 Y-11.3375
G01 F60.00
G01 Z-0.0700
G01 F100.00
G01 X1.4331 Y-11.4032 F100.00
G01 X2.5749 Y-11.4032 F100.00
G01 X2.6042 Y-11.4098 F100.00
G01 X2.6300 Y-11.4309 F100.00
G01 X2.6401 Y-11.4503 F100.00
G01 X2.6436 Y-11.4720 F100.00
G01 X2.6436 Y-13.1852 F100.00
G01 X2.7093 Y-13.1852 F100.00
G01 X2.7093 Y-11.4588 F100.00
G01 X2.7015 Y-11.4195 F100.00
G01 X2.6718 Y-11.3751 F100.00
G01 X2.6274 Y-11.3454 F100.00
G01 X2.5881 Y-11.3375 F100.00
G01 X1.4331 Y-11.3375 F100.00
G00 Z2.0000
G00 X2.7093 Y-13.8227
G01 F60.00
G01 Z-0.0700
G01 F100.00
G01 X2.6436 Y-13.8227 F100.00
G01 X2.6436 Y-15.5360 F100.00
G01 X2.6401 Y-15.5577 F100.00
G01 X2.6300 Y-15.5771 F100.00
G01 X2.6042 Y-15.5982 F100.00
G01 X2.5749 Y-15.6047 F100.00
G01 X1.4331 Y-15.6047 F100.00
G01 X1.4331 Y-15.6704 F100.00
G01 X2.5881 Y-15.6704 F100.00
G01 X2.6274 Y-15.6626 F100.00
G01 X2.6718 Y-15.6329 F100.00
G01 X2.7015 Y-15.5885 F100.00
G01 X2.7093 Y-15.5492 F100.00
G01 X2.7093 Y-13.8227 F100.00
G00 Z2.0000
G00 X-0.3610 Y-15.6031
G01 F60.00
G01 Z-0.0700
G01 F100.00
G01 X-0.3825 Y-15.5943 F100.00
G01 X-0.4011 Y-15.5772 F100.00
G01 X-0.4113 Y-15.5577 F100.00
G01 X-0.4149 Y-15.5360 F100.00
G01 X-0.4148 Y-11.4685 F100.00
G01 X-0.4089 Y-11.4441 F100.00
G01 X-0.3968 Y-11.4255 F100.00
G01 X-0.3818 Y-11.4132 F100.00
G01 X-0.3610 Y-11.4049 F100.00
G01 X-0.0652 Y-11.4032 F100.00
G01 X-0.0641 Y-8.1056 F100.00
G01 X0.3376 Y-5.5784 F100.00
G01 X1.4973 Y-3.3002 F100.00
G01 X1.5145 Y-3.2765 F100.00
G01 X3.3127 Y-1.4783 F100.00
G01 X3.3364 Y-1.4611 F100.00
G01 X5.6171 Y-0.3006 F100.00
G01 X8.1472 Y0.1010 F100.00
G01 X66.0811 Y0.1006 F100.00
G01 X69.2165 Y-0.5251 F100.00
G01 X71.8822 Y-2.3066 F100.00
G01 X73.6631 Y-4.9709 F100.00
G01 X74.2898 Y-8.1110 F100.00
G01 X74.2902 Y-21.0777 F100.00
G01 X73.6657 Y-24.2175 F100.00
G01 X71.8938 Y-26.8738 F100.00
G01 X71.8680 Y-26.8996 F100.00
G01 X69.2165 Y-28.6695 F100.00
G01 X66.0778 Y-29.2956 F100.00
G01 X8.1565 Y-29.2961 F100.00
G01 X5.6274 Y-28.8966 F100.00
G01 X5.6023 Y-28.8880 F100.00
G01 X3.3364 Y-27.7335 F100.00
G01 X3.3127 Y-27.7163 F100.00
G01 X1.5042 Y-25.9059 F100.00
G01 X0.3412 Y-23.6253 F100.00
G01 X0.3337 Y-23.6007 F100.00
G01 X-0.0651 Y-21.0779 F100.00
G01 X-0.0652 Y-15.6047 F100.00
G01 X-0.3610 Y-15.6031 F100.00
G00 Z2.0000
G00 X1.7621 Y-17.5949
G01 F60.00
G01 Z-0.0700
G01 F100.00
G01 X1.8463 Y-17.5881 F100.00
G01 X1.8463 Y-17.5224 F100.00
G01 X1.7572 Y-17.5241 F100.00
G01 X1.6459 Y-17.5631 F100.00
G01 X1.6329 Y-17.5727 F100.00
G01 X1.6831 Y-17.6229 F100.00
G01 X1.7621 Y-17.5949 F100.00
G00 Z2.0000
G00 X1.5089 Y-18.0025
G01 F60.00
G01 Z-0.0700
G01 F100.00
G01 X1.4432 Y-17.9368 F100.00
G01 X1.4432 Y-18.0630 F100.00
G01 X1.5088 Y-18.0630 F100.00
G01 X1.5089 Y-18.0025 F100.00
G00 Z2.0000
G00 X1.8463 Y-19.1755
G01 F60.00
G01 Z-0.0700
G01 F100.00
G01 X1.7687 Y-19.1700 F100.00
G01 X1.7025 Y-19.1499 F100.00
G01 X1.6280 Y-19.1053 F100.00
G01 X1.5834 Y-19.0616 F100.00
G01 X1.5450 Y-19.0040 F100.00
G01 X1.5153 Y-18.9205 F100.00
G01 X1.5089 Y-18.8602 F100.00
G01 X1.5089 Y-18.7006 F100.00
G01 X1.4432 Y-18.7006 F100.00
G01 X1.4449 Y-18.9272 F100.00
G01 X1.4839 Y-19.0385 F100.00
G01 X1.5527 Y-19.1317 F100.00
G01 X1.6459 Y-19.2005 F100.00
G01 X1.7572 Y-19.2395 F100.00
G01 X1.8463 Y-19.2412 F100.00
G01 X1.8463 Y-19.1755 F100.00
G00 Z2.0000
G00 X2.8853 Y-18.9272
G01 F60.00
G01 Z-0.0700
G01 F100.00
G01 X2.8870 Y-18.7006 F100.00
G01 X2.8214 Y-18.7006 F100.00
G01 X2.8213 Y-18.8602 F100.00
G01 X2.8158 Y-18.9157 F100.00
G01 X2.7983 Y-18.9756 F100.00
G01 X2.7694 Y-19.0310 F100.00
G01 X2.7255 Y-19.0845 F100.00
G01 X2.6824 Y-19.1199 F100.00
G01 X2.6512 Y-19.1388 F100.00
G01 X2.5663 Y-19.1691 F100.00
G01 X2.4839 Y-19.1755 F100.00
G01 X2.4839 Y-19.2412 F100.00
G01 X2.5730 Y-19.2395 F100.00
G01 X2.6843 Y-19.2005 F100.00
G01 X2.7775 Y-19.1317 F100.00
G01 X2.8463 Y-19.0385 F100.00
G01 X2.8853 Y-18.9272 F100.00
G00 Z2.0000
G00 X2.7022 Y-17.6583
G01 F60.00
G01 Z-0.0700
G01 F100.00
G01 X2.7303 Y-17.6839 F100.00
G01 X2.7657 Y-17.7270 F100.00
G01 X2.7852 Y-17.7596 F100.00
G01 X2.8077 Y-17.8145 F100.00
G01 X2.8201 Y-17.8789 F100.00
G01 X2.8213 Y-18.0630 F100.00
G01 X2.8870 Y-18.0630 F100.00
G01 X2.8853 Y-17.8364 F100.00
G01 X2.8463 Y-17.7251 F100.00
G01 X2.7775 Y-17.6319 F100.00
G01 X2.6843 Y-17.5631 F100.00
G01 X2.5730 Y-17.5241 F100.00
G01 X2.4839 Y-17.5224 F100.00
G01 X2.4839 Y-17.5881 F100.00
G01 X2.5347 Y-17.5897 F100.00
G01 X2.5949 Y-17.6017 F100.00
G01 X2.6512 Y-17.6248 F100.00
G01 X2.7022 Y-17.6583 F100.00
G00 Z2.0000
G00 X3.4144 Y-20.1446
G01 F60.00
G01 Z-0.0700
G01 F100.00
G01 X3.4768 Y-20.0607 F100.00
G01 X3.5474 Y-19.9830 F100.00
G01 X3.6251 Y-19.9124 F100.00
G01 X3.7146 Y-19.8463 F100.00
G01 X3.8061 Y-19.7918 F100.00
G01 X3.9024 Y-19.7466 F100.00
G01 X3.9997 Y-19.7119 F100.00
G01 X4.1186 Y-19.6837 F100.00
G01 X4.1186 Y-19.1756 F100.00
G01 X3.8705 Y-19.1739 F100.00
G01 X3.8103 Y-19.1619 F100.00
G01 X3.7540 Y-19.1388 F100.00
G01 X3.7228 Y-19.1199 F100.00
G01 X3.6797 Y-19.0845 F100.00
G01 X3.6358 Y-19.0310 F100.00
G01 X3.5986 Y-18.9525 F100.00
G01 X3.5851 Y-18.8847 F100.00
G01 X3.5839 Y-17.9068 F100.00
G01 X3.5894 Y-17.8479 F100.00
G01 X3.5986 Y-17.8111 F100.00
G01 X3.6206 Y-17.7582 F100.00
G01 X3.6584 Y-17.7020 F100.00
G01 X3.7028 Y-17.6585 F100.00
G01 X3.7540 Y-17.6248 F100.00
G01 X3.8103 Y-17.6017 F100.00
G01 X3.8705 Y-17.5897 F100.00
G01 X4.0443 Y-17.5881 F100.00
G01 X4.0443 Y-14.3300 F100.00
G01 X3.8910 Y-14.3299 F100.00
G01 X3.8355 Y-14.3244 F100.00
G01 X3.7756 Y-14.3069 F100.00
G01 X3.7202 Y-14.2780 F100.00
G01 X3.6690 Y-14.2366 F100.00
G01 X3.6276 Y-14.1854 F100.00
G01 X3.5904 Y-14.1069 F100.00
G01 X3.5769 Y-14.0391 F100.00
G01 X3.5757 Y-13.3112 F100.00
G01 X3.5812 Y-13.2523 F100.00
G01 X3.6013 Y-13.1861 F100.00
G01 X3.6313 Y-13.1314 F100.00
G01 X3.6896 Y-13.0670 F100.00
G01 X3.7412 Y-13.0318 F100.00
G01 X3.8051 Y-13.0053 F100.00
G01 X3.8910 Y-12.9925 F100.00
G01 X4.7362 Y-12.9925 F100.00
G01 X5.2438 Y-12.4858 F100.00
G01 X5.2926 Y-12.4555 F100.00
G01 X5.3481 Y-12.4405 F100.00
G01 X8.4239 Y-12.4392 F100.00
G01 X9.6844 Y-11.1787 F100.00
G01 X9.6880 Y-11.1467 F100.00
G01 X9.7005 Y-11.1070 F100.00
G01 X9.7191 Y-11.0735 F100.00
G01 X9.7415 Y-11.0465 F100.00
G01 X10.2282 Y-10.5608 F100.00
G01 X10.2770 Y-10.5305 F100.00
G01 X10.3357 Y-10.5151 F100.00
G01 X14.8525 Y-10.5155 F100.00
G01 X14.9080 Y-10.5305 F100.00
G01 X14.9415 Y-10.5491 F100.00
G01 X14.9660 Y-10.5692 F100.00
G01 X16.0443 Y-11.6474 F100.00
G01 X17.0113 Y-11.6474 F100.00
G01 X17.0477 Y-11.6306 F100.00
G01 X17.0892 Y-11.6245 F100.00
G01 X18.4142 Y-11.6245 F100.00
G01 X18.4527 Y-11.6297 F100.00
G01 X18.4849 Y-11.6431 F100.00
G01 X18.5158 Y-11.6666 F100.00
G01 X18.5404 Y-11.6995 F100.00
G01 X18.5527 Y-11.7297 F100.00
G01 X18.5579 Y-11.7648 F100.00
G01 X18.5579 Y-11.9216 F100.00
G01 X18.5518 Y-11.9597 F100.00
G01 X18.5349 Y-11.9963 F100.00
G01 X18.5065 Y-12.0284 F100.00
G01 X18.4708 Y-12.0503 F100.00
G01 X18.4316 Y-12.0608 F100.00
G01 X17.0892 Y-12.0619 F100.00
G01 X17.0477 Y-12.0558 F100.00
G01 X17.0113 Y-12.0390 F100.00
G01 X15.9439 Y-12.0381 F100.00
G01 X15.8852 Y-12.0227 F100.00
G01 X15.8573 Y-12.0078 F100.00
G01 X15.8272 Y-11.9840 F100.00
G01 X14.7489 Y-10.9058 F100.00
G01 X10.4361 Y-10.9058 F100.00
G01 X10.0756 Y-11.2663 F100.00
G01 X10.0720 Y-11.2983 F100.00
G01 X10.0595 Y-11.3380 F100.00
G01 X10.0409 Y-11.3715 F100.00
G01 X10.0185 Y-11.3985 F100.00
G01 X8.6435 Y-12.7735 F100.00
G01 X8.6109 Y-12.7996 F100.00
G01 X8.5768 Y-12.8171 F100.00
G01 X8.5433 Y-12.8270 F100.00
G01 X8.5050 Y-12.8308 F100.00
G01 X5.4517 Y-12.8308 F100.00
G01 X5.0901 Y-13.1924 F100.00
G01 X5.1067 Y-13.2475 F100.00
G01 X5.1131 Y-13.3078 F100.00
G01 X5.1131 Y-14.0146 F100.00
G01 X5.0995 Y-14.1035 F100.00
G01 X5.0770 Y-14.1584 F100.00
G01 X5.0575 Y-14.1910 F100.00
G01 X5.0198 Y-14.2366 F100.00
G01 X4.9686 Y-14.2780 F100.00
G01 X4.9132 Y-14.3069 F100.00
G01 X4.8581 Y-14.3235 F100.00
G01 X4.7944 Y-14.3299 F100.00
G01 X4.4359 Y-14.3299 F100.00
G01 X4.4359 Y-17.5880 F100.00
G01 X4.5810 Y-17.5881 F100.00
G01 X4.6365 Y-17.5936 F100.00
G01 X4.7027 Y-17.6137 F100.00
G01 X4.7574 Y-17.6437 F100.00
G01 X4.8218 Y-17.7020 F100.00
G01 X4.8596 Y-17.7582 F100.00
G01 X4.8895 Y-17.8413 F100.00
G01 X4.8963 Y-17.9068 F100.00
G01 X4.8963 Y-18.8568 F100.00
G01 X4.8899 Y-18.9205 F100.00
G01 X4.8733 Y-18.9756 F100.00
G01 X4.8444 Y-19.0310 F100.00
G01 X4.8030 Y-19.0822 F100.00
G01 X4.7574 Y-19.1199 F100.00
G01 X4.7027 Y-19.1499 F100.00
G01 X4.6413 Y-19.1691 F100.00
G01 X4.6055 Y-19.1743 F100.00
G01 X4.5102 Y-19.1755 F100.00
G01 X4.5102 Y-19.6837 F100.00
G01 X4.6325 Y-19.7130 F100.00
G01 X4.7326 Y-19.7492 F100.00
G01 X4.8227 Y-19.7918 F100.00
G01 X4.9142 Y-19.8463 F100.00
G01 X4.9999 Y-19.9094 F100.00
G01 X5.0838 Y-19.9854 F100.00
G01 X5.1520 Y-20.0607 F100.00
G01 X5.2181 Y-20.1502 F100.00
G01 X5.2726 Y-20.2417 F100.00
G01 X5.3152 Y-20.3318 F100.00
G01 X5.3525 Y-20.4353 F100.00
G01 X5.3776 Y-20.5351 F100.00
G01 X5.3942 Y-20.6470 F100.00
G01 X5.3991 Y-20.7500 F100.00
G01 X5.3991 Y-21.2614 F100.00
G01 X5.3938 Y-21.3652 F100.00
G01 X5.3789 Y-21.4663 F100.00
G01 X5.3533 Y-21.5696 F100.00
G01 X5.3152 Y-21.6762 F100.00
G01 X5.2694 Y-21.7723 F100.00
G01 X5.2181 Y-21.8578 F100.00
G01 X5.1507 Y-21.9487 F100.00
G01 X5.0814 Y-22.0250 F100.00
G01 X5.0037 Y-22.0956 F100.00
G01 X4.9198 Y-22.1580 F100.00
G01 X4.8287 Y-22.2130 F100.00
G01 X4.7326 Y-22.2588 F100.00
G01 X4.6291 Y-22.2961 F100.00
G01 X4.5261 Y-22.3219 F100.00
G01 X4.4216 Y-22.3374 F100.00
G01 X4.3144 Y-22.3427 F100.00
G01 X4.2072 Y-22.3374 F100.00
G01 X4.1027 Y-22.3219 F100.00
G01 X3.9997 Y-22.2961 F100.00
G01 X3.9024 Y-22.2614 F100.00
G01 X3.8061 Y-22.2162 F100.00
G01 X3.7146 Y-22.1617 F100.00
G01 X3.6251 Y-22.0956 F100.00
G01 X3.5474 Y-22.0250 F100.00
G01 X3.4768 Y-21.9473 F100.00
G01 X3.4144 Y-21.8634 F100.00
G01 X3.3594 Y-21.7723 F100.00
G01 X3.3110 Y-21.6700 F100.00
G01 X3.2763 Y-21.5727 F100.00
G01 X3.2505 Y-21.4697 F100.00
G01 X3.2350 Y-21.3652 F100.00
G01 X3.2297 Y-21.2614 F100.00
G01 X3.2297 Y-20.7466 F100.00
G01 X3.2350 Y-20.6428 F100.00
G01 X3.2499 Y-20.5417 F100.00
G01 X3.2763 Y-20.4353 F100.00
G01 X3.3136 Y-20.3318 F100.00
G01 X3.3594 Y-20.2357 F100.00
G01 X3.4144 Y-20.1446 F100.00
G00 Z2.0000
G00 X3.8336 Y-22.4188
G01 F60.00
G01 Z-0.0700
G01 F100.00
G01 X4.0211 Y-22.4797 F100.00
G01 X4.2158 Y-22.5105 F100.00
G01 X4.4130 Y-22.5105 F100.00
G01 X4.6077 Y-22.4797 F100.00
G01 X4.7952 Y-22.4188 F100.00
G01 X4.9709 Y-22.3293 F100.00
G01 X5.1304 Y-22.2134 F100.00
G01 X5.2698 Y-22.0740 F100.00
G01 X5.3857 Y-21.9145 F100.00
G01 X5.4752 Y-21.7388 F100.00
G01 X5.4944 Y-21.6800 F100.00
G01 X5.5064 Y-21.6598 F100.00
G01 X5.5411 Y-21.6195 F100.00
G01 X5.5618 Y-21.6052 F100.00
G01 X5.6353 Y-21.5956 F100.00
G01 X5.6728 Y-21.6054 F100.00
G01 X5.7260 Y-21.6506 F100.00
G01 X5.8304 Y-21.8610 F100.00
G01 X5.9369 Y-22.0075 F100.00
G01 X6.0649 Y-22.1355 F100.00
G01 X6.2114 Y-22.2419 F100.00
G01 X6.3728 Y-22.3242 F100.00
G01 X6.4956 Y-22.3641 F100.00
G01 X6.4956 Y-22.2947 F100.00
G01 X6.3962 Y-22.2588 F100.00
G01 X6.3061 Y-22.2162 F100.00
G01 X6.2146 Y-22.1617 F100.00
G01 X6.1251 Y-22.0956 F100.00
G01 X6.0498 Y-22.0274 F100.00
G01 X5.9738 Y-21.9435 F100.00
G01 X5.9107 Y-21.8578 F100.00
G01 X5.8562 Y-21.7663 F100.00
G01 X5.8110 Y-21.6700 F100.00
G01 X5.7763 Y-21.5727 F100.00
G01 X5.7505 Y-21.4697 F100.00
G01 X5.7350 Y-21.3652 F100.00
G01 X5.7297 Y-21.2580 F100.00
G01 X5.7297 Y-20.7500 F100.00
G01 X5.7353 Y-20.6403 F100.00
G01 X5.7505 Y-20.5383 F100.00
G01 X5.7763 Y-20.4353 F100.00
G01 X5.8110 Y-20.3380 F100.00
G01 X5.8562 Y-20.2417 F100.00
G01 X5.9144 Y-20.1446 F100.00
G01 X5.9768 Y-20.0607 F100.00
G01 X6.0450 Y-19.9854 F100.00
G01 X6.1289 Y-19.9094 F100.00
G01 X6.2146 Y-19.8463 F100.00
G01 X6.3001 Y-19.7950 F100.00
G01 X6.3962 Y-19.7492 F100.00
G01 X6.4956 Y-19.7132 F100.00
G01 X6.4957 Y-19.6439 F100.00
G01 X6.3728 Y-19.6838 F100.00
G01 X6.2114 Y-19.7660 F100.00
G01 X6.0649 Y-19.8725 F100.00
G01 X5.9369 Y-20.0005 F100.00
G01 X5.8304 Y-20.1470 F100.00
G01 X5.7358 Y-20.3400 F100.00
G01 X5.6987 Y-20.3846 F100.00
G01 X5.6795 Y-20.4002 F100.00
G01 X5.6614 Y-20.4070 F100.00
G01 X5.5919 Y-20.4121 F100.00
G01 X5.5575 Y-20.3987 F100.00
G01 X5.5055 Y-20.3512 F100.00
G01 X5.4752 Y-20.2692 F100.00
G01 X5.3857 Y-20.0935 F100.00
G01 X5.2698 Y-19.9340 F100.00
G01 X5.1304 Y-19.7946 F100.00
G01 X4.9709 Y-19.6787 F100.00
G01 X4.7952 Y-19.5892 F100.00
G01 X4.7486 Y-19.5702 F100.00
G01 X4.6963 Y-19.5223 F100.00
G01 X4.6877 Y-19.5039 F100.00
G01 X4.6782 Y-19.4615 F100.00
G01 X4.6809 Y-19.4096 F100.00
G01 X4.7121 Y-19.3414 F100.00
G01 X4.7529 Y-19.3113 F100.00
G01 X4.8183 Y-19.2849 F100.00
G01 X4.9249 Y-19.2041 F100.00
G01 X5.0057 Y-19.0975 F100.00
G01 X5.0550 Y-18.9725 F100.00
G01 X5.0642 Y-18.8962 F100.00
G01 X5.0642 Y-17.8674 F100.00
G01 X5.0550 Y-17.7911 F100.00
G01 X5.0057 Y-17.6661 F100.00
G01 X4.9249 Y-17.5595 F100.00
G01 X4.8183 Y-17.4787 F100.00
G01 X4.6707 Y-17.4179 F100.00
G01 X4.6208 Y-17.3684 F100.00
G01 X4.6117 Y-17.3494 F100.00
G01 X4.6040 Y-17.3116 F100.00
G01 X4.6040 Y-14.6223 F100.00
G01 X4.6312 Y-14.5505 F100.00
G01 X4.6447 Y-14.5337 F100.00
G01 X4.6644 Y-14.5213 F100.00
G01 X4.7279 Y-14.4981 F100.00
G01 X4.8338 Y-14.4978 F100.00
G01 X4.9101 Y-14.4886 F100.00
G01 X5.0351 Y-14.4393 F100.00
G01 X5.1417 Y-14.3585 F100.00
G01 X5.2225 Y-14.2519 F100.00
G01 X5.2718 Y-14.1269 F100.00
G01 X5.2810 Y-14.0506 F100.00
G01 X5.2823 Y-13.2797 F100.00
G01 X5.3138 Y-13.2067 F100.00
G01 X5.4960 Y-13.0267 F100.00
G01 X5.5550 Y-13.0017 F100.00
G01 X5.5756 Y-12.9986 F100.00
G01 X6.8096 Y-12.9986 F100.00
G01 X6.8359 Y-13.0038 F100.00
G01 X6.8942 Y-13.0300 F100.00
G01 X6.9166 Y-13.0577 F100.00
G01 X6.9379 Y-13.1097 F100.00
G01 X6.9409 Y-13.1293 F100.00
G01 X6.9262 Y-13.1919 F100.00
G01 X6.9171 Y-13.2682 F100.00
G01 X6.9171 Y-14.0470 F100.00
G01 X6.9262 Y-14.1233 F100.00
G01 X6.9755 Y-14.2483 F100.00
G01 X7.0563 Y-14.3549 F100.00
G01 X7.1629 Y-14.4357 F100.00
G01 X7.2879 Y-14.4850 F100.00
G01 X7.3642 Y-14.4942 F100.00
G01 X8.1216 Y-14.4942 F100.00
G01 X8.1416 Y-14.4971 F100.00
G01 X8.1938 Y-14.5184 F100.00
G01 X8.2145 Y-14.5326 F100.00
G01 X8.8863 Y-15.2044 F100.00
G01 X8.9005 Y-15.2251 F100.00
G01 X8.9233 Y-15.2834 F100.00
G01 X8.9244 Y-17.3001 F100.00
G01 X8.9005 Y-17.3654 F100.00
G01 X8.8811 Y-17.3909 F100.00
G01 X8.8444 Y-17.4143 F100.00
G01 X8.7101 Y-17.4673 F100.00
G01 X8.6035 Y-17.5481 F100.00
G01 X8.5227 Y-17.6547 F100.00
G01 X8.4734 Y-17.7797 F100.00
G01 X8.4643 Y-17.8560 F100.00
G01 X8.4643 Y-18.8848 F100.00
G01 X8.4734 Y-18.9611 F100.00
G01 X8.5227 Y-19.0861 F100.00
G01 X8.6035 Y-19.1927 F100.00
G01 X8.7101 Y-19.2735 F100.00
G01 X8.8545 Y-19.3280 F100.00
G01 X8.9127 Y-19.3617 F100.00
G01 X8.9316 Y-19.3866 F100.00
G01 X8.9471 Y-19.4306 F100.00
G01 X8.9508 Y-19.4531 F100.00
G01 X8.9479 Y-19.4757 F100.00
G01 X8.9246 Y-19.5321 F100.00
G01 X8.9074 Y-19.5531 F100.00
G01 X8.8685 Y-19.5773 F100.00
G01 X8.8336 Y-19.5892 F100.00
G01 X8.6579 Y-19.6787 F100.00
G01 X8.4984 Y-19.7946 F100.00
G01 X8.3590 Y-19.9340 F100.00
G01 X8.2431 Y-20.0935 F100.00
G01 X8.1536 Y-20.2692 F100.00
G01 X8.1285 Y-20.3400 F100.00
G01 X8.0829 Y-20.3929 F100.00
G01 X8.0663 Y-20.4030 F100.00
G01 X8.0445 Y-20.4085 F100.00
G01 X7.9914 Y-20.4124 F100.00
G01 X7.9662 Y-20.4076 F100.00
G01 X7.9059 Y-20.3607 F100.00
G01 X7.8949 Y-20.3460 F100.00
G01 X7.8806 Y-20.3084 F100.00
G01 X7.7984 Y-20.1470 F100.00
G01 X7.6919 Y-20.0005 F100.00
G01 X7.5639 Y-19.8725 F100.00
G01 X7.4174 Y-19.7660 F100.00
G01 X7.2560 Y-19.6838 F100.00
G01 X7.1332 Y-19.6439 F100.00
G01 X7.1331 Y-19.7132 F100.00
G01 X7.2326 Y-19.7492 F100.00
G01 X7.3287 Y-19.7950 F100.00
G01 X7.4198 Y-19.8500 F100.00
G01 X7.4999 Y-19.9094 F100.00
G01 X7.5838 Y-19.9854 F100.00
G01 X7.6520 Y-20.0607 F100.00
G01 X7.7144 Y-20.1446 F100.00
G01 X7.7726 Y-20.2417 F100.00
G01 X7.8178 Y-20.3380 F100.00
G01 X7.8525 Y-20.4353 F100.00
G01 X7.8783 Y-20.5383 F100.00
G01 X7.8935 Y-20.6403 F100.00
G01 X7.8991 Y-20.7500 F100.00
G01 X7.8991 Y-21.2580 F100.00
G01 X7.8938 Y-21.3652 F100.00
G01 X7.8783 Y-21.4697 F100.00
G01 X7.8525 Y-21.5727 F100.00
G01 X7.8178 Y-21.6700 F100.00
G01 X7.7726 Y-21.7663 F100.00
G01 X7.7181 Y-21.8578 F100.00
G01 X7.6550 Y-21.9435 F100.00
G01 X7.5790 Y-22.0274 F100.00
G01 X7.5037 Y-22.0956 F100.00
G01 X7.4142 Y-22.1617 F100.00
G01 X7.3227 Y-22.2162 F100.00
G01 X7.2326 Y-22.2588 F100.00
G01 X7.1332 Y-22.2947 F100.00
G01 X7.1332 Y-22.3641 F100.00
G01 X7.2560 Y-22.3242 F100.00
G01 X7.4174 Y-22.2419 F100.00
G01 X7.5639 Y-22.1355 F100.00
G01 X7.6919 Y-22.0075 F100.00
G01 X7.7984 Y-21.8610 F100.00
G01 X7.8953 Y-21.6645 F100.00
G01 X7.9374 Y-21.6161 F100.00
G01 X7.9689 Y-21.6007 F100.00
G01 X8.0280 Y-21.5956 F100.00
G01 X8.0498 Y-21.5985 F100.00
G01 X8.0723 Y-21.6101 F100.00
G01 X8.1186 Y-21.6506 F100.00
G01 X8.1337 Y-21.6781 F100.00
G01 X8.1536 Y-21.7388 F100.00
G01 X8.2431 Y-21.9145 F100.00
G01 X8.3590 Y-22.0740 F100.00
G01 X8.4984 Y-22.2134 F100.00
G01 X8.6579 Y-22.3293 F100.00
G01 X8.8336 Y-22.4188 F100.00
G01 X9.0211 Y-22.4797 F100.00
G01 X9.2158 Y-22.5105 F100.00
G01 X9.4130 Y-22.5105 F100.00
G01 X9.6077 Y-22.4797 F100.00
G01 X9.7952 Y-22.4188 F100.00
G01 X9.9709 Y-22.3293 F100.00
G01 X10.1304 Y-22.2134 F100.00
G01 X10.2698 Y-22.0740 F100.00
G01 X10.3857 Y-21.9145 F100.00
G01 X10.4752 Y-21.7388 F100.00
G01 X10.5361 Y-21.5513 F100.00
G01 X10.5669 Y-21.3566 F100.00
G01 X10.5669 Y-20.6514 F100.00
G01 X10.5361 Y-20.4567 F100.00
G01 X10.4752 Y-20.2692 F100.00
G01 X10.3857 Y-20.0935 F100.00
G01 X10.2698 Y-19.9340 F100.00
G01 X10.1304 Y-19.7946 F100.00
G01 X9.9709 Y-19.6787 F100.00
G01 X9.7952 Y-19.5892 F100.00
G01 X9.7477 Y-19.5694 F100.00
G01 X9.6963 Y-19.5223 F100.00
G01 X9.6789 Y-19.4671 F100.00
G01 X9.6815 Y-19.4154 F100.00
G01 X9.7030 Y-19.3633 F100.00
G01 X9.7144 Y-19.3465 F100.00
G01 X9.7555 Y-19.3175 F100.00
G01 X9.8665 Y-19.2735 F100.00
G01 X9.9731 Y-19.1927 F100.00
G01 X10.0539 Y-19.0861 F100.00
G01 X10.1032 Y-18.9611 F100.00
G01 X10.1123 Y-18.8848 F100.00
G01 X10.1123 Y-17.8560 F100.00
G01 X10.1032 Y-17.7797 F100.00
G01 X10.0539 Y-17.6547 F100.00
G01 X9.9731 Y-17.5481 F100.00
G01 X9.8665 Y-17.4673 F100.00
G01 X9.7189 Y-17.4065 F100.00
G01 X9.6676 Y-17.3549 F100.00
G01 X9.6527 Y-17.3041 F100.00
G01 X9.6518 Y-15.0444 F100.00
G01 X9.6271 Y-14.9520 F100.00
G01 X9.5792 Y-14.8691 F100.00
G01 X8.8183 Y-14.1052 F100.00
G01 X8.7941 Y-14.0486 F100.00
G01 X8.7902 Y-14.0292 F100.00
G01 X8.7902 Y-13.6657 F100.00
G01 X8.8137 Y-13.5987 F100.00
G01 X8.8286 Y-13.5764 F100.00
G01 X10.6954 Y-11.7096 F100.00
G01 X10.7144 Y-11.6962 F100.00
G01 X10.7784 Y-11.6719 F100.00
G01 X10.8112 Y-11.6752 F100.00
G01 X10.8771 Y-11.7061 F100.00
G01 X10.8944 Y-11.7286 F100.00
G01 X10.9187 Y-11.7926 F100.00
G01 X10.9195 Y-13.1852 F100.00
G01 X10.9852 Y-13.1852 F100.00
G01 X10.9852 Y-11.4720 F100.00
G01 X10.9917 Y-11.4427 F100.00
G01 X11.0128 Y-11.4169 F100.00
G01 X11.0322 Y-11.4068 F100.00
G01 X11.0539 Y-11.4032 F100.00
G01 X13.9749 Y-11.4032 F100.00
G01 X13.9981 Y-11.4073 F100.00
G01 X14.0300 Y-11.4309 F100.00
G01 X14.0436 Y-11.4685 F100.00
G01 X14.0437 Y-13.1852 F100.00
G01 X14.1094 Y-13.1852 F100.00
G01 X14.1101 Y-11.8355 F100.00
G01 X14.1344 Y-11.7715 F100.00
G01 X14.1517 Y-11.7490 F100.00
G01 X14.2176 Y-11.7181 F100.00
G01 X14.2504 Y-11.7148 F100.00
G01 X14.3111 Y-11.7376 F100.00
G01 X14.3308 Y-11.7500 F100.00
G01 X15.2150 Y-12.6341 F100.00
G01 X15.2979 Y-12.6820 F100.00
G01 X15.3903 Y-12.7067 F100.00
G01 X16.6499 Y-12.7068 F100.00
G01 X16.7169 Y-12.7303 F100.00
G01 X16.7367 Y-12.7428 F100.00
G01 X16.7526 Y-12.7642 F100.00
G01 X16.7763 Y-12.8245 F100.00
G01 X16.7777 Y-12.9493 F100.00
G01 X16.7862 Y-13.0077 F100.00
G01 X16.8053 Y-13.0517 F100.00
G01 X16.8097 Y-13.1120 F100.00
G01 X16.8057 Y-13.1368 F100.00
G01 X16.7862 Y-13.1787 F100.00
G01 X16.7777 Y-13.2371 F100.00
G01 X16.7777 Y-13.4493 F100.00
G01 X16.7862 Y-13.5077 F100.00
G01 X16.8053 Y-13.5517 F100.00
G01 X16.8097 Y-13.6135 F100.00
G01 X16.8057 Y-13.6368 F100.00
G01 X16.7862 Y-13.6787 F100.00
G01 X16.7777 Y-13.7371 F100.00
G01 X16.7777 Y-13.9493 F100.00
G01 X16.7862 Y-14.0077 F100.00
G01 X16.8321 Y-14.1017 F100.00
G01 X16.8704 Y-14.1474 F100.00
G01 X17.0113 Y-14.1474 F100.00
G01 X17.0477 Y-14.1306 F100.00
G01 X17.0892 Y-14.1245 F100.00
G01 X18.4142 Y-14.1245 F100.00
G01 X18.4557 Y-14.1306 F100.00
G01 X18.4921 Y-14.1474 F100.00
G01 X18.6330 Y-14.1474 F100.00
G01 X18.6713 Y-14.1017 F100.00
G01 X18.7172 Y-14.0077 F100.00
G01 X18.7257 Y-13.9493 F100.00
G01 X18.7257 Y-13.7371 F100.00
G01 X18.7172 Y-13.6787 F100.00
G01 X18.6981 Y-13.6348 F100.00
G01 X18.6937 Y-13.5729 F100.00
G01 X18.6977 Y-13.5496 F100.00
G01 X18.7172 Y-13.5077 F100.00
G01 X18.7257 Y-13.4493 F100.00
G01 X18.7257 Y-13.2371 F100.00
G01 X18.7172 Y-13.1787 F100.00
G01 X18.6981 Y-13.1348 F100.00
G01 X18.6937 Y-13.0729 F100.00
G01 X18.6977 Y-13.0496 F100.00
G01 X18.7172 Y-13.0077 F100.00
G01 X18.7257 Y-12.9493 F100.00
G01 X18.7257 Y-12.7371 F100.00
G01 X18.7172 Y-12.6787 F100.00
G01 X18.6981 Y-12.6348 F100.00
G01 X18.6937 Y-12.5729 F100.00
G01 X18.6977 Y-12.5496 F100.00
G01 X18.7172 Y-12.5077 F100.00
G01 X18.7257 Y-12.4493 F100.00
G01 X18.7257 Y-12.2371 F100.00
G01 X18.7172 Y-12.1787 F100.00
G01 X18.6981 Y-12.1348 F100.00
G01 X18.6937 Y-12.0729 F100.00
G01 X18.6977 Y-12.0496 F100.00
G01 X18.7172 Y-12.0077 F100.00
G01 X18.7257 Y-11.9493 F100.00
G01 X18.7257 Y-11.7371 F100.00
G01 X18.7172 Y-11.6787 F100.00
G01 X18.6981 Y-11.6348 F100.00
G01 X18.6937 Y-11.5729 F100.00
G01 X18.6977 Y-11.5496 F100.00
G01 X18.7172 Y-11.5077 F100.00
G01 X18.7257 Y-11.4493 F100.00
G01 X18.7257 Y-11.2371 F100.00
G01 X18.7172 Y-11.1787 F100.00
G01 X18.6981 Y-11.1348 F100.00
G01 X18.6939 Y-11.0676 F100.00
G01 X18.7172 Y-11.0077 F100.00
G01 X18.7257 Y-10.9493 F100.00
G01 X18.7257 Y-10.7371 F100.00
G01 X18.7172 Y-10.6787 F100.00
G01 X18.6713 Y-10.5847 F100.00
G01 X18.5977 Y-10.5111 F100.00
G01 X18.5037 Y-10.4652 F100.00
G01 X18.4453 Y-10.4567 F100.00
G01 X17.0509 Y-10.4568 F100.00
G01 X16.9711 Y-10.4338 F100.00
G01 X14.4820 Y-7.9479 F100.00
G01 X14.4686 Y-7.9289 F100.00
G01 X14.4449 Y-7.8685 F100.00
G01 X14.4436 Y-7.2210 F100.00
G01 X14.4686 Y-7.1507 F100.00
G01 X14.4845 Y-7.1293 F100.00
G01 X14.5518 Y-7.0972 F100.00
G01 X14.5846 Y-7.0939 F100.00
G01 X14.6351 Y-7.1087 F100.00
G01 X14.6824 Y-7.1385 F100.00
G01 X14.8063 Y-7.1899 F100.00
G01 X14.9379 Y-7.2160 F100.00
G01 X15.0769 Y-7.2168 F100.00
G01 X15.1408 Y-7.2411 F100.00
G01 X15.1598 Y-7.2545 F100.00
G01 X15.4580 Y-7.5527 F100.00
G01 X15.4709 Y-7.5705 F100.00
G01 X15.4964 Y-7.6420 F100.00
G01 X15.4965 Y-7.9664 F100.00
G01 X15.5056 Y-8.0427 F100.00
G01 X15.5549 Y-8.1677 F100.00
G01 X15.6357 Y-8.2743 F100.00
G01 X15.7423 Y-8.3551 F100.00
G01 X15.8673 Y-8.4044 F100.00
G01 X15.9436 Y-8.4135 F100.00
G01 X16.7073 Y-8.4131 F100.00
G01 X16.7846 Y-8.4347 F100.00
G01 X16.8055 Y-8.4511 F100.00
G01 X18.0760 Y-9.7216 F100.00
G01 X18.1589 Y-9.7695 F100.00
G01 X18.2513 Y-9.7942 F100.00
G01 X18.6499 Y-9.7943 F100.00
G01 X18.7169 Y-9.8178 F100.00
G01 X18.7367 Y-9.8303 F100.00
G01 X18.7526 Y-9.8517 F100.00
G01 X18.7769 Y-9.9157 F100.00
G01 X18.7777 Y-10.1243 F100.00
G01 X18.7862 Y-10.1827 F100.00
G01 X18.8321 Y-10.2767 F100.00
G01 X18.9057 Y-10.3503 F100.00
G01 X18.9997 Y-10.3962 F100.00
G01 X19.0581 Y-10.4047 F100.00
G01 X19.2703 Y-10.4047 F100.00
G01 X19.3287 Y-10.3962 F100.00
G01 X19.4227 Y-10.3503 F100.00
G01 X19.4689 Y-10.3117 F100.00
G01 X19.4805 Y-10.2928 F100.00
G01 X19.4693 Y-10.2447 F100.00
G01 X19.4684 Y-10.1711 F100.00
G01 X19.4516 Y-10.1347 F100.00
G01 X19.4455 Y-10.0932 F100.00
G01 X19.4455 Y-8.7682 F100.00
G01 X19.4516 Y-8.7267 F100.00
G01 X19.4684 Y-8.6903 F100.00
G01 X19.4684 Y-8.5494 F100.00
G01 X19.4227 Y-8.5111 F100.00
G01 X19.3287 Y-8.4652 F100.00
G01 X19.2703 Y-8.4567 F100.00
G01 X19.0616 Y-8.4567 F100.00
G01 X19.0361 Y-8.4517 F100.00
G01 X18.9867 Y-8.4311 F100.00
G01 X18.9664 Y-8.4157 F100.00
G01 X18.9539 Y-8.3959 F100.00
G01 X18.9311 Y-8.3352 F100.00
G01 X18.9339 Y-8.3037 F100.00
G01 X18.9579 Y-8.2468 F100.00
G01 X18.9726 Y-8.2291 F100.00
G01 X19.0079 Y-8.2019 F100.00
G01 X19.0767 Y-8.1087 F100.00
G01 X19.1157 Y-7.9974 F100.00
G01 X19.1174 Y-7.8634 F100.00
G01 X19.0518 Y-7.7977 F100.00
G01 X19.0505 Y-7.9549 F100.00
G01 X19.0389 Y-8.0163 F100.00
G01 X19.0261 Y-8.0521 F100.00
G01 X18.9998 Y-8.1012 F100.00
G01 X18.9559 Y-8.1547 F100.00
G01 X18.9072 Y-8.1938 F100.00
G01 X18.8518 Y-8.2227 F100.00
G01 X18.7919 Y-8.2402 F100.00
G01 X18.7143 Y-8.2457 F100.00
G01 X18.7143 Y-8.3114 F100.00
G01 X18.8020 Y-8.3128 F100.00
G01 X18.8681 Y-8.3396 F100.00
G01 X18.8942 Y-8.3678 F100.00
G01 X18.9196 Y-8.4392 F100.00
G01 X18.9162 Y-8.4644 F100.00
G01 X18.8916 Y-8.5223 F100.00
G01 X18.8321 Y-8.5847 F100.00
G01 X18.7862 Y-8.6787 F100.00
G01 X18.7777 Y-8.7371 F100.00
G01 X18.7772 Y-8.9435 F100.00
G01 X18.7521 Y-9.0108 F100.00
G01 X18.7260 Y-9.0390 F100.00
G01 X18.6599 Y-9.0658 F100.00
G01 X18.5006 Y-9.0671 F100.00
G01 X18.4778 Y-9.0619 F100.00
G01 X18.4140 Y-9.0312 F100.00
G01 X17.9078 Y-8.5223 F100.00
G01 X17.8837 Y-8.4657 F100.00
G01 X17.8797 Y-8.4427 F100.00
G01 X17.8837 Y-8.4197 F100.00
G01 X17.9078 Y-8.3631 F100.00
G01 X17.9314 Y-8.3396 F100.00
G01 X17.9892 Y-8.3150 F100.00
G01 X18.0767 Y-8.3114 F100.00
G01 X18.0767 Y-8.2457 F100.00
G01 X17.9943 Y-8.2393 F100.00
G01 X17.9094 Y-8.2090 F100.00
G01 X17.8532 Y-8.1712 F100.00
G01 X17.7949 Y-8.1068 F100.00
G01 X17.7623 Y-8.0458 F100.00
G01 X17.7448 Y-7.9859 F100.00
G01 X17.7393 Y-7.9304 F100.00
G01 X17.7393 Y-7.7708 F100.00
G01 X17.6736 Y-7.7708 F100.00
G01 X17.6731 Y-7.9816 F100.00
G01 X17.6454 Y-8.0536 F100.00
G01 X17.6172 Y-8.0797 F100.00
G01 X17.5640 Y-8.1018 F100.00
G01 X17.5423 Y-8.1053 F100.00
G01 X17.5168 Y-8.1004 F100.00
G01 X17.4534 Y-8.0704 F100.00
G01 X17.1830 Y-7.8004 F100.00
G01 X17.1681 Y-7.7781 F100.00
G01 X17.1446 Y-7.7111 F100.00
G01 X17.1445 Y-6.9376 F100.00
G01 X17.1354 Y-6.8613 F100.00
G01 X17.0861 Y-6.7363 F100.00
G01 X17.0053 Y-6.6297 F100.00
G01 X16.9110 Y-6.5557 F100.00
G01 X16.8789 Y-6.5020 F100.00
G01 X16.8719 Y-6.4769 F100.00
G01 X16.8860 Y-6.4076 F100.00
G01 X16.8970 Y-6.3845 F100.00
G01 X16.9206 Y-6.3602 F100.00
G01 X17.0245 Y-6.2813 F100.00
G01 X17.1053 Y-6.1747 F100.00
G01 X17.1546 Y-6.0497 F100.00
G01 X17.1637 Y-5.9734 F100.00
G01 X17.1637 Y-4.9446 F100.00
G01 X17.1546 Y-4.8683 F100.00
G01 X17.1053 Y-4.7433 F100.00
G01 X17.0245 Y-4.6367 F100.00
G01 X16.9179 Y-4.5559 F100.00
G01 X16.7929 Y-4.5066 F100.00
G01 X16.7166 Y-4.4975 F100.00
G01 X15.9628 Y-4.4975 F100.00
G01 X15.8865 Y-4.5066 F100.00
G01 X15.7615 Y-4.5559 F100.00
G01 X15.6549 Y-4.6367 F100.00
G01 X15.5741 Y-4.7433 F100.00
G01 X15.5248 Y-4.8683 F100.00
G01 X15.5157 Y-4.9446 F100.00
G01 X15.5152 Y-5.2731 F100.00
G01 X15.4906 Y-5.3393 F100.00
G01 X15.4772 Y-5.3583 F100.00
G01 X15.0045 Y-5.8272 F100.00
G01 X14.9484 Y-5.8520 F100.00
G01 X14.8063 Y-5.8801 F100.00
G01 X14.6824 Y-5.9315 F100.00
G01 X14.6351 Y-5.9613 F100.00
G01 X14.5724 Y-5.9748 F100.00
G01 X14.5491 Y-5.9742 F100.00
G01 X14.5272 Y-5.9658 F100.00
G01 X14.4767 Y-5.9312 F100.00
G01 X14.4581 Y-5.9035 F100.00
G01 X14.4435 Y-5.8455 F100.00
G01 X14.4435 Y-4.4400 F100.00
G01 X14.4475 Y-4.4170 F100.00
G01 X14.4754 Y-4.3547 F100.00
G01 X15.1191 Y-3.7100 F100.00
G01 X15.1381 Y-3.6966 F100.00
G01 X15.2084 Y-3.6716 F100.00
G01 X16.1179 Y-3.6702 F100.00
G01 X16.2010 Y-3.6335 F100.00
G01 X16.2635 Y-3.5710 F100.00
G01 X16.3002 Y-3.4879 F100.00
G01 X16.3015 Y-1.6934 F100.00
G01 X16.2635 Y-1.5990 F100.00
G01 X16.2010 Y-1.5365 F100.00
G01 X16.1066 Y-1.4985 F100.00
G01 X14.3234 Y-1.4985 F100.00
G01 X14.2290 Y-1.5365 F100.00
G01 X14.1665 Y-1.5990 F100.00
G01 X14.1298 Y-1.6821 F100.00
G01 X14.1285 Y-3.4766 F100.00
G01 X14.1541 Y-3.5470 F100.00
G01 X14.1560 Y-3.6172 F100.00
G01 X14.1493 Y-3.6391 F100.00
G01 X14.1247 Y-3.6760 F100.00
G01 X13.7891 Y-4.0118 F100.00
G01 X13.7412 Y-4.0947 F100.00
G01 X13.7165 Y-4.1871 F100.00
G01 X13.7165 Y-8.1079 F100.00
G01 X13.7412 Y-8.2003 F100.00
G01 X13.7891 Y-8.2832 F100.00
G01 X14.1666 Y-8.6636 F100.00
G01 X14.1912 Y-8.7215 F100.00
G01 X14.1943 Y-8.7508 F100.00
G01 X14.1691 Y-8.8181 F100.00
G01 X14.1487 Y-8.8426 F100.00
G01 X14.0864 Y-8.8705 F100.00
G01 X14.0634 Y-8.8745 F100.00
G01 X8.7874 Y-8.8745 F100.00
G01 X8.7619 Y-8.8695 F100.00
G01 X8.6985 Y-8.8396 F100.00
G01 X8.6817 Y-8.8181 F100.00
G01 X8.6598 Y-8.7681 F100.00
G01 X8.6470 Y-8.6723 F100.00
G01 X8.5977 Y-8.5473 F100.00
G01 X8.5169 Y-8.4407 F100.00
G01 X8.4103 Y-8.3599 F100.00
G01 X8.2678 Y-8.3015 F100.00
G01 X8.2212 Y-8.2571 F100.00
G01 X8.2063 Y-8.2272 F100.00
G01 X8.2055 Y-8.1493 F100.00
G01 X8.2308 Y-8.1029 F100.00
G01 X8.4891 Y-7.8435 F100.00
G01 X8.5069 Y-7.8306 F100.00
G01 X8.5587 Y-7.8090 F100.00
G01 X8.5968 Y-7.8067 F100.00
G01 X8.6471 Y-7.8231 F100.00
G01 X8.8336 Y-7.9188 F100.00
G01 X9.0211 Y-7.9797 F100.00
G01 X9.2158 Y-8.0105 F100.00
G01 X9.4130 Y-8.0105 F100.00
G01 X9.6077 Y-7.9797 F100.00
G01 X9.7952 Y-7.9188 F100.00
G01 X9.9709 Y-7.8293 F100.00
G01 X10.1304 Y-7.7134 F100.00
G01 X10.2698 Y-7.5740 F100.00
G01 X10.3857 Y-7.4145 F100.00
G01 X10.4752 Y-7.2388 F100.00
G01 X10.5361 Y-7.0513 F100.00
G01 X10.5669 Y-6.8566 F100.00
G01 X10.5669 Y-6.1514 F100.00
G01 X10.5361 Y-5.9567 F100.00
G01 X10.4752 Y-5.7692 F100.00
G01 X10.3857 Y-5.5935 F100.00
G01 X10.2698 Y-5.4340 F100.00
G01 X10.1304 Y-5.2946 F100.00
G01 X9.9709 Y-5.1787 F100.00
G01 X9.7952 Y-5.0892 F100.00
G01 X9.6077 Y-5.0283 F100.00
G01 X9.4130 Y-4.9975 F100.00
G01 X9.2158 Y-4.9975 F100.00
G01 X9.0211 Y-5.0283 F100.00
G01 X8.8336 Y-5.0892 F100.00
G01 X8.6579 Y-5.1787 F100.00
G01 X8.4984 Y-5.2946 F100.00
G01 X8.3590 Y-5.4340 F100.00
G01 X8.2431 Y-5.5935 F100.00
G01 X8.1536 Y-5.7692 F100.00
G01 X8.0927 Y-5.9567 F100.00
G01 X8.0619 Y-6.1514 F100.00
G01 X8.0619 Y-6.8566 F100.00
G01 X8.0927 Y-7.0513 F100.00
G01 X8.1101 Y-7.1094 F100.00
G01 X8.1016 Y-7.1909 F100.00
G01 X8.0751 Y-7.2291 F100.00
G01 X7.5287 Y-7.7756 F100.00
G01 X7.4808 Y-7.8585 F100.00
G01 X7.4561 Y-7.9507 F100.00
G01 X7.4556 Y-8.1896 F100.00
G01 X7.4281 Y-8.2612 F100.00
G01 X7.4114 Y-8.2803 F100.00
G01 X7.3710 Y-8.3040 F100.00
G01 X7.2289 Y-8.3599 F100.00
G01 X7.1223 Y-8.4407 F100.00
G01 X7.0415 Y-8.5473 F100.00
G01 X6.9922 Y-8.6723 F100.00
G01 X6.9831 Y-8.7486 F100.00
G01 X6.9831 Y-9.7274 F100.00
G01 X6.9922 Y-9.8037 F100.00
G01 X7.0415 Y-9.9287 F100.00
G01 X7.1223 Y-10.0353 F100.00
G01 X7.2289 Y-10.1161 F100.00
G01 X7.3539 Y-10.1654 F100.00
G01 X7.4302 Y-10.1745 F100.00
G01 X8.2090 Y-10.1745 F100.00
G01 X8.2853 Y-10.1654 F100.00
G01 X8.4103 Y-10.1161 F100.00
G01 X8.5169 Y-10.0353 F100.00
G01 X8.5977 Y-9.9287 F100.00
G01 X8.6470 Y-9.8037 F100.00
G01 X8.6592 Y-9.7099 F100.00
G01 X8.6880 Y-9.6476 F100.00
G01 X8.7125 Y-9.6271 F100.00
G01 X8.7798 Y-9.6020 F100.00
G01 X13.8780 Y-9.6015 F100.00
G01 X13.9036 Y-9.6065 F100.00
G01 X13.9682 Y-9.6375 F100.00
G01 X14.4598 Y-10.1300 F100.00
G01 X14.4882 Y-10.1935 F100.00
G01 X14.4913 Y-10.2228 F100.00
G01 X14.4661 Y-10.2901 F100.00
G01 X14.4400 Y-10.3183 F100.00
G01 X14.3834 Y-10.3425 F100.00
G01 X14.3604 Y-10.3464 F100.00
G01 X10.3071 Y-10.3464 F100.00
G01 X10.2147 Y-10.3712 F100.00
G01 X10.1318 Y-10.4191 F100.00
G01 X9.5891 Y-10.9618 F100.00
G01 X9.5412 Y-11.0447 F100.00
G01 X9.5303 Y-11.0792 F100.00
G01 X9.5017 Y-11.1241 F100.00
G01 X9.0116 Y-11.6142 F100.00
G01 X8.9444 Y-11.6461 F100.00
G01 X8.9138 Y-11.6497 F100.00
G01 X8.8509 Y-11.6266 F100.00
G01 X8.8311 Y-11.6140 F100.00
G01 X8.8157 Y-11.5938 F100.00
G01 X8.7937 Y-11.5406 F100.00
G01 X8.7901 Y-11.5188 F100.00
G01 X8.7901 Y-11.2682 F100.00
G01 X8.7810 Y-11.1919 F100.00
G01 X8.7317 Y-11.0669 F100.00
G01 X8.6509 Y-10.9603 F100.00
G01 X8.5443 Y-10.8795 F100.00
G01 X8.4193 Y-10.8302 F100.00
G01 X8.3430 Y-10.8211 F100.00
G01 X7.3642 Y-10.8211 F100.00
G01 X7.2879 Y-10.8302 F100.00
G01 X7.1629 Y-10.8795 F100.00
G01 X7.0563 Y-10.9603 F100.00
G01 X6.9755 Y-11.0669 F100.00
G01 X6.9197 Y-11.2089 F100.00
G01 X6.8848 Y-11.2576 F100.00
G01 X6.8571 Y-11.2795 F100.00
G01 X6.8069 Y-11.2934 F100.00
G01 X5.3995 Y-11.2941 F100.00
G01 X5.3777 Y-11.2905 F100.00
G01 X5.3260 Y-11.2692 F100.00
G01 X5.3012 Y-11.2494 F100.00
G01 X5.2778 Y-11.2104 F100.00
G01 X5.2225 Y-11.0705 F100.00
G01 X5.1417 Y-10.9639 F100.00
G01 X5.0351 Y-10.8831 F100.00
G01 X4.9580 Y-10.8505 F100.00
G01 X4.9086 Y-10.8026 F100.00
G01 X4.8958 Y-10.7725 F100.00
G01 X4.8943 Y-10.7073 F100.00
G01 X4.9013 Y-10.6828 F100.00
G01 X4.9210 Y-10.6519 F100.00
G01 X5.3587 Y-10.2130 F100.00
G01 X5.3766 Y-10.2001 F100.00
G01 X5.4480 Y-10.1746 F100.00
G01 X6.2090 Y-10.1745 F100.00
G01 X6.2853 Y-10.1654 F100.00
G01 X6.4103 Y-10.1161 F100.00
G01 X6.5169 Y-10.0353 F100.00
G01 X6.5977 Y-9.9287 F100.00
G01 X6.6470 Y-9.8037 F100.00
G01 X6.6561 Y-9.7274 F100.00
G01 X6.6561 Y-8.7486 F100.00
G01 X6.6470 Y-8.6723 F100.00
G01 X6.5977 Y-8.5473 F100.00
G01 X6.5169 Y-8.4407 F100.00
G01 X6.4103 Y-8.3599 F100.00
G01 X6.2853 Y-8.3106 F100.00
G01 X6.2090 Y-8.3015 F100.00
G01 X5.4302 Y-8.3015 F100.00
G01 X5.3539 Y-8.3106 F100.00
G01 X5.2289 Y-8.3599 F100.00
G01 X5.1223 Y-8.4407 F100.00
G01 X5.0415 Y-8.5473 F100.00
G01 X4.9922 Y-8.6723 F100.00
G01 X4.9831 Y-8.7486 F100.00
G01 X4.9830 Y-9.5096 F100.00
G01 X4.9595 Y-9.5766 F100.00
G01 X4.9446 Y-9.5989 F100.00
G01 X4.5075 Y-10.0359 F100.00
G01 X4.4911 Y-10.0468 F100.00
G01 X4.4341 Y-10.0697 F100.00
G01 X4.4005 Y-10.0697 F100.00
G01 X4.3321 Y-10.0399 F100.00
G01 X4.3116 Y-10.0155 F100.00
G01 X4.2881 Y-9.9574 F100.00
G01 X4.2860 Y-9.4929 F100.00
G01 X4.2599 Y-9.3613 F100.00
G01 X4.2085 Y-9.2374 F100.00
G01 X4.1340 Y-9.1259 F100.00
G01 X4.0391 Y-9.0310 F100.00
G01 X3.9276 Y-8.9565 F100.00
G01 X3.8037 Y-8.9051 F100.00
G01 X3.6721 Y-8.8790 F100.00
G01 X3.5379 Y-8.8790 F100.00
G01 X3.4063 Y-8.9051 F100.00
G01 X3.2824 Y-8.9565 F100.00
G01 X3.1709 Y-9.0310 F100.00
G01 X3.0760 Y-9.1259 F100.00
G01 X3.0015 Y-9.2374 F100.00
G01 X2.9501 Y-9.3613 F100.00
G01 X2.9240 Y-9.4929 F100.00
G01 X2.9240 Y-10.9889 F100.00
G01 X2.9501 Y-11.1205 F100.00
G01 X3.0015 Y-11.2444 F100.00
G01 X3.0760 Y-11.3559 F100.00
G01 X3.3694 Y-11.6494 F100.00
G01 X3.3843 Y-11.6717 F100.00
G01 X3.4078 Y-11.7387 F100.00
G01 X3.4079 Y-12.0506 F100.00
G01 X3.4170 Y-12.1269 F100.00
G01 X3.4663 Y-12.2519 F100.00
G01 X3.5471 Y-12.3585 F100.00
G01 X3.6537 Y-12.4393 F100.00
G01 X3.7787 Y-12.4886 F100.00
G01 X3.8550 Y-12.4977 F100.00
G01 X4.6867 Y-12.4985 F100.00
G01 X4.7507 Y-12.5228 F100.00
G01 X4.7697 Y-12.5362 F100.00
G01 X4.7846 Y-12.5585 F100.00
G01 X4.8080 Y-12.6255 F100.00
G01 X4.8032 Y-12.6545 F100.00
G01 X4.7722 Y-12.7192 F100.00
G01 X4.6977 Y-12.7928 F100.00
G01 X4.6259 Y-12.8233 F100.00
G01 X3.8550 Y-12.8247 F100.00
G01 X3.7787 Y-12.8338 F100.00
G01 X3.6537 Y-12.8831 F100.00
G01 X3.5471 Y-12.9639 F100.00
G01 X3.4663 Y-13.0705 F100.00
G01 X3.4170 Y-13.1955 F100.00
G01 X3.4079 Y-13.2718 F100.00
G01 X3.4079 Y-14.0506 F100.00
G01 X3.4170 Y-14.1269 F100.00
G01 X3.4663 Y-14.2519 F100.00
G01 X3.5471 Y-14.3585 F100.00
G01 X3.6537 Y-14.4393 F100.00
G01 X3.8067 Y-14.5023 F100.00
G01 X3.8476 Y-14.5355 F100.00
G01 X3.8592 Y-14.5509 F100.00
G01 X3.8766 Y-14.6161 F100.00
G01 X3.8761 Y-17.3123 F100.00
G01 X3.8510 Y-17.3797 F100.00
G01 X3.8307 Y-17.4039 F100.00
G01 X3.7966 Y-17.4255 F100.00
G01 X3.6619 Y-17.4787 F100.00
G01 X3.5553 Y-17.5595 F100.00
G01 X3.4745 Y-17.6661 F100.00
G01 X3.4252 Y-17.7911 F100.00
G01 X3.4161 Y-17.8674 F100.00
G01 X3.4161 Y-18.8962 F100.00
G01 X3.4252 Y-18.9725 F100.00
G01 X3.4745 Y-19.0975 F100.00
G01 X3.5553 Y-19.2041 F100.00
G01 X3.6619 Y-19.2849 F100.00
G01 X3.7869 Y-19.3342 F100.00
G01 X3.8190 Y-19.3402 F100.00
G01 X3.8779 Y-19.3732 F100.00
G01 X3.8920 Y-19.3878 F100.00
G01 X3.9013 Y-19.4060 F100.00
G01 X3.9175 Y-19.4787 F100.00
G01 X3.9089 Y-19.5075 F100.00
G01 X3.8703 Y-19.5677 F100.00
G01 X3.6579 Y-19.6787 F100.00
G01 X3.4984 Y-19.7946 F100.00
G01 X3.3590 Y-19.9340 F100.00
G01 X3.2431 Y-20.0935 F100.00
G01 X3.1536 Y-20.2692 F100.00
G01 X3.0927 Y-20.4567 F100.00
G01 X3.0619 Y-20.6514 F100.00
G01 X3.0619 Y-21.3566 F100.00
G01 X3.0927 Y-21.5513 F100.00
G01 X3.1536 Y-21.7388 F100.00
G01 X3.2431 Y-21.9145 F100.00
G01 X3.3590 Y-22.0740 F100.00
G01 X3.4984 Y-22.2134 F100.00
G01 X3.6579 Y-22.3293 F100.00
G01 X3.8336 Y-22.4188 F100.00
G00 Z2.0000
G00 X6.4875 Y-24.3777
G01 F60.00
G01 Z-0.0700
G01 F100.00
G01 X6.5341 Y-24.3268 F100.00
G01 X6.5802 Y-24.2850 F100.00
G01 X6.6336 Y-24.2452 F100.00
G01 X6.6916 Y-24.2100 F100.00
G01 X6.7542 Y-24.1800 F100.00
G01 X6.8179 Y-24.1571 F100.00
G01 X6.8888 Y-24.1395 F100.00
G01 X6.9525 Y-24.1301 F100.00
G01 X7.0169 Y-24.1268 F100.00
G01 X7.0881 Y-24.1301 F100.00
G01 X7.1566 Y-24.1403 F100.00
G01 X7.2176 Y-24.1556 F100.00
G01 X7.2864 Y-24.1800 F100.00
G01 X7.3430 Y-24.2068 F100.00
G01 X7.4014 Y-24.2414 F100.00
G01 X7.4604 Y-24.2850 F100.00
G01 X7.5089 Y-24.3292 F100.00
G01 X7.5523 Y-24.3768 F100.00
G01 X7.5967 Y-24.4367 F100.00
G01 X7.6574 Y-24.5503 F100.00
G01 X7.6829 Y-24.6220 F100.00
G01 X9.0611 Y-24.6220 F100.00
G01 X9.3813 Y-24.3018 F100.00
G01 X9.3813 Y-23.6850 F100.00
G01 X9.3863 Y-23.6310 F100.00
G01 X9.4024 Y-23.5757 F100.00
G01 X9.4296 Y-23.5236 F100.00
G01 X9.4673 Y-23.4773 F100.00
G01 X9.5090 Y-23.4427 F100.00
G01 X9.5382 Y-23.4251 F100.00
G01 X9.5865 Y-23.4050 F100.00
G01 X9.6496 Y-23.3924 F100.00
G01 X10.1250 Y-23.3913 F100.00
G01 X10.1824 Y-23.3969 F100.00
G01 X10.2618 Y-23.4251 F100.00
G01 X10.2910 Y-23.4427 F100.00
G01 X10.3327 Y-23.4773 F100.00
G01 X10.3673 Y-23.5190 F100.00
G01 X10.3849 Y-23.5482 F100.00
G01 X10.4131 Y-23.6276 F100.00
G01 X10.4187 Y-23.6850 F100.00
G01 X10.4169 Y-24.4671 F100.00
G01 X10.3976 Y-24.5443 F100.00
G01 X10.3704 Y-24.5964 F100.00
G01 X10.3303 Y-24.6450 F100.00
G01 X10.2664 Y-24.6924 F100.00
G01 X10.2070 Y-24.7170 F100.00
G01 X10.1250 Y-24.7287 F100.00
G01 X9.6496 Y-24.7276 F100.00
G01 X9.5930 Y-24.7170 F100.00
G01 X9.5408 Y-24.6962 F100.00
G01 X9.2676 Y-24.9682 F100.00
G01 X9.2202 Y-24.9973 F100.00
G01 X9.1647 Y-25.0123 F100.00
G01 X7.6829 Y-25.0136 F100.00
G01 X7.6581 Y-25.0839 F100.00
G01 X7.6281 Y-25.1465 F100.00
G01 X7.5566 Y-25.2535 F100.00
G01 X7.5065 Y-25.3088 F100.00
G01 X7.4604 Y-25.3506 F100.00
G01 X7.4070 Y-25.3904 F100.00
G01 X7.3430 Y-25.4288 F100.00
G01 X7.2864 Y-25.4556 F100.00
G01 X7.2241 Y-25.4780 F100.00
G01 X7.1566 Y-25.4953 F100.00
G01 X7.0847 Y-25.5058 F100.00
G01 X7.0203 Y-25.5088 F100.00
G01 X6.9525 Y-25.5055 F100.00
G01 X6.8840 Y-25.4953 F100.00
G01 X6.8230 Y-25.4800 F100.00
G01 X6.7528 Y-25.4549 F100.00
G01 X6.6392 Y-25.3942 F100.00
G01 X6.5793 Y-25.3498 F100.00
G01 X6.5317 Y-25.3064 F100.00
G01 X6.4875 Y-25.2579 F100.00
G01 X6.4477 Y-25.2045 F100.00
G01 X6.4125 Y-25.1465 F100.00
G01 X6.3806 Y-25.0791 F100.00
G01 X6.3596 Y-25.0202 F100.00
G01 X6.3428 Y-24.9541 F100.00
G01 X6.3323 Y-24.8822 F100.00
G01 X6.3293 Y-24.8178 F100.00
G01 X6.3326 Y-24.7500 F100.00
G01 X6.3428 Y-24.6815 F100.00
G01 X6.3581 Y-24.6204 F100.00
G01 X6.3825 Y-24.5517 F100.00
G01 X6.4093 Y-24.4951 F100.00
G01 X6.4439 Y-24.4367 F100.00
G01 X6.4875 Y-24.3777 F100.00
G00 Z2.0000
G00 X6.3216 Y-25.3254
G01 F60.00
G01 Z-0.0700
G01 F100.00
G01 X6.4425 Y-25.4596 F100.00
G01 X6.5885 Y-25.5657 F100.00
G01 X6.8067 Y-25.6611 F100.00
G01 X6.8888 Y-25.6395 F100.00
G01 X6.9525 Y-25.6301 F100.00
G01 X7.0203 Y-25.6268 F100.00
G01 X7.0881 Y-25.6301 F100.00
G01 X7.1518 Y-25.6395 F100.00
G01 X7.2339 Y-25.6611 F100.00
G01 X7.4521 Y-25.5657 F100.00
G01 X7.5981 Y-25.4596 F100.00
G01 X7.7190 Y-25.3254 F100.00
G01 X7.7716 Y-25.2366 F100.00
G01 X7.8227 Y-25.1956 F100.00
G01 X7.8427 Y-25.1861 F100.00
G01 X7.8779 Y-25.1813 F100.00
G01 X9.1901 Y-25.1813 F100.00
G01 X9.2825 Y-25.1566 F100.00
G01 X9.3654 Y-25.1087 F100.00
G01 X9.5430 Y-24.9314 F100.00
G01 X9.6151 Y-24.8986 F100.00
G01 X10.1624 Y-24.8965 F100.00
G01 X10.2348 Y-24.8879 F100.00
G01 X10.3533 Y-24.8411 F100.00
G01 X10.4544 Y-24.7644 F100.00
G01 X10.5311 Y-24.6633 F100.00
G01 X10.5779 Y-24.5448 F100.00
G01 X10.5865 Y-24.4724 F100.00
G01 X10.5865 Y-23.6476 F100.00
G01 X10.5779 Y-23.5752 F100.00
G01 X10.5311 Y-23.4567 F100.00
G01 X10.4544 Y-23.3556 F100.00
G01 X10.3533 Y-23.2789 F100.00
G01 X10.2348 Y-23.2321 F100.00
G01 X10.1624 Y-23.2235 F100.00
G01 X9.6376 Y-23.2235 F100.00
G01 X9.5653 Y-23.2321 F100.00
G01 X9.4467 Y-23.2789 F100.00
G01 X9.3456 Y-23.3556 F100.00
G01 X9.2689 Y-23.4567 F100.00
G01 X9.2221 Y-23.5753 F100.00
G01 X9.2135 Y-23.6476 F100.00
G01 X9.2134 Y-24.1816 F100.00
G01 X9.1899 Y-24.2486 F100.00
G01 X9.1750 Y-24.2709 F100.00
G01 X9.0262 Y-24.4194 F100.00
G01 X9.0078 Y-24.4307 F100.00
G01 X8.9471 Y-24.4535 F100.00
G01 X7.8644 Y-24.4529 F100.00
G01 X7.8040 Y-24.4292 F100.00
G01 X7.7864 Y-24.4171 F100.00
G01 X7.7666 Y-24.3924 F100.00
G01 X7.7190 Y-24.3102 F100.00
G01 X7.5981 Y-24.1760 F100.00
G01 X7.4521 Y-24.0699 F100.00
G01 X7.2872 Y-23.9965 F100.00
G01 X7.1106 Y-23.9589 F100.00
G01 X6.9300 Y-23.9589 F100.00
G01 X6.7534 Y-23.9965 F100.00
G01 X6.5885 Y-24.0699 F100.00
G01 X6.4425 Y-24.1760 F100.00
G01 X6.3216 Y-24.3102 F100.00
G01 X6.2314 Y-24.4666 F100.00
G01 X6.1756 Y-24.6382 F100.00
G01 X6.1567 Y-24.8178 F100.00
G01 X6.1756 Y-24.9973 F100.00
G01 X6.2314 Y-25.1690 F100.00
G01 X6.3216 Y-25.3254 F100.00
G00 Z2.0000
G00 X6.3420 Y-26.4493
G01 F60.00
G01 Z-0.0700
G01 F100.00
G01 X6.3326 Y-26.3856 F100.00
G01 X6.3293 Y-26.3212 F100.00
G01 X6.3323 Y-26.2534 F100.00
G01 X6.3428 Y-26.1815 F100.00
G01 X6.3616 Y-26.1098 F100.00
G01 X6.3092 Y-26.0575 F100.00
G01 X6.2760 Y-26.1596 F100.00
G01 X6.2594 Y-26.3178 F100.00
G01 X6.2760 Y-26.4760 F100.00
G01 X6.3092 Y-26.5781 F100.00
G01 X6.3616 Y-26.5258 F100.00
G01 X6.3420 Y-26.4493 F100.00
G00 Z2.0000
G00 X7.0914 Y-27.0051
G01 F60.00
G01 Z-0.0700
G01 F100.00
G01 X7.0203 Y-27.0089 F100.00
G01 X6.9525 Y-27.0055 F100.00
G01 X6.8840 Y-26.9953 F100.00
G01 X6.8123 Y-26.9765 F100.00
G01 X6.7590 Y-27.0298 F100.00
G01 X6.7852 Y-27.0415 F100.00
G01 X6.9408 Y-27.0746 F100.00
G01 X7.0998 Y-27.0746 F100.00
G01 X7.2554 Y-27.0415 F100.00
G01 X7.2816 Y-27.0298 F100.00
G01 X7.2283 Y-26.9765 F100.00
G01 X7.1566 Y-26.9953 F100.00
G01 X7.0914 Y-27.0051 F100.00
G00 Z2.0000
G00 X11.7292 Y-28.1985
G01 F60.00
G01 Z-0.0700
G01 F100.00
G01 X11.6391 Y-28.1930 F100.00
G01 X11.5792 Y-28.1755 F100.00
G01 X11.5182 Y-28.1429 F100.00
G01 X11.4703 Y-28.1027 F100.00
G01 X11.4186 Y-28.0330 F100.00
G01 X11.3921 Y-27.9691 F100.00
G01 X11.3805 Y-27.9077 F100.00
G01 X11.3793 Y-27.7486 F100.00
G01 X11.3136 Y-27.7486 F100.00
G01 X11.3153 Y-27.9502 F100.00
G01 X11.3543 Y-28.0615 F100.00
G01 X11.4231 Y-28.1547 F100.00
G01 X11.5163 Y-28.2235 F100.00
G01 X11.6276 Y-28.2625 F100.00
G01 X11.7292 Y-28.2642 F100.00
G01 X11.7292 Y-28.1985 F100.00
G00 Z2.0000
G00 X12.7168 Y-27.7486
G01 F60.00
G01 Z-0.0700
G01 F100.00
G01 X12.7167 Y-27.8832 F100.00
G01 X12.7112 Y-27.9387 F100.00
G01 X12.6911 Y-28.0049 F100.00
G01 X12.6611 Y-28.0596 F100.00
G01 X12.6257 Y-28.1027 F100.00
G01 X12.5978 Y-28.1281 F100.00
G01 X12.5231 Y-28.1729 F100.00
G01 X12.4569 Y-28.1930 F100.00
G01 X12.3668 Y-28.1985 F100.00
G01 X12.3668 Y-28.2642 F100.00
G01 X12.4684 Y-28.2625 F100.00
G01 X12.5797 Y-28.2235 F100.00
G01 X12.6729 Y-28.1547 F100.00
G01 X12.7417 Y-28.0615 F100.00
G01 X12.7807 Y-27.9502 F100.00
G01 X12.7824 Y-27.7486 F100.00
G01 X12.7168 Y-27.7486 F100.00
G00 Z2.0000
G00 X12.7031 Y-26.8875
G01 F60.00
G01 Z-0.0700
G01 F100.00
G01 X12.7155 Y-26.9519 F100.00
G01 X12.7167 Y-27.1110 F100.00
G01 X12.7824 Y-27.1110 F100.00
G01 X12.7807 Y-26.9094 F100.00
G01 X12.7417 Y-26.7981 F100.00
G01 X12.7265 Y-26.7775 F100.00
G01 X12.6774 Y-26.8265 F100.00
G01 X12.7031 Y-26.8875 F100.00
G00 Z2.0000
G00 X13.4023 Y-26.8610
G01 F60.00
G01 Z-0.0700
G01 F100.00
G01 X13.4349 Y-26.8000 F100.00
G01 X13.4703 Y-26.7569 F100.00
G01 X13.4982 Y-26.7315 F100.00
G01 X13.5729 Y-26.6867 F100.00
G01 X13.6391 Y-26.6666 F100.00
G01 X13.6980 Y-26.6611 F100.00
G01 X14.3980 Y-26.6611 F100.00
G01 X14.4569 Y-26.6666 F100.00
G01 X14.5231 Y-26.6867 F100.00
G01 X14.5978 Y-26.7315 F100.00
G01 X14.6463 Y-26.7800 F100.00
G01 X14.6911 Y-26.8547 F100.00
G01 X14.7099 Y-26.9143 F100.00
G01 X14.7155 Y-26.9519 F100.00
G01 X14.7167 Y-27.2340 F100.00
G01 X15.5720 Y-27.2340 F100.00
G01 X15.6307 Y-27.1270 F100.00
G01 X15.6705 Y-27.0736 F100.00
G01 X15.7123 Y-27.0275 F100.00
G01 X15.7676 Y-26.9774 F100.00
G01 X15.8222 Y-26.9373 F100.00
G01 X15.8806 Y-26.9027 F100.00
G01 X15.9372 Y-26.8759 F100.00
G01 X16.0009 Y-26.8530 F100.00
G01 X16.0670 Y-26.8362 F100.00
G01 X16.1322 Y-26.8264 F100.00
G01 X16.2067 Y-26.8227 F100.00
G01 X16.2711 Y-26.8260 F100.00
G01 X16.3396 Y-26.8362 F100.00
G01 X16.4057 Y-26.8530 F100.00
G01 X16.4694 Y-26.8759 F100.00
G01 X16.5320 Y-26.9059 F100.00
G01 X16.5900 Y-26.9411 F100.00
G01 X16.6434 Y-26.9809 F100.00
G01 X16.6919 Y-27.0251 F100.00
G01 X16.7361 Y-27.0736 F100.00
G01 X16.7797 Y-27.1326 F100.00
G01 X16.8143 Y-27.1910 F100.00
G01 X16.8411 Y-27.2476 F100.00
G01 X16.8640 Y-27.3113 F100.00
G01 X16.8808 Y-27.3774 F100.00
G01 X16.8910 Y-27.4459 F100.00
G01 X16.8943 Y-27.5137 F100.00
G01 X16.8910 Y-27.5815 F100.00
G01 X16.8808 Y-27.6500 F100.00
G01 X16.8640 Y-27.7161 F100.00
G01 X16.8430 Y-27.7750 F100.00
G01 X16.8111 Y-27.8424 F100.00
G01 X16.7396 Y-27.9494 F100.00
G01 X16.6919 Y-28.0023 F100.00
G01 X16.6434 Y-28.0465 F100.00
G01 X16.5900 Y-28.0863 F100.00
G01 X16.5260 Y-28.1247 F100.00
G01 X16.4694 Y-28.1515 F100.00
G01 X16.4071 Y-28.1739 F100.00
G01 X16.3348 Y-28.1920 F100.00
G01 X16.2711 Y-28.2014 F100.00
G01 X16.2033 Y-28.2047 F100.00
G01 X16.1355 Y-28.2014 F100.00
G01 X16.0670 Y-28.1912 F100.00
G01 X16.0009 Y-28.1744 F100.00
G01 X15.9372 Y-28.1515 F100.00
G01 X15.8746 Y-28.1215 F100.00
G01 X15.8166 Y-28.0863 F100.00
G01 X15.7632 Y-28.0465 F100.00
G01 X15.7147 Y-28.0023 F100.00
G01 X15.6705 Y-27.9538 F100.00
G01 X15.6269 Y-27.8948 F100.00
G01 X15.5923 Y-27.8364 F100.00
G01 X15.5636 Y-27.7750 F100.00
G01 X15.5411 Y-27.7110 F100.00
G01 X15.5220 Y-27.6256 F100.00
G01 X14.7168 Y-27.6256 F100.00
G01 X14.7167 Y-27.8832 F100.00
G01 X14.7031 Y-27.9721 F100.00
G01 X14.6800 Y-28.0284 F100.00
G01 X14.6463 Y-28.0796 F100.00
G01 X14.5978 Y-28.1281 F100.00
G01 X14.5466 Y-28.1618 F100.00
G01 X14.4873 Y-28.1857 F100.00
G01 X14.4014 Y-28.1985 F100.00
G01 X13.6980 Y-28.1985 F100.00
G01 X13.6343 Y-28.1921 F100.00
G01 X13.5494 Y-28.1618 F100.00
G01 X13.5182 Y-28.1429 F100.00
G01 X13.4726 Y-28.1052 F100.00
G01 X13.4349 Y-28.0596 F100.00
G01 X13.4160 Y-28.0284 F100.00
G01 X13.3940 Y-27.9755 F100.00
G01 X13.3848 Y-27.9387 F100.00
G01 X13.3793 Y-27.8798 F100.00
G01 X13.3793 Y-26.9798 F100.00
G01 X13.3857 Y-26.9161 F100.00
G01 X13.4023 Y-26.8610 F100.00
G00 Z2.0000
G00 X12.6456 Y-24.7644
G01 F60.00
G01 Z-0.0700
G01 F100.00
G01 X12.7467 Y-24.8411 F100.00
G01 X12.8652 Y-24.8879 F100.00
G01 X12.9376 Y-24.8965 F100.00
G01 X13.4624 Y-24.8965 F100.00
G01 X13.5348 Y-24.8879 F100.00
G01 X13.6533 Y-24.8411 F100.00
G01 X13.7544 Y-24.7644 F100.00
G01 X13.8311 Y-24.6633 F100.00
G01 X13.8779 Y-24.5448 F100.00
G01 X13.8851 Y-24.5104 F100.00
G01 X13.9213 Y-24.4494 F100.00
G01 X13.9682 Y-24.4215 F100.00
G01 X14.0513 Y-24.3988 F100.00
G01 X14.1342 Y-24.3509 F100.00
G01 X15.3810 Y-23.1051 F100.00
G01 X15.4407 Y-23.0782 F100.00
G01 X15.4627 Y-23.0733 F100.00
G01 X15.9967 Y-23.0732 F100.00
G01 X16.0691 Y-23.0646 F100.00
G01 X16.1876 Y-23.0178 F100.00
G01 X16.2887 Y-22.9411 F100.00
G01 X16.3654 Y-22.8400 F100.00
G01 X16.4122 Y-22.7215 F100.00
G01 X16.4226 Y-22.6544 F100.00
G01 X16.4529 Y-22.5975 F100.00
G01 X16.8158 Y-22.2364 F100.00
G01 X16.8751 Y-22.2105 F100.00
G01 X16.8981 Y-22.2065 F100.00
G01 X16.9211 Y-22.2105 F100.00
G01 X16.9777 Y-22.2346 F100.00
G01 X17.0012 Y-22.2582 F100.00
G01 X17.0258 Y-22.3160 F100.00
G01 X17.0294 Y-22.4035 F100.00
G01 X17.0951 Y-22.4035 F100.00
G01 X17.1015 Y-22.3211 F100.00
G01 X17.1318 Y-22.2362 F100.00
G01 X17.1696 Y-22.1800 F100.00
G01 X17.2340 Y-22.1217 F100.00
G01 X17.2950 Y-22.0891 F100.00
G01 X17.3549 Y-22.0716 F100.00
G01 X17.4104 Y-22.0661 F100.00
G01 X17.5700 Y-22.0661 F100.00
G01 X17.5700 Y-22.0004 F100.00
G01 X17.3592 Y-21.9999 F100.00
G01 X17.2872 Y-21.9722 F100.00
G01 X17.2611 Y-21.9440 F100.00
G01 X17.2390 Y-21.8908 F100.00
G01 X17.2355 Y-21.8691 F100.00
G01 X17.2404 Y-21.8436 F100.00
G01 X17.2704 Y-21.7802 F100.00
G01 X17.5404 Y-21.5098 F100.00
G01 X17.5627 Y-21.4949 F100.00
G01 X17.6297 Y-21.4714 F100.00
G01 X18.4032 Y-21.4713 F100.00
G01 X18.4795 Y-21.4622 F100.00
G01 X18.6045 Y-21.4129 F100.00
G01 X18.7111 Y-21.3321 F100.00
G01 X18.7919 Y-21.2255 F100.00
G01 X18.8165 Y-21.1743 F100.00
G01 X18.8601 Y-21.1303 F100.00
G01 X18.8964 Y-21.1167 F100.00
G01 X18.9583 Y-21.1163 F100.00
G01 X18.9945 Y-21.1328 F100.00
G01 X19.0381 Y-21.1759 F100.00
G01 X19.0561 Y-21.2141 F100.00
G01 X19.1369 Y-21.3207 F100.00
G01 X19.2435 Y-21.4015 F100.00
G01 X19.3685 Y-21.4508 F100.00
G01 X19.4448 Y-21.4599 F100.00
G01 X20.4736 Y-21.4599 F100.00
G01 X20.5499 Y-21.4508 F100.00
G01 X20.6749 Y-21.4015 F100.00
G01 X20.7815 Y-21.3207 F100.00
G01 X20.8623 Y-21.2141 F100.00
G01 X20.9116 Y-21.0891 F100.00
G01 X20.9207 Y-21.0128 F100.00
G01 X20.9207 Y-20.2590 F100.00
G01 X20.9116 Y-20.1827 F100.00
G01 X20.8623 Y-20.0577 F100.00
G01 X20.7658 Y-19.9345 F100.00
G01 X20.7330 Y-19.8747 F100.00
G01 X20.7317 Y-19.8404 F100.00
G01 X20.7453 Y-19.7886 F100.00
G01 X20.7560 Y-19.7675 F100.00
G01 X20.8423 Y-19.6804 F100.00
G01 X20.9200 Y-19.6490 F100.00
G01 X21.5175 Y-19.6486 F100.00
G01 X21.5878 Y-19.6736 F100.00
G01 X21.6092 Y-19.6895 F100.00
G01 X21.6217 Y-19.7093 F100.00
G01 X21.6452 Y-19.7763 F100.00
G01 X21.6417 Y-19.8015 F100.00
G01 X21.6166 Y-19.8603 F100.00
G01 X21.6004 Y-19.8783 F100.00
G01 X21.5678 Y-19.8990 F100.00
G01 X21.5031 Y-19.9227 F100.00
G01 X21.4099 Y-19.9915 F100.00
G01 X21.3411 Y-20.0847 F100.00
G01 X21.3021 Y-20.1960 F100.00
G01 X21.3004 Y-20.4226 F100.00
G01 X21.3660 Y-20.4226 F100.00
G01 X21.3661 Y-20.2630 F100.00
G01 X21.3716 Y-20.2075 F100.00
G01 X21.3917 Y-20.1413 F100.00
G01 X21.4217 Y-20.0866 F100.00
G01 X21.4800 Y-20.0222 F100.00
G01 X21.5362 Y-19.9844 F100.00
G01 X21.6211 Y-19.9541 F100.00
G01 X21.7035 Y-19.9477 F100.00
G01 X21.7035 Y-19.8415 F100.00
G01 X21.6730 Y-19.7774 F100.00
G01 X21.6681 Y-19.7519 F100.00
G01 X21.6721 Y-19.7289 F100.00
G01 X21.6997 Y-19.6670 F100.00
G01 X21.7208 Y-19.6481 F100.00
G01 X21.8532 Y-19.5759 F100.00
G01 X22.4551 Y-18.9740 F100.00
G01 X22.4684 Y-18.9510 F100.00
G01 X22.4684 Y-18.4961 F100.00
G01 X22.4516 Y-18.4597 F100.00
G01 X22.4455 Y-18.4182 F100.00
G01 X22.4455 Y-17.0932 F100.00
G01 X22.4516 Y-17.0517 F100.00
G01 X22.4684 Y-17.0153 F100.00
G01 X22.4684 Y-16.8744 F100.00
G01 X22.4227 Y-16.8361 F100.00
G01 X22.3287 Y-16.7902 F100.00
G01 X22.2703 Y-16.7817 F100.00
G01 X22.0581 Y-16.7817 F100.00
G01 X21.9997 Y-16.7902 F100.00
G01 X21.9557 Y-16.8093 F100.00
G01 X21.8939 Y-16.8137 F100.00
G01 X21.8706 Y-16.8097 F100.00
G01 X21.8287 Y-16.7902 F100.00
G01 X21.7703 Y-16.7817 F100.00
G01 X21.5581 Y-16.7817 F100.00
G01 X21.4997 Y-16.7902 F100.00
G01 X21.4557 Y-16.8093 F100.00
G01 X21.3939 Y-16.8137 F100.00
G01 X21.3706 Y-16.8097 F100.00
G01 X21.3287 Y-16.7902 F100.00
G01 X21.2703 Y-16.7817 F100.00
G01 X21.0581 Y-16.7817 F100.00
G01 X20.9997 Y-16.7902 F100.00
G01 X20.9557 Y-16.8093 F100.00
G01 X20.8939 Y-16.8137 F100.00
G01 X20.8706 Y-16.8097 F100.00
G01 X20.8287 Y-16.7902 F100.00
G01 X20.7703 Y-16.7817 F100.00
G01 X20.5581 Y-16.7817 F100.00
G01 X20.4997 Y-16.7902 F100.00
G01 X20.4557 Y-16.8093 F100.00
G01 X20.3939 Y-16.8137 F100.00
G01 X20.3706 Y-16.8097 F100.00
G01 X20.3287 Y-16.7902 F100.00
G01 X20.2703 Y-16.7817 F100.00
G01 X20.0581 Y-16.7817 F100.00
G01 X19.9997 Y-16.7902 F100.00
G01 X19.9557 Y-16.8093 F100.00
G01 X19.8939 Y-16.8137 F100.00
G01 X19.8706 Y-16.8097 F100.00
G01 X19.8287 Y-16.7902 F100.00
G01 X19.7703 Y-16.7817 F100.00
G01 X19.5581 Y-16.7817 F100.00
G01 X19.4997 Y-16.7902 F100.00
G01 X19.4557 Y-16.8093 F100.00
G01 X19.3939 Y-16.8137 F100.00
G01 X19.3706 Y-16.8097 F100.00
G01 X19.3287 Y-16.7902 F100.00
G01 X19.2703 Y-16.7817 F100.00
G01 X19.0581 Y-16.7817 F100.00
G01 X18.9997 Y-16.7902 F100.00
G01 X18.9057 Y-16.8361 F100.00
G01 X18.8321 Y-16.9097 F100.00
G01 X18.7862 Y-17.0037 F100.00
G01 X18.7777 Y-17.0621 F100.00
G01 X18.7777 Y-18.4438 F100.00
G01 X18.7741 Y-18.4656 F100.00
G01 X18.7526 Y-18.5177 F100.00
G01 X18.7392 Y-18.5367 F100.00
G01 X17.5979 Y-19.6780 F100.00
G01 X17.5500 Y-19.7607 F100.00
G01 X17.5366 Y-19.7759 F100.00
G01 X17.4925 Y-19.8096 F100.00
G01 X17.4734 Y-19.8185 F100.00
G01 X17.4429 Y-19.8231 F100.00
G01 X17.3744 Y-19.8233 F100.00
G01 X17.2981 Y-19.8324 F100.00
G01 X17.1731 Y-19.8817 F100.00
G01 X17.0665 Y-19.9625 F100.00
G01 X16.9857 Y-20.0691 F100.00
G01 X16.9364 Y-20.1941 F100.00
G01 X16.9273 Y-20.2704 F100.00
G01 X16.9277 Y-21.0341 F100.00
G01 X16.9114 Y-21.0993 F100.00
G01 X16.8997 Y-21.1211 F100.00
G01 X16.3050 Y-21.7170 F100.00
G01 X16.2871 Y-21.7299 F100.00
G01 X16.2356 Y-21.7513 F100.00
G01 X16.2093 Y-21.7554 F100.00
G01 X16.1736 Y-21.7493 F100.00
G01 X16.0691 Y-21.7088 F100.00
G01 X15.9967 Y-21.7002 F100.00
G01 X15.1719 Y-21.7002 F100.00
G01 X15.0996 Y-21.7088 F100.00
G01 X14.9810 Y-21.7556 F100.00
G01 X14.8799 Y-21.8323 F100.00
G01 X14.8032 Y-21.9334 F100.00
G01 X14.7564 Y-22.0520 F100.00
G01 X14.7478 Y-22.1243 F100.00
G01 X14.7477 Y-22.6582 F100.00
G01 X14.7222 Y-22.7297 F100.00
G01 X14.7093 Y-22.7476 F100.00
G01 X14.0105 Y-23.4464 F100.00
G01 X13.9926 Y-23.4593 F100.00
G01 X13.9394 Y-23.4813 F100.00
G01 X13.9177 Y-23.4848 F100.00
G01 X13.8959 Y-23.4813 F100.00
G01 X13.8442 Y-23.4600 F100.00
G01 X13.8160 Y-23.4365 F100.00
G01 X13.7544 Y-23.3556 F100.00
G01 X13.6533 Y-23.2789 F100.00
G01 X13.5348 Y-23.2321 F100.00
G01 X13.4624 Y-23.2235 F100.00
G01 X12.9376 Y-23.2235 F100.00
G01 X12.8653 Y-23.2321 F100.00
G01 X12.7467 Y-23.2789 F100.00
G01 X12.6456 Y-23.3556 F100.00
G01 X12.5689 Y-23.4567 F100.00
G01 X12.5221 Y-23.5753 F100.00
G01 X12.5135 Y-23.6476 F100.00
G01 X12.5135 Y-24.4724 F100.00
G01 X12.5221 Y-24.5447 F100.00
G01 X12.5689 Y-24.6633 F100.00
G01 X12.6456 Y-24.7644 F100.00
G00 Z2.0000
G00 X12.7151 Y-23.5482
G01 F60.00
G01 Z-0.0700
G01 F100.00
G01 X12.7461 Y-23.5010 F100.00
G01 X12.7910 Y-23.4561 F100.00
G01 X12.8595 Y-23.4150 F100.00
G01 X12.9176 Y-23.3969 F100.00
G01 X12.9750 Y-23.3913 F100.00
G01 X13.4250 Y-23.3913 F100.00
G01 X13.5070 Y-23.4030 F100.00
G01 X13.5618 Y-23.4251 F100.00
G01 X13.6139 Y-23.4601 F100.00
G01 X13.6673 Y-23.5190 F100.00
G01 X13.6950 Y-23.5695 F100.00
G01 X13.7070 Y-23.6030 F100.00
G01 X13.7172 Y-23.6554 F100.00
G01 X13.7187 Y-23.8642 F100.00
G01 X13.8299 Y-23.8642 F100.00
G01 X14.9481 Y-22.7459 F100.00
G01 X14.9273 Y-22.6937 F100.00
G01 X14.9167 Y-22.6371 F100.00
G01 X14.9171 Y-22.1321 F100.00
G01 X14.9273 Y-22.0797 F100.00
G01 X14.9494 Y-22.0249 F100.00
G01 X14.9804 Y-21.9777 F100.00
G01 X15.0253 Y-21.9328 F100.00
G01 X15.0679 Y-21.9043 F100.00
G01 X15.1000 Y-21.8891 F100.00
G01 X15.1487 Y-21.8743 F100.00
G01 X15.1839 Y-21.8691 F100.00
G01 X15.9889 Y-21.8695 F100.00
G01 X16.0686 Y-21.8891 F100.00
G01 X16.1253 Y-21.9194 F100.00
G01 X16.1842 Y-21.9728 F100.00
G01 X16.2241 Y-22.0351 F100.00
G01 X17.1299 Y-21.1293 F100.00
G01 X17.1019 Y-21.0503 F100.00
G01 X17.0951 Y-20.9882 F100.00
G01 X17.0951 Y-20.3064 F100.00
G01 X17.1015 Y-20.2461 F100.00
G01 X17.1181 Y-20.1910 F100.00
G01 X17.1344 Y-20.1566 F100.00
G01 X17.1655 Y-20.1100 F100.00
G01 X17.2090 Y-20.0656 F100.00
G01 X17.2396 Y-20.0430 F100.00
G01 X17.2950 Y-20.0141 F100.00
G01 X17.3501 Y-19.9975 F100.00
G01 X17.4138 Y-19.9911 F100.00
G01 X17.6930 Y-19.9911 F100.00
G01 X17.6968 Y-19.8629 F100.00
G01 X17.7146 Y-19.8119 F100.00
G01 X17.7396 Y-19.7744 F100.00
G01 X18.9684 Y-18.5447 F100.00
G01 X18.9684 Y-18.4961 F100.00
G01 X18.9516 Y-18.4597 F100.00
G01 X18.9455 Y-18.4182 F100.00
G01 X18.9455 Y-17.0932 F100.00
G01 X18.9490 Y-17.0619 F100.00
G01 X18.9630 Y-17.0245 F100.00
G01 X18.9876 Y-16.9916 F100.00
G01 X19.0205 Y-16.9670 F100.00
G01 X19.0611 Y-16.9522 F100.00
G01 X19.2566 Y-16.9506 F100.00
G01 X19.3039 Y-16.9649 F100.00
G01 X19.3408 Y-16.9916 F100.00
G01 X19.3713 Y-17.0366 F100.00
G01 X19.3829 Y-17.0932 F100.00
G01 X19.3829 Y-18.4182 F100.00
G01 X19.3768 Y-18.4597 F100.00
G01 X19.3600 Y-18.4961 F100.00
G01 X19.3591 Y-18.6451 F100.00
G01 X19.3437 Y-18.7038 F100.00
G01 X19.3251 Y-18.7373 F100.00
G01 X19.3027 Y-18.7643 F100.00
G01 X18.0846 Y-19.9823 F100.00
G01 X18.0846 Y-19.9910 F100.00
G01 X18.3917 Y-19.9923 F100.00
G01 X18.4293 Y-19.9979 F100.00
G01 X18.4826 Y-20.0141 F100.00
G01 X18.5380 Y-20.0430 F100.00
G01 X18.5892 Y-20.0844 F100.00
G01 X18.6306 Y-20.1356 F100.00
G01 X18.6595 Y-20.1910 F100.00
G01 X18.6761 Y-20.2461 F100.00
G01 X18.6825 Y-20.3064 F100.00
G01 X18.6813 Y-21.0127 F100.00
G01 X18.6757 Y-21.0503 F100.00
G01 X18.6569 Y-21.1099 F100.00
G01 X18.6269 Y-21.1646 F100.00
G01 X18.5892 Y-21.2102 F100.00
G01 X18.5436 Y-21.2479 F100.00
G01 X18.5110 Y-21.2674 F100.00
G01 X18.4561 Y-21.2899 F100.00
G01 X18.3959 Y-21.3019 F100.00
G01 X17.5095 Y-21.3035 F100.00
G01 X16.2879 Y-22.5252 F100.00
G01 X16.2531 Y-22.5527 F100.00
G01 X16.2515 Y-22.6413 F100.00
G01 X16.2319 Y-22.7210 F100.00
G01 X16.2016 Y-22.7777 F100.00
G01 X16.1482 Y-22.8366 F100.00
G01 X16.1207 Y-22.8571 F100.00
G01 X16.0748 Y-22.8817 F100.00
G01 X16.0413 Y-22.8937 F100.00
G01 X15.9889 Y-22.9039 F100.00
G01 X15.3425 Y-22.9054 F100.00
G01 X14.0364 Y-24.2104 F100.00
G01 X13.9890 Y-24.2395 F100.00
G01 X13.9335 Y-24.2545 F100.00
G01 X13.7188 Y-24.2558 F100.00
G01 X13.7176 Y-24.4604 F100.00
G01 X13.7124 Y-24.4956 F100.00
G01 X13.6976 Y-24.5443 F100.00
G01 X13.6704 Y-24.5964 F100.00
G01 X13.6327 Y-24.6427 F100.00
G01 X13.5864 Y-24.6804 F100.00
G01 X13.5343 Y-24.7076 F100.00
G01 X13.4824 Y-24.7231 F100.00
G01 X13.4284 Y-24.7287 F100.00
G01 X12.9429 Y-24.7269 F100.00
G01 X12.8865 Y-24.7150 F100.00
G01 X12.8336 Y-24.6924 F100.00
G01 X12.7697 Y-24.6450 F100.00
G01 X12.7327 Y-24.6010 F100.00
G01 X12.7151 Y-24.5718 F100.00
G01 X12.6950 Y-24.5235 F100.00
G01 X12.6863 Y-24.4890 F100.00
G01 X12.6813 Y-24.4350 F100.00
G01 X12.6813 Y-23.6816 F100.00
G01 X12.6930 Y-23.6030 F100.00
G01 X12.7151 Y-23.5482 F100.00
G00 Z2.0000
G00 X16.3972 Y-25.5985
G01 F60.00
G01 Z-0.0700
G01 F100.00
G01 X16.4435 Y-25.5522 F100.00
G01 X16.4752 Y-25.5284 F100.00
G01 X16.5092 Y-25.5083 F100.00
G01 X16.5712 Y-25.4827 F100.00
G01 X16.6114 Y-25.4728 F100.00
G01 X16.6766 Y-25.4663 F100.00
G01 X16.7622 Y-25.4758 F100.00
G01 X17.0270 Y-25.2122 F100.00
G01 X17.0744 Y-25.1831 F100.00
G01 X17.1299 Y-25.1681 F100.00
G01 X19.3972 Y-25.1668 F100.00
G01 X19.3973 Y-25.0092 F100.00
G01 X19.4028 Y-24.9537 F100.00
G01 X19.4203 Y-24.8938 F100.00
G01 X19.4492 Y-24.8384 F100.00
G01 X19.4906 Y-24.7872 F100.00
G01 X19.5418 Y-24.7458 F100.00
G01 X19.5972 Y-24.7169 F100.00
G01 X19.6814 Y-24.6958 F100.00
G01 X20.6160 Y-24.6939 F100.00
G01 X20.6815 Y-24.7007 F100.00
G01 X20.7411 Y-24.7195 F100.00
G01 X20.8156 Y-24.7641 F100.00
G01 X20.8602 Y-24.8078 F100.00
G01 X20.8954 Y-24.8594 F100.00
G01 X20.9211 Y-24.9203 F100.00
G01 X20.9328 Y-24.9780 F100.00
G01 X20.9347 Y-25.1438 F100.00
G01 X21.5072 Y-25.1438 F100.00
G01 X21.5089 Y-24.9575 F100.00
G01 X21.5201 Y-24.9003 F100.00
G01 X21.5329 Y-24.8645 F100.00
G01 X21.5629 Y-24.8098 F100.00
G01 X21.6006 Y-24.7642 F100.00
G01 X21.6518 Y-24.7228 F100.00
G01 X21.7072 Y-24.6939 F100.00
G01 X21.7623 Y-24.6773 F100.00
G01 X21.8260 Y-24.6709 F100.00
G01 X22.7294 Y-24.6709 F100.00
G01 X22.7897 Y-24.6773 F100.00
G01 X22.8511 Y-24.6965 F100.00
G01 X22.9058 Y-24.7265 F100.00
G01 X22.9514 Y-24.7642 F100.00
G01 X22.9891 Y-24.8098 F100.00
G01 X23.0191 Y-24.8645 F100.00
G01 X23.0383 Y-24.9259 F100.00
G01 X23.0447 Y-24.9862 F100.00
G01 X23.0447 Y-25.6896 F100.00
G01 X23.0319 Y-25.7789 F100.00
G01 X23.0191 Y-25.8147 F100.00
G01 X22.9928 Y-25.8638 F100.00
G01 X22.9489 Y-25.9173 F100.00
G01 X22.9058 Y-25.9527 F100.00
G01 X22.8746 Y-25.9716 F100.00
G01 X22.7897 Y-26.0019 F100.00
G01 X22.7260 Y-26.0083 F100.00
G01 X21.8260 Y-26.0083 F100.00
G01 X21.7623 Y-26.0019 F100.00
G01 X21.7072 Y-25.9853 F100.00
G01 X21.6518 Y-25.9564 F100.00
G01 X21.6006 Y-25.9150 F100.00
G01 X21.5629 Y-25.8694 F100.00
G01 X21.5329 Y-25.8147 F100.00
G01 X21.5201 Y-25.7789 F100.00
G01 X21.5089 Y-25.7217 F100.00
G01 X21.5073 Y-25.5354 F100.00
G01 X20.9348 Y-25.5354 F100.00
G01 X20.9331 Y-25.7447 F100.00
G01 X20.9211 Y-25.8049 F100.00
G01 X20.8954 Y-25.8658 F100.00
G01 X20.8437 Y-25.9355 F100.00
G01 X20.7902 Y-25.9794 F100.00
G01 X20.7117 Y-26.0166 F100.00
G01 X20.6481 Y-26.0297 F100.00
G01 X19.7160 Y-26.0313 F100.00
G01 X19.6523 Y-26.0249 F100.00
G01 X19.5972 Y-26.0083 F100.00
G01 X19.5418 Y-25.9794 F100.00
G01 X19.4906 Y-25.9380 F100.00
G01 X19.4529 Y-25.8924 F100.00
G01 X19.4229 Y-25.8377 F100.00
G01 X19.4101 Y-25.8019 F100.00
G01 X19.3989 Y-25.7447 F100.00
G01 X19.3973 Y-25.5584 F100.00
G01 X17.2335 Y-25.5584 F100.00
G01 X17.0392 Y-25.7528 F100.00
G01 X17.0487 Y-25.8350 F100.00
G01 X17.0392 Y-25.9172 F100.00
G01 X17.1830 Y-26.0611 F100.00
G01 X26.8402 Y-26.0611 F100.00
G01 X26.8885 Y-26.0437 F100.00
G01 X26.9300 Y-26.0392 F100.00
G01 X33.1489 Y-26.0392 F100.00
G01 X35.3415 Y-23.8465 F100.00
G01 X35.3848 Y-23.8140 F100.00
G01 X35.4264 Y-23.7967 F100.00
G01 X35.4800 Y-23.7892 F100.00
G01 X38.7239 Y-23.7892 F100.00
G01 X39.2532 Y-23.2608 F100.00
G01 X39.3082 Y-23.2279 F100.00
G01 X39.3642 Y-23.2149 F100.00
G01 X47.1214 Y-23.2142 F100.00
G01 X47.7592 Y-22.5764 F100.00
G01 X47.7237 Y-22.5519 F100.00
G01 X47.6851 Y-22.5093 F100.00
G01 X47.6636 Y-22.4703 F100.00
G01 X47.6508 Y-22.4292 F100.00
G01 X47.6463 Y-22.3850 F100.00
G01 X47.6473 Y-22.0635 F100.00
G01 X47.6556 Y-22.0217 F100.00
G01 X47.6706 Y-21.9849 F100.00
G01 X47.7103 Y-21.9303 F100.00
G01 X47.7452 Y-21.9020 F100.00
G01 X47.7782 Y-21.8843 F100.00
G01 X47.8469 Y-21.8671 F100.00
G01 X48.8934 Y-21.8663 F100.00
G01 X48.9533 Y-21.8756 F100.00
G01 X49.0098 Y-21.9020 F100.00
G01 X49.0447 Y-21.9303 F100.00
G01 X49.0737 Y-21.9663 F100.00
G01 X49.0983 Y-22.0183 F100.00
G01 X49.1077 Y-22.0635 F100.00
G01 X49.1079 Y-22.4031 F100.00
G01 X49.0994 Y-22.4483 F100.00
G01 X49.0813 Y-22.4911 F100.00
G01 X49.0582 Y-22.5249 F100.00
G01 X49.0299 Y-22.5532 F100.00
G01 X48.9941 Y-22.5774 F100.00
G01 X48.9533 Y-22.5944 F100.00
G01 X48.8934 Y-22.6037 F100.00
G01 X48.5733 Y-22.6037 F100.00
G01 X48.5733 Y-22.6487 F100.00
G01 X49.1995 Y-23.2749 F100.00
G01 X49.2785 Y-23.2469 F100.00
G01 X49.3406 Y-23.2401 F100.00
G01 X50.0190 Y-23.2401 F100.00
G01 X50.0827 Y-23.2465 F100.00
G01 X50.1378 Y-23.2631 F100.00
G01 X50.1722 Y-23.2794 F100.00
G01 X50.2188 Y-23.3105 F100.00
G01 X50.2632 Y-23.3540 F100.00
G01 X50.2858 Y-23.3846 F100.00
G01 X50.3147 Y-23.4400 F100.00
G01 X50.3309 Y-23.4933 F100.00
G01 X50.3365 Y-23.5309 F100.00
G01 X50.3377 Y-24.5088 F100.00
G01 X50.3309 Y-24.5743 F100.00
G01 X50.3121 Y-24.6339 F100.00
G01 X50.2858 Y-24.6830 F100.00
G01 X50.2632 Y-24.7136 F100.00
G01 X50.2188 Y-24.7571 F100.00
G01 X50.1722 Y-24.7882 F100.00
G01 X50.1378 Y-24.8045 F100.00
G01 X50.0827 Y-24.8211 F100.00
G01 X50.0224 Y-24.8275 F100.00
G01 X49.3119 Y-24.8259 F100.00
G01 X49.2517 Y-24.8139 F100.00
G01 X49.1954 Y-24.7908 F100.00
G01 X49.1442 Y-24.7571 F100.00
G01 X49.0998 Y-24.7136 F100.00
G01 X49.0772 Y-24.6830 F100.00
G01 X49.0483 Y-24.6276 F100.00
G01 X49.0321 Y-24.5743 F100.00
G01 X49.0265 Y-24.5367 F100.00
G01 X49.0253 Y-23.6545 F100.00
G01 X48.2283 Y-22.8566 F100.00
G01 X48.2065 Y-22.8250 F100.00
G01 X48.1912 Y-22.7898 F100.00
G01 X48.1826 Y-22.7491 F100.00
G01 X48.1817 Y-22.7077 F100.00
G01 X47.3385 Y-23.5508 F100.00
G01 X47.3084 Y-23.5746 F100.00
G01 X47.2805 Y-23.5895 F100.00
G01 X47.2218 Y-23.6049 F100.00
G01 X39.4611 Y-23.6058 F100.00
G01 X38.9318 Y-24.1342 F100.00
G01 X38.8830 Y-24.1645 F100.00
G01 X38.8275 Y-24.1795 F100.00
G01 X35.5611 Y-24.1808 F100.00
G01 X33.3685 Y-26.3735 F100.00
G01 X33.3415 Y-26.3959 F100.00
G01 X33.3080 Y-26.4145 F100.00
G01 X33.2458 Y-26.4301 F100.00
G01 X26.9979 Y-26.4308 F100.00
G01 X26.9496 Y-26.4482 F100.00
G01 X26.9081 Y-26.4527 F100.00
G01 X17.0861 Y-26.4520 F100.00
G01 X17.0301 Y-26.4390 F100.00
G01 X16.9803 Y-26.4103 F100.00
G01 X16.7622 Y-26.1942 F100.00
G01 X16.6766 Y-26.2037 F100.00
G01 X16.6114 Y-26.1972 F100.00
G01 X16.5698 Y-26.1868 F100.00
G01 X16.5092 Y-26.1617 F100.00
G01 X16.4752 Y-26.1416 F100.00
G01 X16.4217 Y-26.0981 F100.00
G01 X16.3931 Y-26.0666 F100.00
G01 X16.3565 Y-26.0118 F100.00
G01 X16.3282 Y-25.9452 F100.00
G01 X16.3178 Y-25.9036 F100.00
G01 X16.3113 Y-25.8350 F100.00
G01 X16.3187 Y-25.7616 F100.00
G01 X16.3381 Y-25.6970 F100.00
G01 X16.3565 Y-25.6582 F100.00
G01 X16.3972 Y-25.5985 F100.00
G00 Z2.0000
G00 X17.1705 Y-27.0736
G01 F60.00
G01 Z-0.0700
G01 F100.00
G01 X17.2171 Y-27.0227 F100.00
G01 X17.2632 Y-26.9809 F100.00
G01 X17.3166 Y-26.9411 F100.00
G01 X17.3746 Y-26.9059 F100.00
G01 X17.4372 Y-26.8759 F100.00
G01 X17.5009 Y-26.8530 F100.00
G01 X17.5718 Y-26.8354 F100.00
G01 X17.6355 Y-26.8260 F100.00
G01 X17.6999 Y-26.8227 F100.00
G01 X17.7711 Y-26.8260 F100.00
G01 X17.8396 Y-26.8362 F100.00
G01 X17.9007 Y-26.8515 F100.00
G01 X17.9694 Y-26.8759 F100.00
G01 X18.0260 Y-26.9027 F100.00
G01 X18.0844 Y-26.9373 F100.00
G01 X18.1434 Y-26.9809 F100.00
G01 X18.1919 Y-27.0251 F100.00
G01 X18.2353 Y-27.0727 F100.00
G01 X18.2797 Y-27.1326 F100.00
G01 X18.3404 Y-27.2462 F100.00
G01 X18.3659 Y-27.3179 F100.00
G01 X19.3972 Y-27.3179 F100.00
G01 X19.3973 Y-27.0092 F100.00
G01 X19.4109 Y-26.9203 F100.00
G01 X19.4340 Y-26.8640 F100.00
G01 X19.4718 Y-26.8078 F100.00
G01 X19.5162 Y-26.7643 F100.00
G01 X19.5688 Y-26.7300 F100.00
G01 X19.6505 Y-26.7007 F100.00
G01 X19.7126 Y-26.6939 F100.00
G01 X20.6160 Y-26.6939 F100.00
G01 X20.6815 Y-26.7007 F100.00
G01 X20.7632 Y-26.7300 F100.00
G01 X20.8208 Y-26.7684 F100.00
G01 X20.8602 Y-26.8078 F100.00
G01 X20.8828 Y-26.8384 F100.00
G01 X20.9200 Y-26.9169 F100.00
G01 X20.9292 Y-26.9537 F100.00
G01 X20.9347 Y-27.0126 F100.00
G01 X20.9347 Y-27.7126 F100.00
G01 X20.9283 Y-27.7763 F100.00
G01 X20.9117 Y-27.8314 F100.00
G01 X21.1414 Y-28.0611 F100.00
G01 X37.9412 Y-28.0611 F100.00
G01 X38.3359 Y-27.6664 F100.00
G01 X38.3193 Y-27.6113 F100.00
G01 X38.3129 Y-27.5510 F100.00
G01 X38.3141 Y-26.8197 F100.00
G01 X38.3197 Y-26.7821 F100.00
G01 X38.3385 Y-26.7225 F100.00
G01 X38.3685 Y-26.6678 F100.00
G01 X38.4062 Y-26.6222 F100.00
G01 X38.4518 Y-26.5845 F100.00
G01 X38.4844 Y-26.5650 F100.00
G01 X38.5393 Y-26.5425 F100.00
G01 X38.5995 Y-26.5305 F100.00
G01 X39.5316 Y-26.5289 F100.00
G01 X39.5662 Y-26.5308 F100.00
G01 X39.6239 Y-26.5425 F100.00
G01 X39.6788 Y-26.5650 F100.00
G01 X39.7114 Y-26.5845 F100.00
G01 X39.7545 Y-26.6199 F100.00
G01 X39.7799 Y-26.6478 F100.00
G01 X39.8110 Y-26.6944 F100.00
G01 X39.8273 Y-26.7288 F100.00
G01 X39.8439 Y-26.7839 F100.00
G01 X39.8503 Y-26.8442 F100.00
G01 X39.8503 Y-27.3379 F100.00
G01 X40.4657 Y-27.3379 F100.00
G01 X40.4912 Y-27.2662 F100.00
G01 X40.5205 Y-27.2050 F100.00
G01 X40.5557 Y-27.1470 F100.00
G01 X40.5955 Y-27.0936 F100.00
G01 X40.6397 Y-27.0451 F100.00
G01 X40.6882 Y-27.0009 F100.00
G01 X40.7416 Y-26.9611 F100.00
G01 X40.8056 Y-26.9227 F100.00
G01 X40.8622 Y-26.8959 F100.00
G01 X40.9310 Y-26.8715 F100.00
G01 X40.9920 Y-26.8562 F100.00
G01 X41.0605 Y-26.8460 F100.00
G01 X41.1283 Y-26.8427 F100.00
G01 X41.1961 Y-26.8460 F100.00
G01 X41.2646 Y-26.8562 F100.00
G01 X41.3307 Y-26.8730 F100.00
G01 X41.3944 Y-26.8959 F100.00
G01 X41.4510 Y-26.9227 F100.00
G01 X41.5094 Y-26.9573 F100.00
G01 X41.5684 Y-27.0009 F100.00
G01 X41.6169 Y-27.0451 F100.00
G01 X41.6603 Y-27.0927 F100.00
G01 X41.7009 Y-27.1470 F100.00
G01 X41.7361 Y-27.2050 F100.00
G01 X41.7680 Y-27.2724 F100.00
G01 X41.7890 Y-27.3313 F100.00
G01 X41.8058 Y-27.3974 F100.00
G01 X41.8160 Y-27.4659 F100.00
G01 X41.8193 Y-27.5337 F100.00
G01 X41.8160 Y-27.6015 F100.00
G01 X41.8058 Y-27.6700 F100.00
G01 X41.7890 Y-27.7361 F100.00
G01 X41.7680 Y-27.7950 F100.00
G01 X41.7361 Y-27.8624 F100.00
G01 X41.7009 Y-27.9204 F100.00
G01 X41.6611 Y-27.9738 F100.00
G01 X41.6169 Y-28.0223 F100.00
G01 X41.5693 Y-28.0657 F100.00
G01 X41.5094 Y-28.1101 F100.00
G01 X41.4510 Y-28.1447 F100.00
G01 X41.3944 Y-28.1715 F100.00
G01 X41.3307 Y-28.1944 F100.00
G01 X41.2664 Y-28.2107 F100.00
G01 X41.1961 Y-28.2214 F100.00
G01 X41.1283 Y-28.2247 F100.00
G01 X41.0605 Y-28.2214 F100.00
G01 X40.9920 Y-28.2112 F100.00
G01 X40.9259 Y-28.1944 F100.00
G01 X40.8622 Y-28.1715 F100.00
G01 X40.8056 Y-28.1447 F100.00
G01 X40.7472 Y-28.1101 F100.00
G01 X40.6882 Y-28.0665 F100.00
G01 X40.6397 Y-28.0223 F100.00
G01 X40.5955 Y-27.9738 F100.00
G01 X40.5557 Y-27.9204 F100.00
G01 X40.5205 Y-27.8624 F100.00
G01 X40.4912 Y-27.8012 F100.00
G01 X40.4657 Y-27.7295 F100.00
G01 X39.7932 Y-27.7295 F100.00
G01 X39.7364 Y-27.7918 F100.00
G01 X39.6848 Y-27.8270 F100.00
G01 X39.6239 Y-27.8527 F100.00
G01 X39.5637 Y-27.8647 F100.00
G01 X38.6898 Y-27.8663 F100.00
G01 X38.1491 Y-28.4061 F100.00
G01 X38.0941 Y-28.4390 F100.00
G01 X38.0606 Y-28.4489 F100.00
G01 X38.0257 Y-28.4526 F100.00
G01 X21.0603 Y-28.4527 F100.00
G01 X21.0220 Y-28.4489 F100.00
G01 X20.9885 Y-28.4390 F100.00
G01 X20.9349 Y-28.4073 F100.00
G01 X20.5578 Y-28.0313 F100.00
G01 X19.7126 Y-28.0313 F100.00
G01 X19.6523 Y-28.0249 F100.00
G01 X19.5909 Y-28.0057 F100.00
G01 X19.5418 Y-27.9794 F100.00
G01 X19.5112 Y-27.9568 F100.00
G01 X19.4718 Y-27.9174 F100.00
G01 X19.4492 Y-27.8868 F100.00
G01 X19.4229 Y-27.8377 F100.00
G01 X19.4109 Y-27.8049 F100.00
G01 X19.3992 Y-27.7472 F100.00
G01 X19.3973 Y-27.7095 F100.00
G01 X18.3659 Y-27.7095 F100.00
G01 X18.3411 Y-27.7798 F100.00
G01 X18.3143 Y-27.8364 F100.00
G01 X18.2797 Y-27.8948 F100.00
G01 X18.2361 Y-27.9538 F100.00
G01 X18.1919 Y-28.0023 F100.00
G01 X18.1434 Y-28.0465 F100.00
G01 X18.0900 Y-28.0863 F100.00
G01 X18.0320 Y-28.1215 F100.00
G01 X17.9694 Y-28.1515 F100.00
G01 X17.9057 Y-28.1744 F100.00
G01 X17.8396 Y-28.1912 F100.00
G01 X17.7711 Y-28.2014 F100.00
G01 X17.7033 Y-28.2047 F100.00
G01 X17.6355 Y-28.2014 F100.00
G01 X17.5670 Y-28.1912 F100.00
G01 X17.4995 Y-28.1739 F100.00
G01 X17.4358 Y-28.1508 F100.00
G01 X17.3222 Y-28.0901 F100.00
G01 X17.2632 Y-28.0465 F100.00
G01 X17.2147 Y-28.0023 F100.00
G01 X17.1705 Y-27.9538 F100.00
G01 X17.1269 Y-27.8948 F100.00
G01 X17.0662 Y-27.7812 F100.00
G01 X17.0426 Y-27.7161 F100.00
G01 X17.0258 Y-27.6500 F100.00
G01 X17.0153 Y-27.5781 F100.00
G01 X17.0123 Y-27.5137 F100.00
G01 X17.0153 Y-27.4493 F100.00
G01 X17.0258 Y-27.3774 F100.00
G01 X17.0431 Y-27.3099 F100.00
G01 X17.0655 Y-27.2476 F100.00
G01 X17.0923 Y-27.1910 F100.00
G01 X17.1269 Y-27.1326 F100.00
G01 X17.1705 Y-27.0736 F100.00
G00 Z2.0000
G00 X18.5867 Y-23.2875
G01 F60.00
G01 Z-0.0700
G01 F100.00
G01 X18.5436 Y-23.3229 F100.00
G01 X18.5124 Y-23.3418 F100.00
G01 X18.4293 Y-23.3717 F100.00
G01 X18.3672 Y-23.3785 F100.00
G01 X18.2076 Y-23.3785 F100.00
G01 X18.2076 Y-23.4442 F100.00
G01 X18.4342 Y-23.4425 F100.00
G01 X18.5455 Y-23.4035 F100.00
G01 X18.6387 Y-23.3347 F100.00
G01 X18.6891 Y-23.2665 F100.00
G01 X18.6063 Y-23.2665 F100.00
G01 X18.5867 Y-23.2875 F100.00
G00 Z2.0000
G00 X19.4842 Y-23.3671
G01 F60.00
G01 Z-0.0700
G01 F100.00
G01 X19.4205 Y-23.3607 F100.00
G01 X19.3591 Y-23.3415 F100.00
G01 X19.3044 Y-23.3115 F100.00
G01 X19.2521 Y-23.2665 F100.00
G01 X19.1673 Y-23.2665 F100.00
G01 X19.2093 Y-23.3233 F100.00
G01 X19.3025 Y-23.3921 F100.00
G01 X19.4138 Y-23.4311 F100.00
G01 X19.6404 Y-23.4328 F100.00
G01 X19.6404 Y-23.3672 F100.00
G01 X19.4842 Y-23.3671 F100.00
G00 Z2.0000
G00 X20.6571 Y-23.2761
G01 F60.00
G01 Z-0.0700
G01 F100.00
G01 X20.6140 Y-23.3115 F100.00
G01 X20.5828 Y-23.3304 F100.00
G01 X20.4997 Y-23.3603 F100.00
G01 X20.4376 Y-23.3671 F100.00
G01 X20.2780 Y-23.3671 F100.00
G01 X20.2780 Y-23.4328 F100.00
G01 X20.5046 Y-23.4311 F100.00
G01 X20.6159 Y-23.3921 F100.00
G01 X20.7091 Y-23.3233 F100.00
G01 X20.7511 Y-23.2665 F100.00
G01 X20.6663 Y-23.2665 F100.00
G01 X20.6571 Y-23.2761 F100.00
G00 Z2.0000
G00 X21.6953 Y-23.5467
G01 F60.00
G01 Z-0.0700
G01 F100.00
G01 X21.6445 Y-23.5451 F100.00
G01 X21.5843 Y-23.5331 F100.00
G01 X21.5294 Y-23.5106 F100.00
G01 X21.4968 Y-23.4911 F100.00
G01 X21.4512 Y-23.4534 F100.00
G01 X21.4098 Y-23.4022 F100.00
G01 X21.3809 Y-23.3468 F100.00
G01 X21.3604 Y-23.2665 F100.00
G01 X21.2922 Y-23.2665 F100.00
G01 X21.2939 Y-23.2984 F100.00
G01 X21.3329 Y-23.4097 F100.00
G01 X21.4017 Y-23.5029 F100.00
G01 X21.4949 Y-23.5717 F100.00
G01 X21.6062 Y-23.6107 F100.00
G01 X21.6953 Y-23.6124 F100.00
G01 X21.6953 Y-23.5467 F100.00
G00 Z2.0000
G00 X22.6704 Y-23.0718
G01 F60.00
G01 Z-0.0700
G01 F100.00
G01 X22.6703 Y-23.2314 F100.00
G01 X22.6648 Y-23.2869 F100.00
G01 X22.6473 Y-23.3468 F100.00
G01 X22.6184 Y-23.4022 F100.00
G01 X22.5745 Y-23.4557 F100.00
G01 X22.5314 Y-23.4911 F100.00
G01 X22.5002 Y-23.5100 F100.00
G01 X22.4153 Y-23.5403 F100.00
G01 X22.3329 Y-23.5467 F100.00
G01 X22.3329 Y-23.6124 F100.00
G01 X22.4220 Y-23.6107 F100.00
G01 X22.5333 Y-23.5717 F100.00
G01 X22.6265 Y-23.5029 F100.00
G01 X22.6953 Y-23.4097 F100.00
G01 X22.7343 Y-23.2984 F100.00
G01 X22.7360 Y-23.0718 F100.00
G01 X22.6704 Y-23.0718 F100.00
G00 Z2.0000
G00 X22.5793 Y-22.0551
G01 F60.00
G01 Z-0.0700
G01 F100.00
G01 X22.6147 Y-22.0982 F100.00
G01 X22.6336 Y-22.1294 F100.00
G01 X22.6635 Y-22.2125 F100.00
G01 X22.6703 Y-22.2746 F100.00
G01 X22.6703 Y-22.4342 F100.00
G01 X22.7360 Y-22.4342 F100.00
G01 X22.7343 Y-22.2076 F100.00
G01 X22.6953 Y-22.0963 F100.00
G01 X22.6265 Y-22.0031 F100.00
G01 X22.5358 Y-21.9361 F100.00
G01 X22.5358 Y-22.0181 F100.00
G01 X22.5793 Y-22.0551 F100.00
G00 Z2.0000
G00 X22.7442 Y-21.0602
G01 F60.00
G01 Z-0.0700
G01 F100.00
G01 X22.6786 Y-21.0602 F100.00
G01 X22.6773 Y-21.2443 F100.00
G01 X22.6649 Y-21.3087 F100.00
G01 X22.6418 Y-21.3650 F100.00
G01 X22.6083 Y-21.4160 F100.00
G01 X22.5827 Y-21.4441 F100.00
G01 X22.5358 Y-21.4821 F100.00
G01 X22.5358 Y-21.5621 F100.00
G01 X22.6347 Y-21.4913 F100.00
G01 X22.7035 Y-21.3981 F100.00
G01 X22.7425 Y-21.2868 F100.00
G01 X22.7442 Y-21.0602 F100.00
G00 Z2.0000
G00 X22.7442 Y-20.4226
G01 F60.00
G01 Z-0.0700
G01 F100.00
G01 X22.7442 Y-20.2964 F100.00
G01 X22.6785 Y-20.3621 F100.00
G01 X22.6785 Y-20.4226 F100.00
G01 X22.7442 Y-20.4226 F100.00
G00 Z2.0000
G00 X22.3632 Y-19.9477
G01 F60.00
G01 Z-0.0700
G01 F100.00
G01 X22.4187 Y-19.9532 F100.00
G01 X22.4684 Y-19.9670 F100.00
G01 X22.4684 Y-19.8971 F100.00
G01 X22.4302 Y-19.8837 F100.00
G01 X22.3411 Y-19.8820 F100.00
G01 X22.3411 Y-19.9477 F100.00
G01 X22.3632 Y-19.9477 F100.00
G00 Z2.0000
G00 X22.9571 Y-18.4748
G01 F60.00
G01 Z-0.0700
G01 F100.00
G01 X22.9455 Y-18.4182 F100.00
G01 X22.9482 Y-17.0651 F100.00
G01 X22.9609 Y-17.0285 F100.00
G01 X22.9803 Y-16.9995 F100.00
G01 X23.0111 Y-16.9725 F100.00
G01 X23.0443 Y-16.9567 F100.00
G01 X23.0892 Y-16.9495 F100.00
G01 X23.2673 Y-16.9522 F100.00
G01 X23.3099 Y-16.9681 F100.00
G01 X23.3494 Y-17.0009 F100.00
G01 X23.3732 Y-17.0413 F100.00
G01 X23.3829 Y-17.0898 F100.00
G01 X23.3829 Y-18.4182 F100.00
G01 X23.3768 Y-18.4597 F100.00
G01 X23.3600 Y-18.4961 F100.00
G01 X23.3600 Y-19.7272 F100.00
G01 X23.6153 Y-19.9825 F100.00
G01 X23.6943 Y-19.9545 F100.00
G01 X23.7598 Y-19.9477 F100.00
G01 X24.4382 Y-19.9477 F100.00
G01 X24.4985 Y-19.9541 F100.00
G01 X24.5536 Y-19.9707 F100.00
G01 X24.6146 Y-20.0033 F100.00
G01 X24.6577 Y-20.0387 F100.00
G01 X24.6831 Y-20.0666 F100.00
G01 X24.7279 Y-20.1413 F100.00
G01 X24.7407 Y-20.1771 F100.00
G01 X24.7510 Y-20.2279 F100.00
G01 X25.3609 Y-20.2279 F100.00
G01 X25.4420 Y-20.1600 F100.00
G01 X25.5319 Y-20.1113 F100.00
G01 X25.6298 Y-20.0814 F100.00
G01 X25.7266 Y-20.0716 F100.00
G01 X25.8268 Y-20.0808 F100.00
G01 X25.8823 Y-20.0947 F100.00
G01 X25.9730 Y-20.1327 F100.00
G01 X26.0574 Y-20.1895 F100.00
G01 X26.1247 Y-20.2567 F100.00
G01 X26.1587 Y-20.3026 F100.00
G01 X26.2037 Y-20.3869 F100.00
G01 X26.2329 Y-20.4815 F100.00
G01 X26.2412 Y-20.5380 F100.00
G01 X26.2410 Y-20.6354 F100.00
G01 X26.2223 Y-20.7308 F100.00
G01 X26.2041 Y-20.7822 F100.00
G01 X28.5637 Y-23.1417 F100.00
G01 X28.5898 Y-23.1743 F100.00
G01 X28.6115 Y-23.2202 F100.00
G01 X28.6201 Y-23.2609 F100.00
G01 X28.6210 Y-23.3137 F100.00
G01 X29.1145 Y-23.3138 F100.00
G01 X29.1467 Y-23.3237 F100.00
G01 X29.1693 Y-23.3461 F100.00
G01 X29.1798 Y-23.3825 F100.00
G01 X29.1798 Y-24.7541 F100.00
G01 X29.1738 Y-24.7820 F100.00
G01 X29.1596 Y-24.8027 F100.00
G01 X29.1389 Y-24.8169 F100.00
G01 X29.1110 Y-24.8229 F100.00
G01 X27.7394 Y-24.8229 F100.00
G01 X27.7115 Y-24.8169 F100.00
G01 X27.6887 Y-24.8006 F100.00
G01 X27.6747 Y-24.7773 F100.00
G01 X27.6706 Y-24.7541 F100.00
G01 X27.6706 Y-23.3825 F100.00
G01 X27.6742 Y-23.3608 F100.00
G01 X27.6843 Y-23.3414 F100.00
G01 X27.6981 Y-23.3275 F100.00
G01 X27.7326 Y-23.3141 F100.00
G01 X28.1818 Y-23.3137 F100.00
G01 X25.9546 Y-21.0865 F100.00
G01 X25.8967 Y-21.1404 F100.00
G01 X25.8126 Y-21.1958 F100.00
G01 X25.7225 Y-21.2328 F100.00
G01 X25.6273 Y-21.2520 F100.00
G01 X24.7510 Y-21.2549 F100.00
G01 X24.7305 Y-21.3352 F100.00
G01 X24.7016 Y-21.3906 F100.00
G01 X24.6602 Y-21.4418 F100.00
G01 X24.6090 Y-21.4832 F100.00
G01 X24.5536 Y-21.5121 F100.00
G01 X24.4937 Y-21.5296 F100.00
G01 X24.4382 Y-21.5351 F100.00
G01 X24.2931 Y-21.5351 F100.00
G01 X24.2931 Y-21.9592 F100.00
G01 X24.4612 Y-21.9612 F100.00
G01 X24.5189 Y-21.9729 F100.00
G01 X24.5798 Y-21.9986 F100.00
G01 X24.6314 Y-22.0338 F100.00
G01 X24.6751 Y-22.0784 F100.00
G01 X24.7197 Y-22.1529 F100.00
G01 X24.7385 Y-22.2125 F100.00
G01 X24.7453 Y-22.2780 F100.00
G01 X24.7453 Y-23.2280 F100.00
G01 X24.7389 Y-23.2917 F100.00
G01 X24.7223 Y-23.3468 F100.00
G01 X24.6897 Y-23.4078 F100.00
G01 X24.6543 Y-23.4509 F100.00
G01 X24.6264 Y-23.4763 F100.00
G01 X24.5798 Y-23.5074 F100.00
G01 X24.5454 Y-23.5237 F100.00
G01 X24.4587 Y-23.5451 F100.00
G01 X23.7195 Y-23.5451 F100.00
G01 X23.6593 Y-23.5331 F100.00
G01 X23.6044 Y-23.5106 F100.00
G01 X23.5718 Y-23.4911 F100.00
G01 X23.5262 Y-23.4534 F100.00
G01 X23.4885 Y-23.4078 F100.00
G01 X23.4585 Y-23.3531 F100.00
G01 X23.4397 Y-23.2935 F100.00
G01 X23.4341 Y-23.2559 F100.00
G01 X23.4329 Y-22.2780 F100.00
G01 X23.4393 Y-22.2143 F100.00
G01 X23.4585 Y-22.1529 F100.00
G01 X23.4885 Y-22.0982 F100.00
G01 X23.5468 Y-22.0338 F100.00
G01 X23.5984 Y-21.9986 F100.00
G01 X23.6593 Y-21.9729 F100.00
G01 X23.7195 Y-21.9609 F100.00
G01 X23.9015 Y-21.9593 F100.00
G01 X23.9015 Y-21.5352 F100.00
G01 X23.7277 Y-21.5335 F100.00
G01 X23.6410 Y-21.5121 F100.00
G01 X23.5856 Y-21.4832 F100.00
G01 X23.5550 Y-21.4606 F100.00
G01 X23.5115 Y-21.4162 F100.00
G01 X23.4804 Y-21.3696 F100.00
G01 X23.4539 Y-21.3057 F100.00
G01 X23.4411 Y-21.2198 F100.00
G01 X23.4411 Y-20.3621 F100.00
G01 X23.0234 Y-19.9443 F100.00
G01 X22.9932 Y-19.9035 F100.00
G01 X22.9779 Y-19.8683 F100.00
G01 X22.9684 Y-19.8083 F100.00
G01 X22.9684 Y-18.4961 F100.00
G01 X22.9571 Y-18.4748 F100.00
G00 Z2.0000
G00 X23.4552 Y-18.4701
G01 F60.00
G01 Z-0.0700
G01 F100.00
G01 X23.4455 Y-18.4182 F100.00
G01 X23.4482 Y-17.0651 F100.00
G01 X23.4609 Y-17.0285 F100.00
G01 X23.4803 Y-16.9995 F100.00
G01 X23.5111 Y-16.9725 F100.00
G01 X23.5443 Y-16.9567 F100.00
G01 X23.5892 Y-16.9495 F100.00
G01 X23.7673 Y-16.9522 F100.00
G01 X23.8099 Y-16.9681 F100.00
G01 X23.8481 Y-16.9995 F100.00
G01 X23.8713 Y-17.0366 F100.00
G01 X23.8825 Y-17.0825 F100.00
G01 X23.8829 Y-18.4182 F100.00
G01 X23.8802 Y-18.4463 F100.00
G01 X23.8695 Y-18.4787 F100.00
G01 X24.7050 Y-19.3142 F100.00
G01 X26.7050 Y-19.3142 F100.00
G01 X26.7586 Y-19.3217 F100.00
G01 X26.8109 Y-19.3454 F100.00
G01 X26.8435 Y-19.3715 F100.00
G01 X29.9804 Y-22.5096 F100.00
G01 X30.0121 Y-22.5632 F100.00
G01 X30.0220 Y-22.5967 F100.00
G01 X30.0258 Y-22.6350 F100.00
G01 X30.0245 Y-24.9575 F100.00
G01 X30.0095 Y-25.0130 F100.00
G01 X29.9792 Y-25.0618 F100.00
G01 X29.5510 Y-25.4898 F100.00
G01 X29.4974 Y-25.5215 F100.00
G01 X29.4639 Y-25.5314 F100.00
G01 X29.4256 Y-25.5352 F100.00
G01 X25.0424 Y-25.5352 F100.00
G01 X25.0407 Y-25.7215 F100.00
G01 X25.0287 Y-25.7817 F100.00
G01 X25.0056 Y-25.8380 F100.00
G01 X24.9719 Y-25.8892 F100.00
G01 X24.9234 Y-25.9377 F100.00
G01 X24.8708 Y-25.9720 F100.00
G01 X24.7891 Y-26.0013 F100.00
G01 X24.7236 Y-26.0081 F100.00
G01 X23.7915 Y-26.0065 F100.00
G01 X23.7313 Y-25.9945 F100.00
G01 X23.6750 Y-25.9714 F100.00
G01 X23.6238 Y-25.9377 F100.00
G01 X23.5794 Y-25.8942 F100.00
G01 X23.5568 Y-25.8636 F100.00
G01 X23.5279 Y-25.8082 F100.00
G01 X23.5117 Y-25.7549 F100.00
G01 X23.5061 Y-25.7173 F100.00
G01 X23.5049 Y-24.9894 F100.00
G01 X23.5104 Y-24.9305 F100.00
G01 X23.5196 Y-24.8937 F100.00
G01 X23.5416 Y-24.8408 F100.00
G01 X23.5753 Y-24.7896 F100.00
G01 X23.6007 Y-24.7617 F100.00
G01 X23.6494 Y-24.7226 F100.00
G01 X23.6985 Y-24.6963 F100.00
G01 X23.7343 Y-24.6835 F100.00
G01 X23.7890 Y-24.6726 F100.00
G01 X24.7236 Y-24.6707 F100.00
G01 X24.7873 Y-24.6771 F100.00
G01 X24.8424 Y-24.6937 F100.00
G01 X24.8978 Y-24.7226 F100.00
G01 X24.9490 Y-24.7640 F100.00
G01 X24.9867 Y-24.8096 F100.00
G01 X25.0167 Y-24.8643 F100.00
G01 X25.0295 Y-24.9001 F100.00
G01 X25.0407 Y-24.9573 F100.00
G01 X25.0423 Y-25.1436 F100.00
G01 X29.3445 Y-25.1436 F100.00
G01 X29.6342 Y-24.8539 F100.00
G01 X29.6342 Y-22.7161 F100.00
G01 X26.6239 Y-19.7058 F100.00
G01 X24.6238 Y-19.7058 F100.00
G01 X24.5856 Y-19.7020 F100.00
G01 X24.5521 Y-19.6921 F100.00
G01 X24.5179 Y-19.6746 F100.00
G01 X24.4854 Y-19.6485 F100.00
G01 X23.5150 Y-18.6771 F100.00
G01 X23.4900 Y-18.6396 F100.00
G01 X23.4759 Y-18.6039 F100.00
G01 X23.4691 Y-18.5662 F100.00
G01 X23.4684 Y-18.4961 F100.00
G01 X23.4552 Y-18.4701 F100.00
G00 Z2.0000
G00 X24.2911 Y-16.9592
G01 F60.00
G01 Z-0.0700
G01 F100.00
G01 X24.3218 Y-16.9756 F100.00
G01 X24.3494 Y-17.0009 F100.00
G01 X24.3706 Y-17.0351 F100.00
G01 X24.3808 Y-17.0685 F100.00
G01 X24.3829 Y-17.5599 F100.00
G01 X24.4454 Y-17.5599 F100.00
G01 X24.4455 Y-17.0898 F100.00
G01 X24.4516 Y-17.0517 F100.00
G01 X24.4641 Y-17.0225 F100.00
G01 X24.5007 Y-16.9800 F100.00
G01 X24.5507 Y-16.9547 F100.00
G01 X24.5858 Y-16.9495 F100.00
G01 X24.7392 Y-16.9495 F100.00
G01 X24.7911 Y-16.9592 F100.00
G01 X24.8315 Y-16.9830 F100.00
G01 X24.8605 Y-17.0162 F100.00
G01 X24.8794 Y-17.0619 F100.00
G01 X24.8829 Y-17.0932 F100.00
G01 X24.8829 Y-17.5599 F100.00
G01 X26.1160 Y-17.5600 F100.00
G01 X26.1509 Y-17.5637 F100.00
G01 X26.1844 Y-17.5736 F100.00
G01 X26.2380 Y-17.6053 F100.00
G01 X32.0489 Y-23.4151 F100.00
G01 X32.1396 Y-23.3700 F100.00
G01 X32.2094 Y-23.3453 F100.00
G01 X32.2779 Y-23.3283 F100.00
G01 X32.3511 Y-23.3174 F100.00
G01 X32.4218 Y-23.3138 F100.00
G01 X32.5025 Y-23.3178 F100.00
G01 X32.5725 Y-23.3283 F100.00
G01 X32.6474 Y-23.3473 F100.00
G01 X32.7156 Y-23.3719 F100.00
G01 X32.7779 Y-23.4013 F100.00
G01 X32.8472 Y-23.4429 F100.00
G01 X32.9015 Y-23.4832 F100.00
G01 X32.9587 Y-23.5348 F100.00
G01 X33.0103 Y-23.5920 F100.00
G01 X33.0526 Y-23.6492 F100.00
G01 X33.0890 Y-23.7097 F100.00
G01 X33.1216 Y-23.7779 F100.00
G01 X33.1462 Y-23.8461 F100.00
G01 X33.1652 Y-23.9210 F100.00
G01 X33.1761 Y-23.9942 F100.00
G01 X33.1797 Y-24.0649 F100.00
G01 X33.1761 Y-24.1424 F100.00
G01 X33.1658 Y-24.2122 F100.00
G01 X33.1462 Y-24.2905 F100.00
G01 X33.1216 Y-24.3587 F100.00
G01 X33.0890 Y-24.4269 F100.00
G01 X33.0526 Y-24.4874 F100.00
G01 X33.0063 Y-24.5495 F100.00
G01 X32.9587 Y-24.6018 F100.00
G01 X32.9015 Y-24.6534 F100.00
G01 X32.8443 Y-24.6957 F100.00
G01 X32.7779 Y-24.7353 F100.00
G01 X32.7156 Y-24.7647 F100.00
G01 X32.6410 Y-24.7913 F100.00
G01 X32.5691 Y-24.8089 F100.00
G01 X32.4993 Y-24.8192 F100.00
G01 X32.4286 Y-24.8228 F100.00
G01 X32.3511 Y-24.8192 F100.00
G01 X32.2779 Y-24.8083 F100.00
G01 X32.2030 Y-24.7893 F100.00
G01 X32.1348 Y-24.7647 F100.00
G01 X32.0666 Y-24.7321 F100.00
G01 X32.0061 Y-24.6957 F100.00
G01 X31.9489 Y-24.6534 F100.00
G01 X31.8941 Y-24.6042 F100.00
G01 X31.8398 Y-24.5443 F100.00
G01 X31.7978 Y-24.4874 F100.00
G01 X31.7582 Y-24.4210 F100.00
G01 X31.7288 Y-24.3587 F100.00
G01 X31.7022 Y-24.2841 F100.00
G01 X31.6852 Y-24.2156 F100.00
G01 X31.6747 Y-24.1456 F100.00
G01 X31.6707 Y-24.0649 F100.00
G01 X31.6743 Y-23.9942 F100.00
G01 X31.6852 Y-23.9210 F100.00
G01 X31.7022 Y-23.8525 F100.00
G01 X31.7269 Y-23.7827 F100.00
G01 X31.7720 Y-23.6920 F100.00
G01 X26.0315 Y-17.9515 F100.00
G01 X24.8830 Y-17.9515 F100.00
G01 X24.8829 Y-18.4182 F100.00
G01 X24.8794 Y-18.4495 F100.00
G01 X24.8605 Y-18.4952 F100.00
G01 X24.8315 Y-18.5284 F100.00
G01 X24.7911 Y-18.5522 F100.00
G01 X24.7392 Y-18.5619 F100.00
G01 X24.5858 Y-18.5619 F100.00
G01 X24.5507 Y-18.5567 F100.00
G01 X24.5007 Y-18.5314 F100.00
G01 X24.4641 Y-18.4889 F100.00
G01 X24.4516 Y-18.4597 F100.00
G01 X24.4455 Y-18.4216 F100.00
G01 X24.4455 Y-17.9515 F100.00
G01 X24.3830 Y-17.9515 F100.00
G01 X24.3829 Y-18.4216 F100.00
G01 X24.3768 Y-18.4597 F100.00
G01 X24.3599 Y-18.4963 F100.00
G01 X24.3408 Y-18.5198 F100.00
G01 X24.3162 Y-18.5395 F100.00
G01 X24.2841 Y-18.5547 F100.00
G01 X24.2534 Y-18.5612 F100.00
G01 X24.0718 Y-18.5608 F100.00
G01 X24.0326 Y-18.5503 F100.00
G01 X23.9969 Y-18.5284 F100.00
G01 X23.9609 Y-18.4829 F100.00
G01 X23.9507 Y-18.4567 F100.00
G01 X23.9455 Y-18.4216 F100.00
G01 X23.9482 Y-17.0651 F100.00
G01 X23.9630 Y-17.0245 F100.00
G01 X23.9852 Y-16.9940 F100.00
G01 X24.0111 Y-16.9725 F100.00
G01 X24.0477 Y-16.9556 F100.00
G01 X24.0858 Y-16.9495 F100.00
G01 X24.2392 Y-16.9495 F100.00
G01 X24.2911 Y-16.9592 F100.00
G00 Z2.0000
G00 X21.7911 Y-16.9592
G01 F60.00
G01 Z-0.0700
G01 F100.00
G01 X21.8277 Y-16.9800 F100.00
G01 X21.8568 Y-17.0106 F100.00
G01 X21.8732 Y-17.0413 F100.00
G01 X21.8825 Y-17.0825 F100.00
G01 X21.8818 Y-18.4356 F100.00
G01 X21.8713 Y-18.4748 F100.00
G01 X21.8524 Y-18.5067 F100.00
G01 X21.8277 Y-18.5314 F100.00
G01 X21.7958 Y-18.5503 F100.00
G01 X21.7426 Y-18.5619 F100.00
G01 X21.5718 Y-18.5608 F100.00
G01 X21.5245 Y-18.5465 F100.00
G01 X21.4876 Y-18.5198 F100.00
G01 X21.4609 Y-18.4829 F100.00
G01 X21.4462 Y-18.4324 F100.00
G01 X21.4466 Y-17.0758 F100.00
G01 X21.4571 Y-17.0366 F100.00
G01 X21.4790 Y-17.0009 F100.00
G01 X21.5111 Y-16.9725 F100.00
G01 X21.5443 Y-16.9567 F100.00
G01 X21.5858 Y-16.9495 F100.00
G01 X21.7392 Y-16.9495 F100.00
G01 X21.7911 Y-16.9592 F100.00
G00 Z2.0000
G00 X21.2911 Y-16.9592
G01 F60.00
G01 Z-0.0700
G01 F100.00
G01 X21.3277 Y-16.9800 F100.00
G01 X21.3568 Y-17.0106 F100.00
G01 X21.3732 Y-17.0413 F100.00
G01 X21.3825 Y-17.0825 F100.00
G01 X21.3818 Y-18.4356 F100.00
G01 X21.3713 Y-18.4748 F100.00
G01 X21.3524 Y-18.5067 F100.00
G01 X21.3277 Y-18.5314 F100.00
G01 X21.2958 Y-18.5503 F100.00
G01 X21.2426 Y-18.5619 F100.00
G01 X21.0718 Y-18.5608 F100.00
G01 X21.0245 Y-18.5465 F100.00
G01 X20.9876 Y-18.5198 F100.00
G01 X20.9609 Y-18.4829 F100.00
G01 X20.9462 Y-18.4324 F100.00
G01 X20.9466 Y-17.0758 F100.00
G01 X20.9571 Y-17.0366 F100.00
G01 X20.9790 Y-17.0009 F100.00
G01 X21.0111 Y-16.9725 F100.00
G01 X21.0443 Y-16.9567 F100.00
G01 X21.0858 Y-16.9495 F100.00
G01 X21.2392 Y-16.9495 F100.00
G01 X21.2911 Y-16.9592 F100.00
G00 Z2.0000
G00 X20.7958 Y-16.9611
G01 F60.00
G01 Z-0.0700
G01 F100.00
G01 X20.8315 Y-16.9830 F100.00
G01 X20.8568 Y-17.0106 F100.00
G01 X20.8732 Y-17.0413 F100.00
G01 X20.8825 Y-17.0825 F100.00
G01 X20.8818 Y-18.4356 F100.00
G01 X20.8713 Y-18.4748 F100.00
G01 X20.8524 Y-18.5067 F100.00
G01 X20.8277 Y-18.5314 F100.00
G01 X20.7958 Y-18.5503 F100.00
G01 X20.7426 Y-18.5619 F100.00
G01 X20.5718 Y-18.5608 F100.00
G01 X20.5245 Y-18.5465 F100.00
G01 X20.4876 Y-18.5198 F100.00
G01 X20.4609 Y-18.4829 F100.00
G01 X20.4462 Y-18.4324 F100.00
G01 X20.4466 Y-17.0758 F100.00
G01 X20.4571 Y-17.0366 F100.00
G01 X20.4790 Y-17.0009 F100.00
G01 X20.5111 Y-16.9725 F100.00
G01 X20.5477 Y-16.9556 F100.00
G01 X20.5858 Y-16.9495 F100.00
G01 X20.7392 Y-16.9495 F100.00
G01 X20.7958 Y-16.9611 F100.00
G00 Z2.0000
G00 X20.2958 Y-16.9611
G01 F60.00
G01 Z-0.0700
G01 F100.00
G01 X20.3315 Y-16.9830 F100.00
G01 X20.3568 Y-17.0106 F100.00
G01 X20.3732 Y-17.0413 F100.00
G01 X20.3825 Y-17.0825 F100.00
G01 X20.3818 Y-18.4356 F100.00
G01 X20.3713 Y-18.4748 F100.00
G01 X20.3524 Y-18.5067 F100.00
G01 X20.3277 Y-18.5314 F100.00
G01 X20.2958 Y-18.5503 F100.00
G01 X20.2426 Y-18.5619 F100.00
G01 X20.0718 Y-18.5608 F100.00
G01 X20.0245 Y-18.5465 F100.00
G01 X19.9876 Y-18.5198 F100.00
G01 X19.9609 Y-18.4829 F100.00
G01 X19.9462 Y-18.4324 F100.00
G01 X19.9466 Y-17.0758 F100.00
G01 X19.9571 Y-17.0366 F100.00
G01 X19.9790 Y-17.0009 F100.00
G01 X20.0111 Y-16.9725 F100.00
G01 X20.0477 Y-16.9556 F100.00
G01 X20.0858 Y-16.9495 F100.00
G01 X20.2392 Y-16.9495 F100.00
G01 X20.2958 Y-16.9611 F100.00
G00 Z2.0000
G00 X19.7911 Y-16.9592
G01 F60.00
G01 Z-0.0700
G01 F100.00
G01 X19.8277 Y-16.9800 F100.00
G01 X19.8568 Y-17.0106 F100.00
G01 X19.8732 Y-17.0413 F100.00
G01 X19.8825 Y-17.0825 F100.00
G01 X19.8818 Y-18.4356 F100.00
G01 X19.8713 Y-18.4748 F100.00
G01 X19.8524 Y-18.5067 F100.00
G01 X19.8277 Y-18.5314 F100.00
G01 X19.7958 Y-18.5503 F100.00
G01 X19.7426 Y-18.5619 F100.00
G01 X19.5718 Y-18.5608 F100.00
G01 X19.5245 Y-18.5465 F100.00
G01 X19.4876 Y-18.5198 F100.00
G01 X19.4609 Y-18.4829 F100.00
G01 X19.4462 Y-18.4324 F100.00
G01 X19.4466 Y-17.0758 F100.00
G01 X19.4571 Y-17.0366 F100.00
G01 X19.4790 Y-17.0009 F100.00
G01 X19.5111 Y-16.9725 F100.00
G01 X19.5443 Y-16.9567 F100.00
