(G-code generated by FlatCAM Evo vUnstable - Version Date: 2023/6/31)

(Name: solderingStationPCB-B_Cu.gbr_iso_combined_cnc)
(Type: G-code from Geometry)
(Units: MM)

(Created on Wednesday, 01 May 2024 at 00:41)

(This preprocessor is used with a motion controller loaded with GRBL firmware.)
(It is configured to be compatible with almost any version of GRBL firmware. No M6 command.)

(TOOL DIAMETER: 0.1375 mm)
(Feedrate_XY: 100.0 mm/min)
(Feedrate_Z: 60.0 mm/min)
(Feedrate rapids 1500.0 mm/min)

(Z_Cut: -0.07 mm)
(Z_Move: 2.0 mm)
(Z Start: None mm)
(Z End: 15.0 mm)
(X,Y End: None mm)
(Steps per circle: 16)
(Steps per circle: 16)
(Preprocessor Geometry: GRBL_11_no_M6)

(X range:  -74.2903 ...    0.4149  mm)
(Y range:  -29.2961 ...    0.1015  mm)

(Spindle Speed: 10000.0 RPM)
G21
G90
G17
G94


G01 F100.00
G00 Z2.0000

M03 S10000.0
G01 F100.00
G00 X-3.8001 Y-5.2950
G01 F60.00
G01 Z-0.0700
G01 F100.00
G01 X-3.7146 Y-5.3463 F100.00
G01 X-3.6289 Y-5.4094 F100.00
G01 X-3.5498 Y-5.4806 F100.00
G01 X-3.4768 Y-5.5607 F100.00
G01 X-3.4144 Y-5.6446 F100.00
G01 X-3.3562 Y-5.7417 F100.00
G01 X-3.3136 Y-5.8318 F100.00
G01 X-3.2774 Y-5.9319 F100.00
G01 X-3.2505 Y-6.0383 F100.00
G01 X-3.2327 Y-6.1852 F100.00
G01 X-3.1640 Y-6.1852 F100.00
G01 X-3.1640 Y-6.1595 F100.00
G01 X-3.1923 Y-5.9806 F100.00
G01 X-3.2482 Y-5.8084 F100.00
G01 X-3.3304 Y-5.6470 F100.00
G01 X-3.4369 Y-5.5005 F100.00
G01 X-3.5649 Y-5.3725 F100.00
G01 X-3.7114 Y-5.2660 F100.00
G01 X-3.8728 Y-5.1838 F100.00
G01 X-3.9956 Y-5.1439 F100.00
G01 X-3.9956 Y-5.2133 F100.00
G01 X-3.8962 Y-5.2492 F100.00
G01 X-3.8001 Y-5.2950 F100.00
G00 Z2.0000
G00 X-5.3783 Y-6.0383
G01 F60.00
G01 Z-0.0700
G01 F100.00
G01 X-5.3514 Y-5.9319 F100.00
G01 X-5.3178 Y-5.8380 F100.00
G01 X-5.2726 Y-5.7417 F100.00
G01 X-5.2181 Y-5.6502 F100.00
G01 X-5.1520 Y-5.5607 F100.00
G01 X-5.0790 Y-5.4806 F100.00
G01 X-5.0037 Y-5.4124 F100.00
G01 X-4.9198 Y-5.3500 F100.00
G01 X-4.8227 Y-5.2918 F100.00
G01 X-4.7326 Y-5.2492 F100.00
G01 X-4.6332 Y-5.2133 F100.00
G01 X-4.6332 Y-5.1439 F100.00
G01 X-4.7560 Y-5.1838 F100.00
G01 X-4.9174 Y-5.2660 F100.00
G01 X-5.0639 Y-5.3725 F100.00
G01 X-5.1919 Y-5.5005 F100.00
G01 X-5.2984 Y-5.6470 F100.00
G01 X-5.3806 Y-5.8084 F100.00
G01 X-5.4365 Y-5.9806 F100.00
G01 X-5.4648 Y-6.1595 F100.00
G01 X-5.4648 Y-6.1852 F100.00
G01 X-5.3961 Y-6.1852 F100.00
G01 X-5.3783 Y-6.0383 F100.00
G00 Z2.0000
G00 X-4.9174 Y-7.7420
G01 F60.00
G01 Z-0.0700
G01 F100.00
G01 X-4.7560 Y-7.8242 F100.00
G01 X-4.6332 Y-7.8641 F100.00
G01 X-4.6332 Y-7.7947 F100.00
G01 X-4.7326 Y-7.7588 F100.00
G01 X-4.8227 Y-7.7162 F100.00
G01 X-4.9198 Y-7.6580 F100.00
G01 X-5.0037 Y-7.5956 F100.00
G01 X-5.0790 Y-7.5274 F100.00
G01 X-5.1520 Y-7.4473 F100.00
G01 X-5.2144 Y-7.3634 F100.00
G01 X-5.2694 Y-7.2723 F100.00
G01 X-5.3178 Y-7.1700 F100.00
G01 X-5.3525 Y-7.0727 F100.00
G01 X-5.3776 Y-6.9729 F100.00
G01 X-5.3961 Y-6.8228 F100.00
G01 X-5.4648 Y-6.8228 F100.00
G01 X-5.4648 Y-6.8486 F100.00
G01 X-5.4365 Y-7.0274 F100.00
G01 X-5.3806 Y-7.1996 F100.00
G01 X-5.2984 Y-7.3610 F100.00
G01 X-5.1919 Y-7.5075 F100.00
G01 X-5.0639 Y-7.6355 F100.00
G01 X-4.9174 Y-7.7420 F100.00
G00 Z2.0000
G00 X-3.4369 Y-7.5075
G01 F60.00
G01 Z-0.0700
G01 F100.00
G01 X-3.3304 Y-7.3610 F100.00
G01 X-3.2482 Y-7.1996 F100.00
G01 X-3.1923 Y-7.0274 F100.00
G01 X-3.1640 Y-6.8485 F100.00
G01 X-3.1640 Y-6.8228 F100.00
G01 X-3.2327 Y-6.8228 F100.00
G01 X-3.2512 Y-6.9729 F100.00
G01 X-3.2763 Y-7.0727 F100.00
G01 X-3.3110 Y-7.1700 F100.00
G01 X-3.3594 Y-7.2723 F100.00
G01 X-3.4144 Y-7.3634 F100.00
G01 X-3.4768 Y-7.4473 F100.00
G01 X-3.5498 Y-7.5274 F100.00
G01 X-3.6251 Y-7.5956 F100.00
G01 X-3.7090 Y-7.6580 F100.00
G01 X-3.8061 Y-7.7162 F100.00
G01 X-3.8962 Y-7.7588 F100.00
G01 X-3.9956 Y-7.7947 F100.00
G01 X-3.9956 Y-7.8641 F100.00
G01 X-3.8728 Y-7.8242 F100.00
G01 X-3.7114 Y-7.7420 F100.00
G01 X-3.5649 Y-7.6355 F100.00
G01 X-3.4369 Y-7.5075 F100.00
G00 Z2.0000
G00 X-2.6433 Y-11.4652
G01 F60.00
G01 Z-0.0700
G01 F100.00
G01 X-2.6371 Y-11.4427 F100.00
G01 X-2.6214 Y-11.4213 F100.00
G01 X-2.6028 Y-11.4092 F100.00
G01 X-2.5784 Y-11.4033 F100.00
G01 X-1.4331 Y-11.4032 F100.00
G01 X-1.4331 Y-11.3375 F100.00
G01 X-2.5881 Y-11.3375 F100.00
G01 X-2.6274 Y-11.3454 F100.00
G01 X-2.6718 Y-11.3751 F100.00
G01 X-2.7015 Y-11.4195 F100.00
G01 X-2.7093 Y-11.4588 F100.00
G01 X-2.7093 Y-13.1852 F100.00
G01 X-2.6436 Y-13.1852 F100.00
G01 X-2.6433 Y-11.4652 F100.00
G00 Z2.0000
G00 X-2.6274 Y-15.6626
G01 F60.00
G01 Z-0.0700
G01 F100.00
G01 X-2.5881 Y-15.6704 F100.00
G01 X-1.4331 Y-15.6704 F100.00
G01 X-1.4331 Y-15.6047 F100.00
G01 X-2.5749 Y-15.6047 F100.00
G01 X-2.6042 Y-15.5982 F100.00
G01 X-2.6300 Y-15.5771 F100.00
G01 X-2.6401 Y-15.5577 F100.00
G01 X-2.6436 Y-15.5360 F100.00
G01 X-2.6436 Y-13.8227 F100.00
G01 X-2.7093 Y-13.8227 F100.00
G01 X-2.7093 Y-15.5492 F100.00
G01 X-2.7015 Y-15.5885 F100.00
G01 X-2.6718 Y-15.6329 F100.00
G01 X-2.6274 Y-15.6626 F100.00
G00 Z2.0000
G00 X-6.3001 Y-19.7950
G01 F60.00
G01 Z-0.0700
G01 F100.00
G01 X-6.2090 Y-19.8500 F100.00
G01 X-6.1251 Y-19.9124 F100.00
G01 X-6.0474 Y-19.9830 F100.00
G01 X-5.9781 Y-20.0593 F100.00
G01 X-5.9144 Y-20.1446 F100.00
G01 X-5.8594 Y-20.2357 F100.00
G01 X-5.8110 Y-20.3380 F100.00
G01 X-5.7763 Y-20.4353 F100.00
G01 X-5.7512 Y-20.5351 F100.00
G01 X-5.7346 Y-20.6470 F100.00
G01 X-5.7297 Y-20.7500 F100.00
G01 X-5.7297 Y-21.2580 F100.00
G01 X-5.7346 Y-21.3610 F100.00
G01 X-5.7512 Y-21.4729 F100.00
G01 X-5.7763 Y-21.5727 F100.00
G01 X-5.8110 Y-21.6700 F100.00
G01 X-5.8594 Y-21.7723 F100.00
G01 X-5.9107 Y-21.8578 F100.00
G01 X-5.9738 Y-21.9435 F100.00
G01 X-6.0498 Y-22.0274 F100.00
G01 X-6.1251 Y-22.0956 F100.00
G01 X-6.2090 Y-22.1580 F100.00
G01 X-6.3061 Y-22.2162 F100.00
G01 X-6.3962 Y-22.2588 F100.00
G01 X-6.4956 Y-22.2947 F100.00
G01 X-6.4956 Y-22.3641 F100.00
G01 X-6.3728 Y-22.3242 F100.00
G01 X-6.2114 Y-22.2419 F100.00
G01 X-6.0649 Y-22.1355 F100.00
G01 X-5.9369 Y-22.0075 F100.00
G01 X-5.8304 Y-21.8610 F100.00
G01 X-5.7291 Y-21.6546 F100.00
G01 X-5.6774 Y-21.6084 F100.00
G01 X-5.6450 Y-21.5960 F100.00
G01 X-5.5805 Y-21.5999 F100.00
G01 X-5.5618 Y-21.6052 F100.00
G01 X-5.5411 Y-21.6195 F100.00
G01 X-5.5064 Y-21.6598 F100.00
G01 X-5.4944 Y-21.6800 F100.00
G01 X-5.4752 Y-21.7388 F100.00
G01 X-5.3857 Y-21.9145 F100.00
G01 X-5.2698 Y-22.0740 F100.00
G01 X-5.1304 Y-22.2134 F100.00
G01 X-4.9709 Y-22.3293 F100.00
G01 X-4.7952 Y-22.4188 F100.00
G01 X-4.6077 Y-22.4797 F100.00
G01 X-4.4130 Y-22.5105 F100.00
G01 X-4.2158 Y-22.5105 F100.00
G01 X-4.0211 Y-22.4797 F100.00
G01 X-3.8336 Y-22.4188 F100.00
G01 X-3.6579 Y-22.3293 F100.00
G01 X-3.4984 Y-22.2134 F100.00
G01 X-3.3590 Y-22.0740 F100.00
G01 X-3.2431 Y-21.9145 F100.00
G01 X-3.1536 Y-21.7388 F100.00
G01 X-3.0927 Y-21.5513 F100.00
G01 X-3.0619 Y-21.3566 F100.00
G01 X-3.0619 Y-20.6514 F100.00
G01 X-3.0927 Y-20.4567 F100.00
G01 X-3.1536 Y-20.2692 F100.00
G01 X-3.2431 Y-20.0935 F100.00
G01 X-3.3590 Y-19.9340 F100.00
G01 X-3.4984 Y-19.7946 F100.00
G01 X-3.6579 Y-19.6787 F100.00
G01 X-3.8336 Y-19.5892 F100.00
G01 X-4.0211 Y-19.5283 F100.00
G01 X-4.2158 Y-19.4974 F100.00
G01 X-4.4130 Y-19.4974 F100.00
G01 X-4.6077 Y-19.5283 F100.00
G01 X-4.7952 Y-19.5892 F100.00
G01 X-4.9709 Y-19.6787 F100.00
G01 X-5.1304 Y-19.7946 F100.00
G01 X-5.2698 Y-19.9340 F100.00
G01 X-5.3857 Y-20.0935 F100.00
G01 X-5.4752 Y-20.2692 F100.00
G01 X-5.5070 Y-20.3534 F100.00
G01 X-5.5623 Y-20.4019 F100.00
G01 X-5.5988 Y-20.4124 F100.00
G01 X-5.6619 Y-20.4069 F100.00
G01 X-5.6808 Y-20.3995 F100.00
G01 X-5.6987 Y-20.3846 F100.00
G01 X-5.7390 Y-20.3343 F100.00
G01 X-5.7482 Y-20.3084 F100.00
G01 X-5.8304 Y-20.1470 F100.00
G01 X-5.9369 Y-20.0005 F100.00
G01 X-6.0649 Y-19.8725 F100.00
G01 X-6.2114 Y-19.7660 F100.00
G01 X-6.3728 Y-19.6838 F100.00
G01 X-6.4956 Y-19.6439 F100.00
G01 X-6.4956 Y-19.7132 F100.00
G01 X-6.3962 Y-19.7492 F100.00
G01 X-6.3001 Y-19.7950 F100.00
G00 Z2.0000
G00 X-5.3776 Y-21.4729
G01 F60.00
G01 Z-0.0700
G01 F100.00
G01 X-5.3938 Y-21.3652 F100.00
G01 X-5.3991 Y-21.2614 F100.00
G01 X-5.3991 Y-20.7500 F100.00
G01 X-5.3935 Y-20.6403 F100.00
G01 X-5.3783 Y-20.5383 F100.00
G01 X-5.3525 Y-20.4353 F100.00
G01 X-5.3178 Y-20.3380 F100.00
G01 X-5.2726 Y-20.2417 F100.00
G01 X-5.2144 Y-20.1446 F100.00
G01 X-5.1520 Y-20.0607 F100.00
G01 X-5.0814 Y-19.9830 F100.00
G01 X-5.0037 Y-19.9124 F100.00
G01 X-4.9198 Y-19.8500 F100.00
G01 X-4.8287 Y-19.7950 F100.00
G01 X-4.7326 Y-19.7492 F100.00
G01 X-4.6291 Y-19.7119 F100.00
G01 X-4.5261 Y-19.6861 F100.00
G01 X-4.4216 Y-19.6706 F100.00
G01 X-4.3144 Y-19.6652 F100.00
G01 X-4.2072 Y-19.6706 F100.00
G01 X-4.1027 Y-19.6861 F100.00
G01 X-3.9997 Y-19.7119 F100.00
G01 X-3.9024 Y-19.7466 F100.00
G01 X-3.8061 Y-19.7918 F100.00
G01 X-3.7146 Y-19.8463 F100.00
G01 X-3.6251 Y-19.9124 F100.00
G01 X-3.5474 Y-19.9830 F100.00
G01 X-3.4768 Y-20.0607 F100.00
G01 X-3.4144 Y-20.1446 F100.00
G01 X-3.3594 Y-20.2357 F100.00
G01 X-3.3110 Y-20.3380 F100.00
G01 X-3.2763 Y-20.4353 F100.00
G01 X-3.2512 Y-20.5351 F100.00
G01 X-3.2353 Y-20.6403 F100.00
G01 X-3.2297 Y-20.7500 F100.00
G01 X-3.2297 Y-21.2580 F100.00
G01 X-3.2353 Y-21.3677 F100.00
G01 X-3.2505 Y-21.4697 F100.00
G01 X-3.2763 Y-21.5727 F100.00
G01 X-3.3136 Y-21.6762 F100.00
G01 X-3.3594 Y-21.7723 F100.00
G01 X-3.4107 Y-21.8578 F100.00
G01 X-3.4738 Y-21.9435 F100.00
G01 X-3.5450 Y-22.0226 F100.00
G01 X-3.6251 Y-22.0956 F100.00
G01 X-3.7090 Y-22.1580 F100.00
G01 X-3.8001 Y-22.2130 F100.00
G01 X-3.9024 Y-22.2614 F100.00
G01 X-3.9997 Y-22.2961 F100.00
G01 X-4.0995 Y-22.3212 F100.00
G01 X-4.2072 Y-22.3374 F100.00
G01 X-4.3144 Y-22.3427 F100.00
G01 X-4.4241 Y-22.3371 F100.00
G01 X-4.5261 Y-22.3219 F100.00
G01 X-4.6260 Y-22.2969 F100.00
G01 X-4.7264 Y-22.2614 F100.00
G01 X-4.8287 Y-22.2130 F100.00
G01 X-4.9198 Y-22.1580 F100.00
G01 X-5.0037 Y-22.0956 F100.00
G01 X-5.0790 Y-22.0274 F100.00
G01 X-5.1520 Y-21.9473 F100.00
G01 X-5.2181 Y-21.8578 F100.00
G01 X-5.2726 Y-21.7663 F100.00
G01 X-5.3152 Y-21.6762 F100.00
G01 X-5.3514 Y-21.5761 F100.00
G01 X-5.3776 Y-21.4729 F100.00
G00 Z2.0000
G00 X-8.1347 Y-21.6809
G01 F60.00
G01 Z-0.0700
G01 F100.00
G01 X-8.1150 Y-21.6468 F100.00
G01 X-8.0545 Y-21.6001 F100.00
G01 X-8.0300 Y-21.5956 F100.00
G01 X-7.9732 Y-21.5999 F100.00
G01 X-7.9424 Y-21.6121 F100.00
G01 X-7.8923 Y-21.6691 F100.00
G01 X-7.7984 Y-21.8610 F100.00
G01 X-7.6919 Y-22.0075 F100.00
G01 X-7.5639 Y-22.1355 F100.00
G01 X-7.4174 Y-22.2419 F100.00
G01 X-7.2560 Y-22.3242 F100.00
G01 X-7.1332 Y-22.3641 F100.00
G01 X-7.1332 Y-22.2947 F100.00
G01 X-7.2326 Y-22.2588 F100.00
G01 X-7.3287 Y-22.2130 F100.00
G01 X-7.4142 Y-22.1617 F100.00
G01 X-7.4999 Y-22.0986 F100.00
G01 X-7.5838 Y-22.0226 F100.00
G01 X-7.6520 Y-21.9473 F100.00
G01 X-7.7144 Y-21.8634 F100.00
G01 X-7.7726 Y-21.7663 F100.00
G01 X-7.8178 Y-21.6700 F100.00
G01 X-7.8525 Y-21.5727 F100.00
G01 X-7.8783 Y-21.4697 F100.00
G01 X-7.8935 Y-21.3677 F100.00
G01 X-7.8991 Y-21.2580 F100.00
G01 X-7.8991 Y-20.7500 F100.00
G01 X-7.8938 Y-20.6428 F100.00
G01 X-7.8783 Y-20.5383 F100.00
G01 X-7.8525 Y-20.4353 F100.00
G01 X-7.8178 Y-20.3380 F100.00
G01 X-7.7726 Y-20.2417 F100.00
G01 X-7.7181 Y-20.1502 F100.00
G01 X-7.6550 Y-20.0645 F100.00
G01 X-7.5790 Y-19.9806 F100.00
G01 X-7.5037 Y-19.9124 F100.00
G01 X-7.4142 Y-19.8463 F100.00
G01 X-7.3227 Y-19.7918 F100.00
G01 X-7.2326 Y-19.7492 F100.00
G01 X-7.1332 Y-19.7132 F100.00
G01 X-7.1332 Y-19.6439 F100.00
G01 X-7.2560 Y-19.6838 F100.00
G01 X-7.4174 Y-19.7660 F100.00
G01 X-7.5639 Y-19.8725 F100.00
G01 X-7.6919 Y-20.0005 F100.00
G01 X-7.7984 Y-20.1470 F100.00
G01 X-7.8997 Y-20.3534 F100.00
G01 X-7.9502 Y-20.3987 F100.00
G01 X-7.9838 Y-20.4120 F100.00
G01 X-8.0483 Y-20.4081 F100.00
G01 X-8.0670 Y-20.4027 F100.00
G01 X-8.0877 Y-20.3885 F100.00
G01 X-8.1224 Y-20.3482 F100.00
G01 X-8.1344 Y-20.3280 F100.00
G01 X-8.1536 Y-20.2692 F100.00
G01 X-8.2431 Y-20.0935 F100.00
G01 X-8.3590 Y-19.9340 F100.00
G01 X-8.4984 Y-19.7946 F100.00
G01 X-8.6579 Y-19.6787 F100.00
G01 X-8.8336 Y-19.5892 F100.00
G01 X-9.0211 Y-19.5283 F100.00
G01 X-9.2158 Y-19.4974 F100.00
G01 X-9.4130 Y-19.4974 F100.00
G01 X-9.6077 Y-19.5283 F100.00
G01 X-9.7952 Y-19.5892 F100.00
G01 X-9.9709 Y-19.6787 F100.00
G01 X-10.1304 Y-19.7946 F100.00
G01 X-10.2698 Y-19.9340 F100.00
G01 X-10.3857 Y-20.0935 F100.00
G01 X-10.4752 Y-20.2692 F100.00
G01 X-10.5361 Y-20.4567 F100.00
G01 X-10.5669 Y-20.6514 F100.00
G01 X-10.5669 Y-21.3566 F100.00
G01 X-10.5361 Y-21.5513 F100.00
G01 X-10.4752 Y-21.7388 F100.00
G01 X-10.3857 Y-21.9145 F100.00
G01 X-10.2698 Y-22.0740 F100.00
G01 X-10.1304 Y-22.2134 F100.00
G01 X-9.9709 Y-22.3293 F100.00
G01 X-9.7952 Y-22.4188 F100.00
G01 X-9.6077 Y-22.4797 F100.00
G01 X-9.4130 Y-22.5105 F100.00
G01 X-9.2158 Y-22.5105 F100.00
G01 X-9.0211 Y-22.4797 F100.00
G01 X-8.8336 Y-22.4188 F100.00
G01 X-8.6579 Y-22.3293 F100.00
G01 X-8.4984 Y-22.2134 F100.00
G01 X-8.3590 Y-22.0740 F100.00
G01 X-8.2431 Y-21.9145 F100.00
G01 X-8.1536 Y-21.7388 F100.00
G01 X-8.1347 Y-21.6809 F100.00
G00 Z2.0000
G00 X-10.3776 Y-21.4729
G01 F60.00
G01 Z-0.0700
G01 F100.00
G01 X-10.3938 Y-21.3652 F100.00
G01 X-10.3991 Y-21.2614 F100.00
G01 X-10.3991 Y-20.7500 F100.00
G01 X-10.3935 Y-20.6403 F100.00
G01 X-10.3783 Y-20.5383 F100.00
G01 X-10.3525 Y-20.4353 F100.00
G01 X-10.3178 Y-20.3380 F100.00
G01 X-10.2726 Y-20.2417 F100.00
G01 X-10.2144 Y-20.1446 F100.00
G01 X-10.1520 Y-20.0607 F100.00
G01 X-10.0814 Y-19.9830 F100.00
G01 X-10.0037 Y-19.9124 F100.00
G01 X-9.9198 Y-19.8500 F100.00
G01 X-9.8287 Y-19.7950 F100.00
G01 X-9.7326 Y-19.7492 F100.00
G01 X-9.6291 Y-19.7119 F100.00
G01 X-9.5261 Y-19.6861 F100.00
G01 X-9.4216 Y-19.6706 F100.00
G01 X-9.3144 Y-19.6652 F100.00
G01 X-9.2072 Y-19.6706 F100.00
G01 X-9.1027 Y-19.6861 F100.00
G01 X-8.9997 Y-19.7119 F100.00
G01 X-8.9024 Y-19.7466 F100.00
G01 X-8.8061 Y-19.7918 F100.00
G01 X-8.7146 Y-19.8463 F100.00
G01 X-8.6251 Y-19.9124 F100.00
G01 X-8.5474 Y-19.9830 F100.00
G01 X-8.4768 Y-20.0607 F100.00
G01 X-8.4144 Y-20.1446 F100.00
G01 X-8.3594 Y-20.2357 F100.00
G01 X-8.3110 Y-20.3380 F100.00
G01 X-8.2763 Y-20.4353 F100.00
G01 X-8.2512 Y-20.5351 F100.00
G01 X-8.2353 Y-20.6403 F100.00
G01 X-8.2297 Y-20.7500 F100.00
G01 X-8.2297 Y-21.2580 F100.00
G01 X-8.2353 Y-21.3677 F100.00
G01 X-8.2505 Y-21.4697 F100.00
G01 X-8.2763 Y-21.5727 F100.00
G01 X-8.3136 Y-21.6762 F100.00
G01 X-8.3594 Y-21.7723 F100.00
G01 X-8.4107 Y-21.8578 F100.00
G01 X-8.4738 Y-21.9435 F100.00
G01 X-8.5450 Y-22.0226 F100.00
G01 X-8.6251 Y-22.0956 F100.00
G01 X-8.7090 Y-22.1580 F100.00
G01 X-8.8001 Y-22.2130 F100.00
G01 X-8.9024 Y-22.2614 F100.00
G01 X-8.9997 Y-22.2961 F100.00
G01 X-9.0995 Y-22.3212 F100.00
G01 X-9.2072 Y-22.3374 F100.00
G01 X-9.3144 Y-22.3427 F100.00
G01 X-9.4241 Y-22.3371 F100.00
G01 X-9.5261 Y-22.3219 F100.00
G01 X-9.6260 Y-22.2969 F100.00
G01 X-9.7264 Y-22.2614 F100.00
G01 X-9.8287 Y-22.2130 F100.00
G01 X-9.9198 Y-22.1580 F100.00
G01 X-10.0037 Y-22.0956 F100.00
G01 X-10.0790 Y-22.0274 F100.00
G01 X-10.1520 Y-21.9473 F100.00
G01 X-10.2181 Y-21.8578 F100.00
G01 X-10.2726 Y-21.7663 F100.00
G01 X-10.3152 Y-21.6762 F100.00
G01 X-10.3514 Y-21.5761 F100.00
G01 X-10.3776 Y-21.4729 F100.00
G00 Z2.0000
G00 X-7.6978 Y-24.6815
G01 F60.00
G01 Z-0.0700
G01 F100.00
G01 X-7.6810 Y-24.6154 F100.00
G01 X-7.6581 Y-24.5517 F100.00
G01 X-7.6281 Y-24.4891 F100.00
G01 X-7.5929 Y-24.4311 F100.00
G01 X-7.5531 Y-24.3777 F100.00
G01 X-7.5089 Y-24.3292 F100.00
G01 X-7.4604 Y-24.2850 F100.00
G01 X-7.4014 Y-24.2414 F100.00
G01 X-7.3430 Y-24.2068 F100.00
G01 X-7.2864 Y-24.1800 F100.00
G01 X-7.2227 Y-24.1571 F100.00
G01 X-7.1566 Y-24.1403 F100.00
G01 X-7.0881 Y-24.1301 F100.00
G01 X-7.0203 Y-24.1267 F100.00
G01 X-6.9525 Y-24.1301 F100.00
G01 X-6.8840 Y-24.1403 F100.00
G01 X-6.8179 Y-24.1571 F100.00
G01 X-6.7542 Y-24.1800 F100.00
G01 X-6.6916 Y-24.2100 F100.00
G01 X-6.6336 Y-24.2452 F100.00
G01 X-6.5802 Y-24.2850 F100.00
G01 X-6.5317 Y-24.3292 F100.00
G01 X-6.4875 Y-24.3777 F100.00
G01 X-6.4439 Y-24.4367 F100.00
G01 X-6.4093 Y-24.4951 F100.00
G01 X-6.3825 Y-24.5517 F100.00
G01 X-6.3596 Y-24.6154 F100.00
G01 X-6.3428 Y-24.6815 F100.00
G01 X-6.3326 Y-24.7500 F100.00
G01 X-6.3293 Y-24.8178 F100.00
G01 X-6.3326 Y-24.8856 F100.00
G01 X-6.3428 Y-24.9541 F100.00
G01 X-6.3596 Y-25.0202 F100.00
G01 X-6.3825 Y-25.0839 F100.00
G01 X-6.4125 Y-25.1465 F100.00
G01 X-6.4477 Y-25.2045 F100.00
G01 X-6.4875 Y-25.2579 F100.00
G01 X-6.5317 Y-25.3064 F100.00
G01 X-6.5802 Y-25.3506 F100.00
G01 X-6.6392 Y-25.3942 F100.00
G01 X-6.6976 Y-25.4288 F100.00
G01 X-6.7542 Y-25.4556 F100.00
G01 X-6.8179 Y-25.4785 F100.00
G01 X-6.8840 Y-25.4953 F100.00
G01 X-6.9525 Y-25.5055 F100.00
G01 X-7.0203 Y-25.5088 F100.00
G01 X-7.0881 Y-25.5055 F100.00
G01 X-7.1566 Y-25.4953 F100.00
G01 X-7.2227 Y-25.4785 F100.00
G01 X-7.2864 Y-25.4556 F100.00
G01 X-7.3490 Y-25.4256 F100.00
G01 X-7.4070 Y-25.3904 F100.00
G01 X-7.4604 Y-25.3506 F100.00
G01 X-7.5089 Y-25.3064 F100.00
G01 X-7.5531 Y-25.2579 F100.00
G01 X-7.5967 Y-25.1989 F100.00
G01 X-7.6313 Y-25.1405 F100.00
G01 X-7.6581 Y-25.0839 F100.00
G01 X-7.6810 Y-25.0202 F100.00
G01 X-7.6978 Y-24.9541 F100.00
G01 X-7.7080 Y-24.8856 F100.00
G01 X-7.7113 Y-24.8178 F100.00
G01 X-7.7080 Y-24.7500 F100.00
G01 X-7.6978 Y-24.6815 F100.00
G00 Z2.0000
G00 X-7.1566 Y-25.6403
G01 F60.00
G01 Z-0.0700
G01 F100.00
G01 X-7.0847 Y-25.6298 F100.00
G01 X-7.0203 Y-25.6268 F100.00
G01 X-6.9559 Y-25.6298 F100.00
G01 X-6.8840 Y-25.6403 F100.00
G01 X-6.8067 Y-25.6611 F100.00
G01 X-6.5885 Y-25.5657 F100.00
G01 X-6.4425 Y-25.4596 F100.00
G01 X-6.3216 Y-25.3254 F100.00
G01 X-6.2314 Y-25.1690 F100.00
G01 X-6.1756 Y-24.9973 F100.00
G01 X-6.1567 Y-24.8178 F100.00
G01 X-6.1756 Y-24.6382 F100.00
G01 X-6.2314 Y-24.4666 F100.00
G01 X-6.3216 Y-24.3102 F100.00
G01 X-6.4425 Y-24.1760 F100.00
G01 X-6.5885 Y-24.0699 F100.00
G01 X-6.7534 Y-23.9965 F100.00
G01 X-6.9300 Y-23.9589 F100.00
G01 X-7.1106 Y-23.9589 F100.00
G01 X-7.2872 Y-23.9965 F100.00
G01 X-7.4521 Y-24.0699 F100.00
G01 X-7.5981 Y-24.1760 F100.00
G01 X-7.7190 Y-24.3102 F100.00
G01 X-7.8092 Y-24.4666 F100.00
G01 X-7.8650 Y-24.6383 F100.00
G01 X-7.8839 Y-24.8178 F100.00
G01 X-7.8650 Y-24.9973 F100.00
G01 X-7.8092 Y-25.1690 F100.00
G01 X-7.7190 Y-25.3254 F100.00
G01 X-7.5981 Y-25.4596 F100.00
G01 X-7.4521 Y-25.5657 F100.00
G01 X-7.2339 Y-25.6611 F100.00
G01 X-7.1566 Y-25.6403 F100.00
G00 Z2.0000
G00 X-6.3616 Y-26.1098
G01 F60.00
G01 Z-0.0700
G01 F100.00
G01 X-6.3420 Y-26.1863 F100.00
G01 X-6.3326 Y-26.2500 F100.00
G01 X-6.3293 Y-26.3178 F100.00
G01 X-6.3326 Y-26.3856 F100.00
G01 X-6.3420 Y-26.4493 F100.00
G01 X-6.3616 Y-26.5258 F100.00
G01 X-6.3092 Y-26.5781 F100.00
G01 X-6.2760 Y-26.4760 F100.00
G01 X-6.2594 Y-26.3178 F100.00
G01 X-6.2760 Y-26.1596 F100.00
G01 X-6.3092 Y-26.0575 F100.00
G01 X-6.3616 Y-26.1098 F100.00
G00 Z2.0000
G00 X-6.8840 Y-26.9953
G01 F60.00
G01 Z-0.0700
G01 F100.00
G01 X-6.9559 Y-27.0058 F100.00
G01 X-7.0203 Y-27.0089 F100.00
G01 X-7.0847 Y-27.0058 F100.00
G01 X-7.1566 Y-26.9953 F100.00
G01 X-7.2283 Y-26.9765 F100.00
G01 X-7.2816 Y-27.0298 F100.00
G01 X-7.2554 Y-27.0415 F100.00
G01 X-7.0998 Y-27.0746 F100.00
G01 X-6.9408 Y-27.0746 F100.00
G01 X-6.7852 Y-27.0415 F100.00
G01 X-6.7590 Y-27.0298 F100.00
G01 X-6.8123 Y-26.9765 F100.00
G01 X-6.8840 Y-26.9953 F100.00
G00 Z2.0000
G00 X-7.6790 Y-26.5258
G01 F60.00
G01 Z-0.0700
G01 F100.00
G01 X-7.6986 Y-26.4493 F100.00
G01 X-7.7080 Y-26.3856 F100.00
G01 X-7.7113 Y-26.3178 F100.00
G01 X-7.7080 Y-26.2500 F100.00
G01 X-7.6986 Y-26.1863 F100.00
G01 X-7.6790 Y-26.1098 F100.00
G01 X-7.7314 Y-26.0575 F100.00
G01 X-7.7646 Y-26.1596 F100.00
G01 X-7.7812 Y-26.3178 F100.00
G01 X-7.7646 Y-26.4760 F100.00
G01 X-7.7314 Y-26.5781 F100.00
G01 X-7.6790 Y-26.5258 F100.00
G00 Z2.0000
G00 X-16.8808 Y-27.3774
G01 F60.00
G01 Z-0.0700
G01 F100.00
G01 X-16.8640 Y-27.3113 F100.00
G01 X-16.8411 Y-27.2476 F100.00
G01 X-16.8111 Y-27.1850 F100.00
G01 X-16.7759 Y-27.1270 F100.00
G01 X-16.7361 Y-27.0736 F100.00
G01 X-16.6919 Y-27.0251 F100.00
G01 X-16.6434 Y-26.9809 F100.00
G01 X-16.5844 Y-26.9373 F100.00
G01 X-16.5260 Y-26.9027 F100.00
G01 X-16.4694 Y-26.8759 F100.00
G01 X-16.4057 Y-26.8530 F100.00
G01 X-16.3396 Y-26.8362 F100.00
G01 X-16.2711 Y-26.8260 F100.00
G01 X-16.2033 Y-26.8227 F100.00
G01 X-16.1355 Y-26.8260 F100.00
G01 X-16.0670 Y-26.8362 F100.00
G01 X-16.0009 Y-26.8530 F100.00
G01 X-15.9372 Y-26.8759 F100.00
G01 X-15.8746 Y-26.9059 F100.00
G01 X-15.8166 Y-26.9411 F100.00
G01 X-15.7632 Y-26.9809 F100.00
G01 X-15.7147 Y-27.0251 F100.00
G01 X-15.6705 Y-27.0736 F100.00
G01 X-15.6269 Y-27.1326 F100.00
G01 X-15.5923 Y-27.1910 F100.00
G01 X-15.5655 Y-27.2476 F100.00
G01 X-15.5426 Y-27.3113 F100.00
G01 X-15.5258 Y-27.3774 F100.00
G01 X-15.5156 Y-27.4459 F100.00
G01 X-15.5123 Y-27.5137 F100.00
G01 X-15.5156 Y-27.5815 F100.00
G01 X-15.5258 Y-27.6500 F100.00
G01 X-15.5426 Y-27.7161 F100.00
G01 X-15.5655 Y-27.7798 F100.00
G01 X-15.5955 Y-27.8424 F100.00
G01 X-15.6307 Y-27.9004 F100.00
G01 X-15.6705 Y-27.9538 F100.00
G01 X-15.7147 Y-28.0023 F100.00
G01 X-15.7632 Y-28.0465 F100.00
G01 X-15.8222 Y-28.0901 F100.00
G01 X-15.8806 Y-28.1247 F100.00
G01 X-15.9372 Y-28.1515 F100.00
G01 X-16.0009 Y-28.1744 F100.00
G01 X-16.0670 Y-28.1912 F100.00
G01 X-16.1355 Y-28.2014 F100.00
G01 X-16.2033 Y-28.2047 F100.00
G01 X-16.2711 Y-28.2014 F100.00
G01 X-16.3396 Y-28.1912 F100.00
G01 X-16.4057 Y-28.1744 F100.00
G01 X-16.4694 Y-28.1515 F100.00
G01 X-16.5320 Y-28.1215 F100.00
G01 X-16.5900 Y-28.0863 F100.00
G01 X-16.6434 Y-28.0465 F100.00
G01 X-16.6919 Y-28.0023 F100.00
G01 X-16.7361 Y-27.9538 F100.00
G01 X-16.7797 Y-27.8948 F100.00
G01 X-16.8143 Y-27.8364 F100.00
G01 X-16.8411 Y-27.7798 F100.00
G01 X-16.8640 Y-27.7161 F100.00
G01 X-16.8808 Y-27.6500 F100.00
G01 X-16.8910 Y-27.5815 F100.00
G01 X-16.8943 Y-27.5137 F100.00
G01 X-16.8910 Y-27.4459 F100.00
G01 X-16.8808 Y-27.3774 F100.00
G00 Z2.0000
G00 X-18.3808 Y-27.3774
G01 F60.00
G01 Z-0.0700
G01 F100.00
G01 X-18.3640 Y-27.3113 F100.00
G01 X-18.3411 Y-27.2476 F100.00
G01 X-18.3111 Y-27.1850 F100.00
G01 X-18.2759 Y-27.1270 F100.00
G01 X-18.2361 Y-27.0736 F100.00
G01 X-18.1919 Y-27.0251 F100.00
G01 X-18.1434 Y-26.9809 F100.00
G01 X-18.0844 Y-26.9373 F100.00
G01 X-18.0260 Y-26.9027 F100.00
G01 X-17.9694 Y-26.8759 F100.00
G01 X-17.9057 Y-26.8530 F100.00
G01 X-17.8396 Y-26.8362 F100.00
G01 X-17.7711 Y-26.8260 F100.00
G01 X-17.7033 Y-26.8227 F100.00
G01 X-17.6355 Y-26.8260 F100.00
G01 X-17.5670 Y-26.8362 F100.00
G01 X-17.5009 Y-26.8530 F100.00
G01 X-17.4372 Y-26.8759 F100.00
G01 X-17.3746 Y-26.9059 F100.00
G01 X-17.3166 Y-26.9411 F100.00
G01 X-17.2632 Y-26.9809 F100.00
G01 X-17.2147 Y-27.0251 F100.00
G01 X-17.1705 Y-27.0736 F100.00
G01 X-17.1269 Y-27.1326 F100.00
G01 X-17.0923 Y-27.1910 F100.00
G01 X-17.0655 Y-27.2476 F100.00
G01 X-17.0426 Y-27.3113 F100.00
G01 X-17.0258 Y-27.3774 F100.00
G01 X-17.0156 Y-27.4459 F100.00
G01 X-17.0123 Y-27.5137 F100.00
G01 X-17.0156 Y-27.5815 F100.00
G01 X-17.0258 Y-27.6500 F100.00
G01 X-17.0426 Y-27.7161 F100.00
G01 X-17.0655 Y-27.7798 F100.00
G01 X-17.0955 Y-27.8424 F100.00
G01 X-17.1307 Y-27.9004 F100.00
G01 X-17.1705 Y-27.9538 F100.00
G01 X-17.2147 Y-28.0023 F100.00
G01 X-17.2632 Y-28.0465 F100.00
G01 X-17.3222 Y-28.0901 F100.00
G01 X-17.3806 Y-28.1247 F100.00
G01 X-17.4372 Y-28.1515 F100.00
G01 X-17.5009 Y-28.1744 F100.00
G01 X-17.5670 Y-28.1912 F100.00
G01 X-17.6355 Y-28.2014 F100.00
G01 X-17.7033 Y-28.2047 F100.00
G01 X-17.7711 Y-28.2014 F100.00
G01 X-17.8396 Y-28.1912 F100.00
G01 X-17.9057 Y-28.1744 F100.00
G01 X-17.9694 Y-28.1515 F100.00
G01 X-18.0320 Y-28.1215 F100.00
G01 X-18.0900 Y-28.0863 F100.00
G01 X-18.1434 Y-28.0465 F100.00
G01 X-18.1919 Y-28.0023 F100.00
G01 X-18.2361 Y-27.9538 F100.00
G01 X-18.2797 Y-27.8948 F100.00
G01 X-18.3143 Y-27.8364 F100.00
G01 X-18.3411 Y-27.7798 F100.00
G01 X-18.3640 Y-27.7161 F100.00
G01 X-18.3808 Y-27.6500 F100.00
G01 X-18.3910 Y-27.5815 F100.00
G01 X-18.3944 Y-27.5137 F100.00
G01 X-18.3910 Y-27.4459 F100.00
G01 X-18.3808 Y-27.3774 F100.00
G00 Z2.0000
G00 X-17.7447 Y-19.9004
G01 F60.00
G01 Z-0.0700
G01 F100.00
G01 X-17.7665 Y-19.9040 F100.00
G01 X-25.7971 Y-19.9040 F100.00
G01 X-25.9287 Y-19.9301 F100.00
G01 X-26.0526 Y-19.9815 F100.00
G01 X-26.1641 Y-20.0560 F100.00
G01 X-26.2590 Y-20.1509 F100.00
G01 X-26.3335 Y-20.2624 F100.00
G01 X-26.3849 Y-20.3863 F100.00
G01 X-26.4110 Y-20.5179 F100.00
G01 X-26.4110 Y-20.6521 F100.00
G01 X-26.3849 Y-20.7837 F100.00
G01 X-26.3335 Y-20.9076 F100.00
G01 X-26.2590 Y-21.0191 F100.00
G01 X-26.1641 Y-21.1140 F100.00
G01 X-26.0526 Y-21.1885 F100.00
G01 X-25.9287 Y-21.2399 F100.00
G01 X-25.7971 Y-21.2660 F100.00
G01 X-17.7173 Y-21.2660 F100.00
G01 X-17.6943 Y-21.2700 F100.00
G01 X-17.6321 Y-21.2979 F100.00
G01 X-17.6111 Y-21.3235 F100.00
G01 X-17.5896 Y-21.3756 F100.00
G01 X-17.5860 Y-21.3973 F100.00
G01 X-17.5860 Y-25.6771 F100.00
G01 X-17.5599 Y-25.8087 F100.00
G01 X-17.5085 Y-25.9326 F100.00
G01 X-17.4340 Y-26.0441 F100.00
G01 X-17.1141 Y-26.3640 F100.00
G01 X-17.0026 Y-26.4385 F100.00
G01 X-16.8787 Y-26.4899 F100.00
G01 X-16.7471 Y-26.5160 F100.00
G01 X-16.6819 Y-26.5167 F100.00
G01 X-16.6348 Y-26.5294 F100.00
G01 X-16.5872 Y-26.5720 F100.00
G01 X-16.5734 Y-26.5903 F100.00
G01 X-16.5660 Y-26.6163 F100.00
G01 X-16.5649 Y-26.6775 F100.00
G01 X-16.5772 Y-26.7096 F100.00
G01 X-16.6188 Y-26.7542 F100.00
G01 X-16.7811 Y-26.8719 F100.00
G01 X-16.8675 Y-26.9662 F100.00
G01 X-16.8859 Y-26.9773 F100.00
G01 X-16.9502 Y-26.9978 F100.00
G01 X-16.9783 Y-26.9946 F100.00
G01 X-17.0384 Y-26.9657 F100.00
G01 X-17.1255 Y-26.8719 F100.00
G01 X-17.2715 Y-26.7658 F100.00
G01 X-17.4364 Y-26.6924 F100.00
G01 X-17.6130 Y-26.6549 F100.00
G01 X-17.7936 Y-26.6549 F100.00
G01 X-17.9702 Y-26.6924 F100.00
G01 X-18.1351 Y-26.7658 F100.00
G01 X-18.2811 Y-26.8719 F100.00
G01 X-18.4020 Y-27.0061 F100.00
G01 X-18.4922 Y-27.1625 F100.00
G01 X-18.5480 Y-27.3342 F100.00
G01 X-18.5669 Y-27.5137 F100.00
G01 X-18.5480 Y-27.6932 F100.00
G01 X-18.4922 Y-27.8649 F100.00
G01 X-18.4020 Y-28.0213 F100.00
G01 X-18.2811 Y-28.1555 F100.00
G01 X-18.1351 Y-28.2616 F100.00
G01 X-17.9702 Y-28.3350 F100.00
G01 X-17.7936 Y-28.3725 F100.00
G01 X-17.6130 Y-28.3725 F100.00
G01 X-17.4364 Y-28.3350 F100.00
G01 X-17.2715 Y-28.2616 F100.00
G01 X-17.1255 Y-28.1555 F100.00
G01 X-17.0364 Y-28.0590 F100.00
G01 X-16.9564 Y-28.0295 F100.00
G01 X-16.9238 Y-28.0345 F100.00
G01 X-16.8682 Y-28.0617 F100.00
G01 X-16.7811 Y-28.1555 F100.00
G01 X-16.6351 Y-28.2616 F100.00
G01 X-16.4702 Y-28.3350 F100.00
G01 X-16.2936 Y-28.3725 F100.00
G01 X-16.1130 Y-28.3725 F100.00
G01 X-15.9364 Y-28.3350 F100.00
G01 X-15.7715 Y-28.2616 F100.00
G01 X-15.6255 Y-28.1555 F100.00
G01 X-15.5046 Y-28.0213 F100.00
G01 X-15.4144 Y-27.8649 F100.00
G01 X-15.3586 Y-27.6933 F100.00
G01 X-15.3397 Y-27.5137 F100.00
G01 X-15.3586 Y-27.3341 F100.00
G01 X-15.4144 Y-27.1625 F100.00
G01 X-15.5046 Y-27.0061 F100.00
G01 X-15.6255 Y-26.8719 F100.00
G01 X-15.7715 Y-26.7658 F100.00
G01 X-15.9364 Y-26.6924 F100.00
G01 X-16.1130 Y-26.6549 F100.00
G01 X-16.2519 Y-26.6548 F100.00
G01 X-16.2862 Y-26.6487 F100.00
G01 X-16.3415 Y-26.6135 F100.00
G01 X-16.3576 Y-26.5965 F100.00
G01 X-16.3671 Y-26.5752 F100.00
G01 X-16.3784 Y-26.5149 F100.00
G01 X-16.3713 Y-26.4807 F100.00
G01 X-16.3354 Y-26.4269 F100.00
G01 X-16.2459 Y-26.3640 F100.00
G01 X-16.1510 Y-26.2691 F100.00
G01 X-16.0765 Y-26.1576 F100.00
G01 X-16.0251 Y-26.0337 F100.00
G01 X-15.9990 Y-25.9021 F100.00
G01 X-15.9990 Y-25.7679 F100.00
G01 X-16.0251 Y-25.6363 F100.00
G01 X-16.0765 Y-25.5124 F100.00
G01 X-16.1510 Y-25.4009 F100.00
G01 X-16.1958 Y-25.3531 F100.00
G01 X-16.2200 Y-25.2965 F100.00
G01 X-16.2239 Y-25.2770 F100.00
G01 X-16.2219 Y-18.6796 F100.00
G01 X-16.1989 Y-18.6227 F100.00
G01 X-16.1855 Y-18.6037 F100.00
G01 X-14.4760 Y-16.8941 F100.00
G01 X-14.4015 Y-16.7826 F100.00
G01 X-14.3501 Y-16.6587 F100.00
G01 X-14.3240 Y-16.5271 F100.00
G01 X-14.3239 Y-15.6849 F100.00
G01 X-14.3155 Y-15.6453 F100.00
G01 X-14.2735 Y-15.5853 F100.00
G01 X-14.2408 Y-15.5689 F100.00
G01 X-14.1881 Y-15.5587 F100.00
G01 X-14.1588 Y-15.5618 F100.00
G01 X-14.0997 Y-15.5984 F100.00
G01 X-14.0718 Y-15.6329 F100.00
G01 X-14.0274 Y-15.6626 F100.00
G01 X-13.9881 Y-15.6704 F100.00
G01 X-12.8332 Y-15.6704 F100.00
G01 X-12.8332 Y-15.6047 F100.00
G01 X-13.9784 Y-15.6047 F100.00
G01 X-14.0028 Y-15.5988 F100.00
G01 X-14.0214 Y-15.5867 F100.00
G01 X-14.0337 Y-15.5717 F100.00
G01 X-14.0420 Y-15.5509 F100.00
G01 X-14.0416 Y-11.4553 F100.00
G01 X-14.0332 Y-11.4356 F100.00
G01 X-14.0162 Y-11.4170 F100.00
G01 X-13.9784 Y-11.4033 F100.00
G01 X-12.8332 Y-11.4032 F100.00
G01 X-12.8332 Y-11.3375 F100.00
G01 X-13.9881 Y-11.3375 F100.00
G01 X-14.0274 Y-11.3454 F100.00
G01 X-14.0718 Y-11.3751 F100.00
G01 X-14.0975 Y-11.4100 F100.00
G01 X-14.1131 Y-11.4229 F100.00
G01 X-14.1697 Y-11.4470 F100.00
G01 X-14.1892 Y-11.4509 F100.00
G01 X-14.2144 Y-11.4474 F100.00
G01 X-14.2676 Y-11.4254 F100.00
G01 X-14.2855 Y-11.4125 F100.00
G01 X-14.2984 Y-11.3947 F100.00
G01 X-14.3204 Y-11.3415 F100.00
G01 X-14.3240 Y-11.3197 F100.00
G01 X-14.3240 Y-8.4961 F100.00
G01 X-14.3200 Y-8.4731 F100.00
G01 X-14.2941 Y-8.4137 F100.00
G01 X-14.2676 Y-8.3904 F100.00
G01 X-14.1962 Y-8.3649 F100.00
G01 X-14.1697 Y-8.3688 F100.00
G01 X-14.1038 Y-8.3997 F100.00
G01 X-12.4141 Y-10.0890 F100.00
G01 X-12.3026 Y-10.1635 F100.00
G01 X-12.1787 Y-10.2149 F100.00
G01 X-12.0471 Y-10.2410 F100.00
G01 X-3.5379 Y-10.2410 F100.00
G01 X-3.4063 Y-10.2149 F100.00
G01 X-3.2824 Y-10.1635 F100.00
G01 X-3.1709 Y-10.0890 F100.00
G01 X-3.0760 Y-9.9941 F100.00
G01 X-3.0015 Y-9.8826 F100.00
G01 X-2.9501 Y-9.7587 F100.00
G01 X-2.9240 Y-9.6271 F100.00
G01 X-2.9240 Y-9.4929 F100.00
G01 X-2.9501 Y-9.3613 F100.00
G01 X-3.0015 Y-9.2374 F100.00
G01 X-3.0760 Y-9.1259 F100.00
G01 X-3.1709 Y-9.0310 F100.00
G01 X-3.2824 Y-8.9565 F100.00
G01 X-3.4063 Y-8.9051 F100.00
G01 X-3.5379 Y-8.8790 F100.00
G01 X-11.6511 Y-8.8785 F100.00
G01 X-11.7140 Y-8.8554 F100.00
G01 X-11.7337 Y-8.8430 F100.00
G01 X-12.5379 Y-8.0389 F100.00
G01 X-12.6002 Y-8.0916 F100.00
G01 X-12.6817 Y-8.1321 F100.00
G01 X-11.7673 Y-9.0465 F100.00
G01 X-3.5580 Y-9.0488 F100.00
G01 X-3.5015 Y-9.0571 F100.00
G01 X-3.4054 Y-9.0870 F100.00
G01 X-3.3215 Y-9.1319 F100.00
G01 X-3.2419 Y-9.1969 F100.00
G01 X-3.1769 Y-9.2765 F100.00
G01 X-3.1320 Y-9.3604 F100.00
G01 X-3.1021 Y-9.4565 F100.00
G01 X-3.0938 Y-9.5130 F100.00
G01 X-3.0940 Y-9.6104 F100.00
G01 X-3.1136 Y-9.7089 F100.00
G01 X-3.1527 Y-9.8030 F100.00
G01 X-3.2095 Y-9.8874 F100.00
G01 X-3.2776 Y-9.9555 F100.00
G01 X-3.3620 Y-10.0123 F100.00
G01 X-3.4561 Y-10.0514 F100.00
G01 X-3.5580 Y-10.0712 F100.00
G01 X-12.0304 Y-10.0710 F100.00
G01 X-12.1258 Y-10.0523 F100.00
G01 X-12.1796 Y-10.0330 F100.00
G01 X-12.2635 Y-9.9881 F100.00
G01 X-12.3406 Y-9.9254 F100.00
G01 X-14.4915 Y-7.7746 F100.00
G01 X-14.4940 Y-16.5104 F100.00
G01 X-14.5127 Y-16.6058 F100.00
G01 X-14.5320 Y-16.6596 F100.00
G01 X-14.5769 Y-16.7435 F100.00
G01 X-14.6396 Y-16.8206 F100.00
G01 X-16.3915 Y-18.5727 F100.00
G01 X-16.3915 Y-25.3973 F100.00
G01 X-16.2845 Y-25.5076 F100.00
G01 X-16.2277 Y-25.5920 F100.00
G01 X-16.1877 Y-25.6892 F100.00
G01 X-16.1694 Y-25.7813 F100.00
G01 X-16.1665 Y-25.8350 F100.00
G01 X-16.1694 Y-25.8887 F100.00
G01 X-16.1886 Y-25.9839 F100.00
G01 X-16.2070 Y-26.0346 F100.00
G01 X-16.2513 Y-26.1174 F100.00
G01 X-16.2853 Y-26.1633 F100.00
G01 X-16.3517 Y-26.2297 F100.00
G01 X-16.4410 Y-26.2894 F100.00
G01 X-16.4867 Y-26.3106 F100.00
G01 X-16.5765 Y-26.3379 F100.00
G01 X-16.6800 Y-26.3485 F100.00
G01 X-16.7337 Y-26.3456 F100.00
G01 X-16.8258 Y-26.3273 F100.00
G01 X-16.9250 Y-26.2862 F100.00
G01 X-16.9680 Y-26.2600 F100.00
G01 X-17.0406 Y-26.2004 F100.00
G01 X-17.3005 Y-25.9374 F100.00
G01 X-17.3594 Y-25.8490 F100.00
G01 X-17.3953 Y-25.7623 F100.00
G01 X-17.4086 Y-25.7102 F100.00
G01 X-17.4185 Y-25.6100 F100.00
G01 X-17.4185 Y-21.0980 F100.00
G01 X-25.7770 Y-21.0962 F100.00
G01 X-25.8335 Y-21.0879 F100.00
G01 X-25.9296 Y-21.0580 F100.00
G01 X-26.0135 Y-21.0131 F100.00
G01 X-26.0931 Y-20.9481 F100.00
G01 X-26.1550 Y-20.8730 F100.00
G01 X-26.1844 Y-20.8240 F100.00
G01 X-26.2214 Y-20.7339 F100.00
G01 X-26.2410 Y-20.6354 F100.00
G01 X-26.2410 Y-20.5346 F100.00
G01 X-26.2214 Y-20.4361 F100.00
G01 X-26.1823 Y-20.3420 F100.00
G01 X-26.1255 Y-20.2576 F100.00
G01 X-26.0574 Y-20.1895 F100.00
G01 X-25.9730 Y-20.1327 F100.00
G01 X-25.8789 Y-20.0936 F100.00
G01 X-25.7770 Y-20.0738 F100.00
G01 X-17.6427 Y-20.0715 F100.00
G01 X-17.4185 Y-19.8473 F100.00
G01 X-17.4184 Y-18.3566 F100.00
G01 X-17.4092 Y-18.2632 F100.00
G01 X-17.3973 Y-18.2142 F100.00
G01 X-17.3573 Y-18.1170 F100.00
G01 X-17.3040 Y-18.0369 F100.00
G01 X-17.2681 Y-17.9969 F100.00
G01 X-15.5185 Y-16.2473 F100.00
G01 X-15.5185 Y-14.0019 F100.00
G01 X-15.5945 Y-14.0016 F100.00
G01 X-15.6860 Y-13.9794 F100.00
G01 X-15.6860 Y-16.1235 F100.00
G01 X-15.6910 Y-16.1491 F100.00
G01 X-15.7116 Y-16.1985 F100.00
G01 X-15.7245 Y-16.2163 F100.00
G01 X-17.4340 Y-17.9259 F100.00
G01 X-17.5085 Y-18.0374 F100.00
G01 X-17.5599 Y-18.1613 F100.00
G01 X-17.5861 Y-18.2929 F100.00
G01 X-17.5865 Y-19.7311 F100.00
G01 X-17.6096 Y-19.7940 F100.00
G01 X-17.6220 Y-19.8137 F100.00
G01 X-17.6812 Y-19.8721 F100.00
G01 X-17.7447 Y-19.9004 F100.00
G00 Z2.0000
G00 X-10.9195 Y-13.8227
G01 F60.00
G01 Z-0.0700
G01 F100.00
G01 X-10.9852 Y-13.8227 F100.00
G01 X-10.9852 Y-15.5360 F100.00
G01 X-10.9887 Y-15.5577 F100.00
G01 X-10.9988 Y-15.5771 F100.00
G01 X-11.0246 Y-15.5982 F100.00
G01 X-11.0539 Y-15.6047 F100.00
G01 X-12.1957 Y-15.6047 F100.00
G01 X-12.1957 Y-15.6704 F100.00
G01 X-11.0407 Y-15.6704 F100.00
G01 X-11.0014 Y-15.6626 F100.00
G01 X-10.9570 Y-15.6329 F100.00
G01 X-10.9273 Y-15.5885 F100.00
G01 X-10.9195 Y-15.5492 F100.00
G01 X-10.9195 Y-13.8227 F100.00
G00 Z2.0000
G00 X-11.0390 Y-11.4049
G01 F60.00
G01 Z-0.0700
G01 F100.00
G01 X-11.0182 Y-11.4132 F100.00
G01 X-11.0032 Y-11.4255 F100.00
G01 X-10.9911 Y-11.4441 F100.00
G01 X-10.9852 Y-11.4685 F100.00
G01 X-10.9852 Y-13.1852 F100.00
G01 X-10.9195 Y-13.1852 F100.00
G01 X-10.9195 Y-11.4588 F100.00
G01 X-10.9273 Y-11.4195 F100.00
G01 X-10.9570 Y-11.3751 F100.00
G01 X-11.0014 Y-11.3453 F100.00
G01 X-11.0407 Y-11.3375 F100.00
G01 X-12.1957 Y-11.3375 F100.00
G01 X-12.1957 Y-11.4032 F100.00
G01 X-11.0390 Y-11.4049 F100.00
G00 Z2.0000
G00 X-10.3776 Y-6.9729
G01 F60.00
G01 Z-0.0700
G01 F100.00
G01 X-10.3938 Y-6.8652 F100.00
G01 X-10.3991 Y-6.7614 F100.00
G01 X-10.3991 Y-6.2500 F100.00
G01 X-10.3935 Y-6.1403 F100.00
G01 X-10.3783 Y-6.0383 F100.00
G01 X-10.3525 Y-5.9353 F100.00
G01 X-10.3178 Y-5.8380 F100.00
G01 X-10.2726 Y-5.7417 F100.00
G01 X-10.2144 Y-5.6446 F100.00
G01 X-10.1520 Y-5.5607 F100.00
G01 X-10.0814 Y-5.4830 F100.00
G01 X-10.0037 Y-5.4124 F100.00
G01 X-9.9198 Y-5.3500 F100.00
G01 X-9.8287 Y-5.2950 F100.00
G01 X-9.7326 Y-5.2492 F100.00
G01 X-9.6291 Y-5.2119 F100.00
G01 X-9.5261 Y-5.1861 F100.00
G01 X-9.4216 Y-5.1706 F100.00
G01 X-9.3144 Y-5.1653 F100.00
G01 X-9.2072 Y-5.1706 F100.00
G01 X-9.1027 Y-5.1861 F100.00
G01 X-8.9997 Y-5.2119 F100.00
G01 X-8.9024 Y-5.2466 F100.00
G01 X-8.8061 Y-5.2918 F100.00
G01 X-8.7146 Y-5.3463 F100.00
G01 X-8.6251 Y-5.4124 F100.00
G01 X-8.5474 Y-5.4830 F100.00
G01 X-8.4768 Y-5.5607 F100.00
G01 X-8.4144 Y-5.6446 F100.00
G01 X-8.3594 Y-5.7357 F100.00
G01 X-8.3110 Y-5.8380 F100.00
G01 X-8.2763 Y-5.9353 F100.00
G01 X-8.2512 Y-6.0351 F100.00
G01 X-8.2353 Y-6.1403 F100.00
G01 X-8.2297 Y-6.2500 F100.00
G01 X-8.2297 Y-6.7580 F100.00
G01 X-8.2353 Y-6.8677 F100.00
G01 X-8.2505 Y-6.9697 F100.00
G01 X-8.2763 Y-7.0727 F100.00
G01 X-8.3136 Y-7.1762 F100.00
G01 X-8.3594 Y-7.2723 F100.00
G01 X-8.4107 Y-7.3578 F100.00
G01 X-8.4738 Y-7.4435 F100.00
G01 X-8.5450 Y-7.5226 F100.00
G01 X-8.6251 Y-7.5956 F100.00
G01 X-8.7090 Y-7.6580 F100.00
G01 X-8.8001 Y-7.7130 F100.00
G01 X-8.9024 Y-7.7614 F100.00
G01 X-8.9997 Y-7.7961 F100.00
G01 X-9.0995 Y-7.8212 F100.00
G01 X-9.2072 Y-7.8374 F100.00
G01 X-9.3144 Y-7.8427 F100.00
G01 X-9.4241 Y-7.8371 F100.00
G01 X-9.5261 Y-7.8219 F100.00
G01 X-9.6260 Y-7.7969 F100.00
G01 X-9.7264 Y-7.7614 F100.00
G01 X-9.8287 Y-7.7130 F100.00
G01 X-9.9198 Y-7.6580 F100.00
G01 X-10.0037 Y-7.5956 F100.00
G01 X-10.0790 Y-7.5274 F100.00
G01 X-10.1520 Y-7.4473 F100.00
G01 X-10.2181 Y-7.3578 F100.00
G01 X-10.2726 Y-7.2663 F100.00
G01 X-10.3152 Y-7.1762 F100.00
G01 X-10.3514 Y-7.0761 F100.00
G01 X-10.3776 Y-6.9729 F100.00
G00 Z2.0000
G00 X-8.0619 Y-6.1514
G01 F60.00
G01 Z-0.0700
G01 F100.00
G01 X-8.0927 Y-5.9567 F100.00
G01 X-8.1536 Y-5.7692 F100.00
G01 X-8.2431 Y-5.5935 F100.00
G01 X-8.3590 Y-5.4340 F100.00
G01 X-8.4984 Y-5.2946 F100.00
G01 X-8.6579 Y-5.1787 F100.00
G01 X-8.8336 Y-5.0892 F100.00
G01 X-9.0211 Y-5.0283 F100.00
G01 X-9.2158 Y-4.9975 F100.00
G01 X-9.4130 Y-4.9975 F100.00
G01 X-9.6077 Y-5.0283 F100.00
G01 X-9.7952 Y-5.0892 F100.00
G01 X-9.9709 Y-5.1787 F100.00
G01 X-10.1304 Y-5.2946 F100.00
G01 X-10.2698 Y-5.4340 F100.00
G01 X-10.3857 Y-5.5935 F100.00
G01 X-10.4752 Y-5.7692 F100.00
G01 X-10.5361 Y-5.9567 F100.00
G01 X-10.5669 Y-6.1514 F100.00
G01 X-10.5669 Y-6.8566 F100.00
G01 X-10.5361 Y-7.0513 F100.00
G01 X-10.4752 Y-7.2388 F100.00
G01 X-10.3857 Y-7.4145 F100.00
G01 X-10.2698 Y-7.5740 F100.00
G01 X-10.1304 Y-7.7134 F100.00
G01 X-9.9709 Y-7.8293 F100.00
G01 X-9.7952 Y-7.9188 F100.00
G01 X-9.6077 Y-7.9797 F100.00
G01 X-9.4130 Y-8.0105 F100.00
G01 X-9.2158 Y-8.0105 F100.00
G01 X-9.0211 Y-7.9797 F100.00
G01 X-8.8336 Y-7.9188 F100.00
G01 X-8.6579 Y-7.8293 F100.00
G01 X-8.4984 Y-7.7134 F100.00
G01 X-8.3590 Y-7.5740 F100.00
G01 X-8.2431 Y-7.4145 F100.00
G01 X-8.1536 Y-7.2388 F100.00
G01 X-8.0927 Y-7.0513 F100.00
G01 X-8.0619 Y-6.8566 F100.00
G01 X-8.0619 Y-6.1514 F100.00
G00 Z2.0000
G00 X-16.0817 Y-3.5017
G01 F60.00
G01 Z-0.0700
G01 F100.00
G01 X-16.1014 Y-3.4933 F100.00
G01 X-16.1200 Y-3.4763 F100.00
G01 X-16.1302 Y-3.4567 F100.00
G01 X-16.1338 Y-3.4350 F100.00
G01 X-16.1338 Y-1.7350 F100.00
G01 X-16.1278 Y-1.7071 F100.00
G01 X-16.1136 Y-1.6864 F100.00
G01 X-16.0929 Y-1.6722 F100.00
G01 X-16.0650 Y-1.6662 F100.00
G01 X-14.3650 Y-1.6662 F100.00
G01 X-14.3371 Y-1.6722 F100.00
G01 X-14.3164 Y-1.6864 F100.00
G01 X-14.3022 Y-1.7071 F100.00
G01 X-14.2962 Y-1.7350 F100.00
G01 X-14.2962 Y-3.4350 F100.00
G01 X-14.3022 Y-3.4629 F100.00
G01 X-14.3164 Y-3.4836 F100.00
G01 X-14.3371 Y-3.4978 F100.00
G01 X-14.3650 Y-3.5038 F100.00
G01 X-16.0817 Y-3.5017 F100.00
G00 Z2.0000
G00 X-16.3015 Y-1.6934
G01 F60.00
G01 Z-0.0700
G01 F100.00
G01 X-16.3015 Y-3.4766 F100.00
G01 X-16.2635 Y-3.5710 F100.00
G01 X-16.2010 Y-3.6335 F100.00
G01 X-16.1066 Y-3.6715 F100.00
G01 X-14.3234 Y-3.6715 F100.00
G01 X-14.2290 Y-3.6335 F100.00
G01 X-14.1665 Y-3.5710 F100.00
G01 X-14.1285 Y-3.4766 F100.00
G01 X-14.1285 Y-1.6934 F100.00
G01 X-14.1665 Y-1.5990 F100.00
G01 X-14.2290 Y-1.5365 F100.00
G01 X-14.3234 Y-1.4985 F100.00
G01 X-16.1066 Y-1.4985 F100.00
G01 X-16.2010 Y-1.5365 F100.00
G01 X-16.2635 Y-1.5990 F100.00
G01 X-16.3015 Y-1.6934 F100.00
G00 Z2.0000
G00 X-17.0974 Y-1.7142
G01 F60.00
G01 Z-0.0700
G01 F100.00
G01 X-17.2686 Y-1.6082 F100.00
G01 X-17.4564 Y-1.5355 F100.00
G01 X-17.6543 Y-1.4985 F100.00
G01 X-17.8557 Y-1.4985 F100.00
G01 X-18.0536 Y-1.5355 F100.00
G01 X-18.2414 Y-1.6082 F100.00
G01 X-18.4126 Y-1.7142 F100.00
G01 X-18.5614 Y-1.8499 F100.00
G01 X-18.6828 Y-2.0106 F100.00
G01 X-18.7725 Y-2.1908 F100.00
G01 X-18.8189 Y-2.3538 F100.00
G01 X-18.8276 Y-2.3845 F100.00
G01 X-18.8462 Y-2.5850 F100.00
G01 X-18.8276 Y-2.7855 F100.00
G01 X-18.7725 Y-2.9792 F100.00
G01 X-18.6828 Y-3.1594 F100.00
G01 X-18.5614 Y-3.3201 F100.00
G01 X-18.4126 Y-3.4558 F100.00
G01 X-18.2414 Y-3.5618 F100.00
G01 X-18.0536 Y-3.6345 F100.00
G01 X-17.8557 Y-3.6715 F100.00
G01 X-17.6543 Y-3.6715 F100.00
G01 X-17.4564 Y-3.6345 F100.00
G01 X-17.2686 Y-3.5618 F100.00
G01 X-17.0974 Y-3.4558 F100.00
G01 X-16.9398 Y-3.3084 F100.00
G01 X-16.8272 Y-3.1594 F100.00
G01 X-16.7375 Y-2.9792 F100.00
G01 X-16.6824 Y-2.7855 F100.00
G01 X-16.6638 Y-2.5850 F100.00
G01 X-16.6824 Y-2.3845 F100.00
G01 X-16.7375 Y-2.1908 F100.00
G01 X-16.8272 Y-2.0106 F100.00
G01 X-16.9486 Y-1.8499 F100.00
G01 X-17.0974 Y-1.7142 F100.00
G00 Z2.0000
G00 X-17.9357 Y-3.4858
G01 F60.00
G01 Z-0.0700
G01 F100.00
G01 X-18.0235 Y-3.4636 F100.00
G01 X-18.1082 Y-3.4331 F100.00
G01 X-18.1864 Y-3.3961 F100.00
G01 X-18.2637 Y-3.3500 F100.00
G01 X-18.3355 Y-3.2971 F100.00
G01 X-18.4047 Y-3.2347 F100.00
G01 X-18.4671 Y-3.1655 F100.00
G01 X-18.5200 Y-3.0937 F100.00
G01 X-18.5661 Y-3.0164 F100.00
G01 X-18.6031 Y-2.9382 F100.00
G01 X-18.6336 Y-2.8535 F100.00
G01 X-18.6558 Y-2.7657 F100.00
G01 X-18.6692 Y-2.6759 F100.00
G01 X-18.6737 Y-2.5850 F100.00
G01 X-18.6692 Y-2.4941 F100.00
G01 X-18.6558 Y-2.4043 F100.00
G01 X-18.6336 Y-2.3165 F100.00
G01 X-18.6031 Y-2.2318 F100.00
G01 X-18.5661 Y-2.1536 F100.00
G01 X-18.5200 Y-2.0763 F100.00
G01 X-18.4671 Y-2.0045 F100.00
G01 X-18.4047 Y-1.9353 F100.00
G01 X-18.3355 Y-1.8729 F100.00
G01 X-18.2637 Y-1.8200 F100.00
G01 X-18.1864 Y-1.7739 F100.00
G01 X-18.1082 Y-1.7369 F100.00
G01 X-18.0235 Y-1.7064 F100.00
G01 X-17.9357 Y-1.6842 F100.00
G01 X-17.8459 Y-1.6708 F100.00
G01 X-17.7550 Y-1.6663 F100.00
G01 X-17.6641 Y-1.6708 F100.00
G01 X-17.5743 Y-1.6842 F100.00
G01 X-17.4865 Y-1.7064 F100.00
G01 X-17.4018 Y-1.7369 F100.00
G01 X-17.3236 Y-1.7739 F100.00
G01 X-17.2463 Y-1.8200 F100.00
G01 X-17.1745 Y-1.8729 F100.00
G01 X-17.1053 Y-1.9353 F100.00
G01 X-17.0429 Y-2.0045 F100.00
G01 X-16.9900 Y-2.0763 F100.00
G01 X-16.9439 Y-2.1536 F100.00
G01 X-16.9069 Y-2.2318 F100.00
G01 X-16.8764 Y-2.3165 F100.00
G01 X-16.8542 Y-2.4043 F100.00
G01 X-16.8408 Y-2.4941 F100.00
G01 X-16.8363 Y-2.5850 F100.00
G01 X-16.8408 Y-2.6759 F100.00
G01 X-16.8542 Y-2.7657 F100.00
G01 X-16.8764 Y-2.8535 F100.00
G01 X-16.9069 Y-2.9382 F100.00
G01 X-16.9439 Y-3.0164 F100.00
G01 X-16.9900 Y-3.0937 F100.00
G01 X-17.0429 Y-3.1655 F100.00
G01 X-17.1053 Y-3.2347 F100.00
G01 X-17.1745 Y-3.2971 F100.00
G01 X-17.2463 Y-3.3500 F100.00
G01 X-17.3236 Y-3.3961 F100.00
G01 X-17.4018 Y-3.4331 F100.00
G01 X-17.4865 Y-3.4636 F100.00
G01 X-17.5743 Y-3.4858 F100.00
G01 X-17.6641 Y-3.4992 F100.00
G01 X-17.7550 Y-3.5037 F100.00
G01 X-17.8459 Y-3.4992 F100.00
G01 X-17.9357 Y-3.4858 F100.00
G00 Z2.0000
G00 X-19.4725 Y-3.1346
G01 F60.00
G01 Z-0.0700
G01 F100.00
G01 X-19.3811 Y-2.9636 F100.00
G01 X-19.3629 Y-2.9038 F100.00
G01 X-19.4343 Y-2.9038 F100.00
G01 X-19.4864 Y-3.0210 F100.00
G01 X-19.5300 Y-3.0937 F100.00
G01 X-19.5870 Y-3.1704 F100.00
G01 X-19.6453 Y-3.2347 F100.00
G01 X-19.7096 Y-3.2930 F100.00
G01 X-19.7818 Y-3.3470 F100.00
G01 X-19.8636 Y-3.3961 F100.00
G01 X-19.9762 Y-3.4457 F100.00
G01 X-19.9762 Y-3.5171 F100.00
G01 X-19.9164 Y-3.4989 F100.00
G01 X-19.7454 Y-3.4075 F100.00
G01 X-19.5955 Y-3.2845 F100.00
G01 X-19.4725 Y-3.1346 F100.00
G00 Z2.0000
G00 X-20.8446 Y-3.4075
G01 F60.00
G01 Z-0.0700
G01 F100.00
G01 X-20.6736 Y-3.4989 F100.00
G01 X-20.6138 Y-3.5171 F100.00
G01 X-20.6138 Y-3.4457 F100.00
G01 X-20.7264 Y-3.3961 F100.00
G01 X-20.8082 Y-3.3470 F100.00
G01 X-20.8804 Y-3.2930 F100.00
G01 X-20.9447 Y-3.2347 F100.00
G01 X-21.0030 Y-3.1704 F100.00
G01 X-21.0600 Y-3.0937 F100.00
G01 X-21.1036 Y-3.0210 F100.00
G01 X-21.1557 Y-2.9038 F100.00
G01 X-21.2271 Y-2.9038 F100.00
G01 X-21.2089 Y-2.9636 F100.00
G01 X-21.1175 Y-3.1346 F100.00
G01 X-20.9945 Y-3.2845 F100.00
G01 X-20.8446 Y-3.4075 F100.00
G00 Z2.0000
G00 X-21.1175 Y-2.0354
G01 F60.00
G01 Z-0.0700
G01 F100.00
G01 X-21.2089 Y-2.2064 F100.00
G01 X-21.2271 Y-2.2662 F100.00
G01 X-21.1557 Y-2.2662 F100.00
G01 X-21.1061 Y-2.1536 F100.00
G01 X-21.0570 Y-2.0718 F100.00
G01 X-21.0030 Y-1.9996 F100.00
G01 X-20.9447 Y-1.9353 F100.00
G01 X-20.8804 Y-1.8770 F100.00
G01 X-20.8037 Y-1.8200 F100.00
G01 X-20.7310 Y-1.7764 F100.00
G01 X-20.6138 Y-1.7243 F100.00
G01 X-20.6138 Y-1.6529 F100.00
G01 X-20.6736 Y-1.6711 F100.00
G01 X-20.8446 Y-1.7625 F100.00
G01 X-20.9945 Y-1.8855 F100.00
G01 X-21.1175 Y-2.0354 F100.00
G00 Z2.0000
G00 X-22.1774 Y-1.7142
G01 F60.00
G01 Z-0.0700
G01 F100.00
G01 X-22.3486 Y-1.6082 F100.00
G01 X-22.5364 Y-1.5355 F100.00
G01 X-22.7343 Y-1.4985 F100.00
G01 X-22.9357 Y-1.4985 F100.00
G01 X-23.1336 Y-1.5355 F100.00
G01 X-23.3214 Y-1.6082 F100.00
G01 X-23.4926 Y-1.7142 F100.00
G01 X-23.6414 Y-1.8499 F100.00
G01 X-23.7628 Y-2.0106 F100.00
G01 X-23.8525 Y-2.1908 F100.00
G01 X-23.9076 Y-2.3845 F100.00
G01 X-23.9262 Y-2.5850 F100.00
G01 X-23.9081 Y-2.7800 F100.00
G01 X-23.8525 Y-2.9792 F100.00
G01 X-23.7628 Y-3.1594 F100.00
G01 X-23.6414 Y-3.3201 F100.00
G01 X-23.4926 Y-3.4558 F100.00
G01 X-23.3214 Y-3.5618 F100.00
G01 X-23.1336 Y-3.6345 F100.00
G01 X-22.9357 Y-3.6715 F100.00
G01 X-22.7343 Y-3.6715 F100.00
G01 X-22.5364 Y-3.6345 F100.00
G01 X-22.3486 Y-3.5618 F100.00
G01 X-22.1774 Y-3.4558 F100.00
G01 X-22.0198 Y-3.3084 F100.00
G01 X-21.9072 Y-3.1594 F100.00
G01 X-21.8175 Y-2.9792 F100.00
G01 X-21.7624 Y-2.7855 F100.00
G01 X-21.7438 Y-2.5850 F100.00
G01 X-21.7624 Y-2.3845 F100.00
G01 X-21.8175 Y-2.1908 F100.00
G01 X-21.9072 Y-2.0106 F100.00
G01 X-22.0286 Y-1.8499 F100.00
G01 X-22.1774 Y-1.7142 F100.00
G00 Z2.0000
G00 X-23.0157 Y-3.4858
G01 F60.00
G01 Z-0.0700
G01 F100.00
G01 X-23.1035 Y-3.4636 F100.00
G01 X-23.1882 Y-3.4331 F100.00
G01 X-23.2664 Y-3.3961 F100.00
G01 X-23.3437 Y-3.3500 F100.00
G01 X-23.4155 Y-3.2971 F100.00
G01 X-23.4847 Y-3.2347 F100.00
G01 X-23.5471 Y-3.1655 F100.00
G01 X-23.6000 Y-3.0937 F100.00
G01 X-23.6461 Y-3.0164 F100.00
G01 X-23.6831 Y-2.9382 F100.00
G01 X-23.7136 Y-2.8535 F100.00
G01 X-23.7358 Y-2.7657 F100.00
G01 X-23.7492 Y-2.6759 F100.00
G01 X-23.7537 Y-2.5850 F100.00
G01 X-23.7492 Y-2.4941 F100.00
G01 X-23.7358 Y-2.4043 F100.00
G01 X-23.7136 Y-2.3165 F100.00
G01 X-23.6831 Y-2.2318 F100.00
G01 X-23.6461 Y-2.1536 F100.00
G01 X-23.6000 Y-2.0763 F100.00
G01 X-23.5471 Y-2.0045 F100.00
G01 X-23.4847 Y-1.9353 F100.00
G01 X-23.4155 Y-1.8729 F100.00
G01 X-23.3437 Y-1.8200 F100.00
G01 X-23.2664 Y-1.7739 F100.00
G01 X-23.1882 Y-1.7369 F100.00
G01 X-23.1035 Y-1.7064 F100.00
G01 X-23.0157 Y-1.6842 F100.00
G01 X-22.9259 Y-1.6708 F100.00
G01 X-22.8350 Y-1.6663 F100.00
G01 X-22.7441 Y-1.6708 F100.00
G01 X-22.6543 Y-1.6842 F100.00
G01 X-22.5665 Y-1.7064 F100.00
G01 X-22.4818 Y-1.7369 F100.00
G01 X-22.4036 Y-1.7739 F100.00
G01 X-22.3263 Y-1.8200 F100.00
G01 X-22.2545 Y-1.8729 F100.00
G01 X-22.1853 Y-1.9353 F100.00
G01 X-22.1229 Y-2.0045 F100.00
G01 X-22.0700 Y-2.0763 F100.00
G01 X-22.0239 Y-2.1536 F100.00
G01 X-21.9869 Y-2.2318 F100.00
G01 X-21.9564 Y-2.3165 F100.00
G01 X-21.9342 Y-2.4043 F100.00
G01 X-21.9208 Y-2.4941 F100.00
G01 X-21.9163 Y-2.5850 F100.00
G01 X-21.9208 Y-2.6759 F100.00
G01 X-21.9342 Y-2.7657 F100.00
G01 X-21.9564 Y-2.8535 F100.00
G01 X-21.9869 Y-2.9382 F100.00
G01 X-22.0239 Y-3.0164 F100.00
G01 X-22.0700 Y-3.0937 F100.00
G01 X-22.1229 Y-3.1655 F100.00
G01 X-22.1853 Y-3.2347 F100.00
G01 X-22.2545 Y-3.2971 F100.00
G01 X-22.3263 Y-3.3500 F100.00
G01 X-22.4036 Y-3.3961 F100.00
G01 X-22.4818 Y-3.4331 F100.00
G01 X-22.5665 Y-3.4636 F100.00
G01 X-22.6543 Y-3.4858 F100.00
G01 X-22.7441 Y-3.4992 F100.00
G01 X-22.8350 Y-3.5037 F100.00
G01 X-22.9259 Y-3.4992 F100.00
G01 X-23.0157 Y-3.4858 F100.00
G00 Z2.0000
G00 X-19.9164 Y-1.6711
G01 F60.00
G01 Z-0.0700
G01 F100.00
G01 X-19.9762 Y-1.6529 F100.00
G01 X-19.9762 Y-1.7243 F100.00
G01 X-19.8590 Y-1.7764 F100.00
G01 X-19.7863 Y-1.8200 F100.00
G01 X-19.7096 Y-1.8770 F100.00
G01 X-19.6453 Y-1.9353 F100.00
G01 X-19.5870 Y-1.9996 F100.00
G01 X-19.5330 Y-2.0718 F100.00
G01 X-19.4839 Y-2.1536 F100.00
G01 X-19.4343 Y-2.2662 F100.00
G01 X-19.3629 Y-2.2662 F100.00
G01 X-19.3811 Y-2.2064 F100.00
G01 X-19.4725 Y-2.0354 F100.00
G01 X-19.5955 Y-1.8855 F100.00
G01 X-19.7454 Y-1.7625 F100.00
G01 X-19.9164 Y-1.6711 F100.00
G00 Z2.0000
G00 X-31.8069 Y-3.6871
G01 F60.00
G01 Z-0.0700
G01 F100.00
G01 X-31.8946 Y-3.6649 F100.00
G01 X-31.9793 Y-3.6344 F100.00
G01 X-32.0576 Y-3.5974 F100.00
G01 X-32.1348 Y-3.5513 F100.00
G01 X-32.2066 Y-3.4984 F100.00
G01 X-32.2758 Y-3.4360 F100.00
G01 X-32.3382 Y-3.3668 F100.00
G01 X-32.3912 Y-3.2950 F100.00
G01 X-32.4372 Y-3.2177 F100.00
G01 X-32.4742 Y-3.1395 F100.00
G01 X-32.5047 Y-3.0548 F100.00
G01 X-32.5269 Y-2.9670 F100.00
G01 X-32.5404 Y-2.8772 F100.00
G01 X-32.5449 Y-2.7863 F100.00
G01 X-32.5404 Y-2.6954 F100.00
G01 X-32.5269 Y-2.6056 F100.00
G01 X-32.5047 Y-2.5178 F100.00
G01 X-32.4742 Y-2.4331 F100.00
G01 X-32.4372 Y-2.3549 F100.00
G01 X-32.3912 Y-2.2776 F100.00
G01 X-32.3382 Y-2.2058 F100.00
G01 X-32.2758 Y-2.1366 F100.00
G01 X-32.2066 Y-2.0742 F100.00
G01 X-32.1348 Y-2.0213 F100.00
G01 X-32.0576 Y-1.9752 F100.00
G01 X-31.9793 Y-1.9382 F100.00
G01 X-31.8946 Y-1.9077 F100.00
G01 X-31.8069 Y-1.8855 F100.00
G01 X-31.7170 Y-1.8721 F100.00
G01 X-31.6261 Y-1.8676 F100.00
G01 X-31.5352 Y-1.8721 F100.00
G01 X-31.4454 Y-1.8855 F100.00
G01 X-31.3576 Y-1.9077 F100.00
G01 X-31.2729 Y-1.9382 F100.00
G01 X-31.1947 Y-1.9752 F100.00
G01 X-31.1174 Y-2.0213 F100.00
G01 X-31.0456 Y-2.0742 F100.00
G01 X-30.9765 Y-2.1366 F100.00
G01 X-30.9141 Y-2.2058 F100.00
G01 X-30.8611 Y-2.2776 F100.00
G01 X-30.8150 Y-2.3549 F100.00
G01 X-30.7780 Y-2.4331 F100.00
G01 X-30.7475 Y-2.5178 F100.00
G01 X-30.7253 Y-2.6056 F100.00
G01 X-30.7119 Y-2.6954 F100.00
G01 X-30.7074 Y-2.7863 F100.00
G01 X-30.7119 Y-2.8772 F100.00
G01 X-30.7253 Y-2.9670 F100.00
G01 X-30.7475 Y-3.0548 F100.00
G01 X-30.7780 Y-3.1395 F100.00
G01 X-30.8150 Y-3.2177 F100.00
G01 X-30.8611 Y-3.2950 F100.00
G01 X-30.9141 Y-3.3668 F100.00
G01 X-30.9765 Y-3.4360 F100.00
G01 X-31.0456 Y-3.4984 F100.00
G01 X-31.1174 Y-3.5513 F100.00
G01 X-31.1947 Y-3.5974 F100.00
G01 X-31.2729 Y-3.6344 F100.00
G01 X-31.3576 Y-3.6649 F100.00
G01 X-31.4454 Y-3.6871 F100.00
G01 X-31.5352 Y-3.7005 F100.00
G01 X-31.6261 Y-3.7050 F100.00
G01 X-31.7170 Y-3.7005 F100.00
G01 X-31.8069 Y-3.6871 F100.00
G00 Z2.0000
G00 X-32.1125 Y-3.7631
G01 F60.00
G01 Z-0.0700
G01 F100.00
G01 X-31.9247 Y-3.8358 F100.00
G01 X-31.7268 Y-3.8728 F100.00
G01 X-31.5254 Y-3.8728 F100.00
G01 X-31.3275 Y-3.8358 F100.00
G01 X-31.1397 Y-3.7631 F100.00
G01 X-30.9685 Y-3.6571 F100.00
G01 X-30.8197 Y-3.5214 F100.00
G01 X-30.6984 Y-3.3607 F100.00
G01 X-30.6086 Y-3.1805 F100.00
G01 X-30.5535 Y-2.9868 F100.00
G01 X-30.5349 Y-2.7863 F100.00
G01 X-30.5535 Y-2.5858 F100.00
G01 X-30.6086 Y-2.3921 F100.00
G01 X-30.6984 Y-2.2119 F100.00
G01 X-30.8197 Y-2.0512 F100.00
G01 X-30.9685 Y-1.9155 F100.00
G01 X-31.1397 Y-1.8095 F100.00
G01 X-31.3275 Y-1.7368 F100.00
G01 X-31.5254 Y-1.6998 F100.00
G01 X-31.7268 Y-1.6998 F100.00
G01 X-31.9247 Y-1.7368 F100.00
G01 X-32.1125 Y-1.8095 F100.00
G01 X-32.2837 Y-1.9155 F100.00
G01 X-32.4325 Y-2.0512 F100.00
G01 X-32.5539 Y-2.2119 F100.00
G01 X-32.6436 Y-2.3921 F100.00
G01 X-32.6987 Y-2.5858 F100.00
G01 X-32.7173 Y-2.7863 F100.00
G01 X-32.6987 Y-2.9868 F100.00
G01 X-32.6436 Y-3.1805 F100.00
G01 X-32.5539 Y-3.3607 F100.00
G01 X-32.4325 Y-3.5214 F100.00
G01 X-32.2837 Y-3.6571 F100.00
G01 X-32.1125 Y-3.7631 F100.00
G00 Z2.0000
G00 X-34.3469 Y-3.6871
G01 F60.00
G01 Z-0.0700
G01 F100.00
G01 X-34.4346 Y-3.6649 F100.00
G01 X-34.5193 Y-3.6344 F100.00
G01 X-34.5976 Y-3.5974 F100.00
G01 X-34.6748 Y-3.5513 F100.00
G01 X-34.7466 Y-3.4984 F100.00
G01 X-34.8158 Y-3.4360 F100.00
G01 X-34.8782 Y-3.3668 F100.00
G01 X-34.9312 Y-3.2950 F100.00
G01 X-34.9772 Y-3.2177 F100.00
G01 X-35.0142 Y-3.1395 F100.00
G01 X-35.0447 Y-3.0548 F100.00
G01 X-35.0669 Y-2.9670 F100.00
G01 X-35.0804 Y-2.8772 F100.00
G01 X-35.0849 Y-2.7863 F100.00
G01 X-35.0804 Y-2.6954 F100.00
G01 X-35.0669 Y-2.6056 F100.00
G01 X-35.0447 Y-2.5178 F100.00
G01 X-35.0142 Y-2.4331 F100.00
G01 X-34.9772 Y-2.3549 F100.00
G01 X-34.9312 Y-2.2776 F100.00
G01 X-34.8782 Y-2.2058 F100.00
G01 X-34.8158 Y-2.1366 F100.00
G01 X-34.7466 Y-2.0742 F100.00
G01 X-34.6748 Y-2.0213 F100.00
G01 X-34.5976 Y-1.9752 F100.00
G01 X-34.5193 Y-1.9382 F100.00
G01 X-34.4346 Y-1.9077 F100.00
G01 X-34.3469 Y-1.8855 F100.00
G01 X-34.2570 Y-1.8721 F100.00
G01 X-34.1661 Y-1.8676 F100.00
G01 X-34.0752 Y-1.8721 F100.00
G01 X-33.9854 Y-1.8855 F100.00
G01 X-33.8976 Y-1.9077 F100.00
G01 X-33.8129 Y-1.9382 F100.00
G01 X-33.7347 Y-1.9752 F100.00
G01 X-33.6574 Y-2.0213 F100.00
G01 X-33.5856 Y-2.0742 F100.00
G01 X-33.5165 Y-2.1366 F100.00
G01 X-33.4541 Y-2.2058 F100.00
G01 X-33.4011 Y-2.2776 F100.00
G01 X-33.3550 Y-2.3549 F100.00
G01 X-33.3180 Y-2.4331 F100.00
G01 X-33.2875 Y-2.5178 F100.00
G01 X-33.2653 Y-2.6056 F100.00
G01 X-33.2519 Y-2.6954 F100.00
G01 X-33.2474 Y-2.7863 F100.00
G01 X-33.2519 Y-2.8772 F100.00
G01 X-33.2653 Y-2.9670 F100.00
G01 X-33.2875 Y-3.0548 F100.00
G01 X-33.3180 Y-3.1395 F100.00
G01 X-33.3550 Y-3.2177 F100.00
G01 X-33.4011 Y-3.2950 F100.00
G01 X-33.4541 Y-3.3668 F100.00
G01 X-33.5165 Y-3.4360 F100.00
G01 X-33.5856 Y-3.4984 F100.00
G01 X-33.6574 Y-3.5513 F100.00
G01 X-33.7347 Y-3.5974 F100.00
G01 X-33.8129 Y-3.6344 F100.00
G01 X-33.8976 Y-3.6649 F100.00
G01 X-33.9854 Y-3.6871 F100.00
G01 X-34.0752 Y-3.7005 F100.00
G01 X-34.1661 Y-3.7050 F100.00
G01 X-34.2570 Y-3.7005 F100.00
G01 X-34.3469 Y-3.6871 F100.00
G00 Z2.0000
G00 X-34.6525 Y-3.7631
G01 F60.00
G01 Z-0.0700
G01 F100.00
G01 X-34.4647 Y-3.8358 F100.00
G01 X-34.2668 Y-3.8728 F100.00
G01 X-34.0654 Y-3.8728 F100.00
G01 X-33.8675 Y-3.8358 F100.00
G01 X-33.6797 Y-3.7631 F100.00
G01 X-33.5085 Y-3.6571 F100.00
G01 X-33.3597 Y-3.5214 F100.00
G01 X-33.2384 Y-3.3607 F100.00
G01 X-33.1486 Y-3.1805 F100.00
G01 X-33.0935 Y-2.9868 F100.00
G01 X-33.0749 Y-2.7863 F100.00
G01 X-33.0935 Y-2.5858 F100.00
G01 X-33.1486 Y-2.3921 F100.00
G01 X-33.2384 Y-2.2119 F100.00
G01 X-33.3597 Y-2.0512 F100.00
G01 X-33.5085 Y-1.9155 F100.00
G01 X-33.6797 Y-1.8095 F100.00
G01 X-33.8675 Y-1.7368 F100.00
G01 X-34.0654 Y-1.6998 F100.00
G01 X-34.2668 Y-1.6998 F100.00
G01 X-34.4647 Y-1.7368 F100.00
G01 X-34.6525 Y-1.8095 F100.00
G01 X-34.8237 Y-1.9155 F100.00
G01 X-34.9725 Y-2.0512 F100.00
G01 X-35.0939 Y-2.2119 F100.00
G01 X-35.1836 Y-2.3921 F100.00
G01 X-35.2387 Y-2.5858 F100.00
G01 X-35.2573 Y-2.7863 F100.00
G01 X-35.2387 Y-2.9868 F100.00
G01 X-35.1836 Y-3.1805 F100.00
G01 X-35.0939 Y-3.3607 F100.00
G01 X-34.9725 Y-3.5214 F100.00
G01 X-34.8237 Y-3.6571 F100.00
G01 X-34.6525 Y-3.7631 F100.00
G00 Z2.0000
G00 X-36.8869 Y-3.6871
G01 F60.00
G01 Z-0.0700
G01 F100.00
G01 X-36.9746 Y-3.6649 F100.00
G01 X-37.0593 Y-3.6344 F100.00
G01 X-37.1376 Y-3.5974 F100.00
G01 X-37.2148 Y-3.5513 F100.00
G01 X-37.2866 Y-3.4984 F100.00
G01 X-37.3558 Y-3.4360 F100.00
G01 X-37.4182 Y-3.3668 F100.00
G01 X-37.4712 Y-3.2950 F100.00
G01 X-37.5172 Y-3.2177 F100.00
G01 X-37.5542 Y-3.1395 F100.00
G01 X-37.5847 Y-3.0548 F100.00
G01 X-37.6069 Y-2.9670 F100.00
G01 X-37.6204 Y-2.8772 F100.00
G01 X-37.6249 Y-2.7863 F100.00
G01 X-37.6204 Y-2.6954 F100.00
G01 X-37.6069 Y-2.6056 F100.00
G01 X-37.5847 Y-2.5178 F100.00
G01 X-37.5542 Y-2.4331 F100.00
G01 X-37.5172 Y-2.3549 F100.00
G01 X-37.4712 Y-2.2776 F100.00
G01 X-37.4182 Y-2.2058 F100.00
G01 X-37.3558 Y-2.1366 F100.00
G01 X-37.2866 Y-2.0742 F100.00
G01 X-37.2148 Y-2.0213 F100.00
G01 X-37.1376 Y-1.9752 F100.00
G01 X-37.0593 Y-1.9382 F100.00
G01 X-36.9746 Y-1.9077 F100.00
G01 X-36.8869 Y-1.8855 F100.00
G01 X-36.7970 Y-1.8721 F100.00
G01 X-36.7061 Y-1.8676 F100.00
G01 X-36.6152 Y-1.8721 F100.00
G01 X-36.5254 Y-1.8855 F100.00
G01 X-36.4376 Y-1.9077 F100.00
G01 X-36.3529 Y-1.9382 F100.00
G01 X-36.2747 Y-1.9752 F100.00
G01 X-36.1974 Y-2.0213 F100.00
G01 X-36.1256 Y-2.0742 F100.00
G01 X-36.0565 Y-2.1366 F100.00
G01 X-35.9941 Y-2.2058 F100.00
G01 X-35.9411 Y-2.2776 F100.00
G01 X-35.8950 Y-2.3549 F100.00
G01 X-35.8580 Y-2.4331 F100.00
G01 X-35.8275 Y-2.5178 F100.00
G01 X-35.8053 Y-2.6056 F100.00
G01 X-35.7919 Y-2.6954 F100.00
G01 X-35.7874 Y-2.7863 F100.00
G01 X-35.7919 Y-2.8772 F100.00
G01 X-35.8053 Y-2.9670 F100.00
G01 X-35.8275 Y-3.0548 F100.00
G01 X-35.8580 Y-3.1395 F100.00
G01 X-35.8950 Y-3.2177 F100.00
G01 X-35.9411 Y-3.2950 F100.00
G01 X-35.9941 Y-3.3668 F100.00
G01 X-36.0565 Y-3.4360 F100.00
G01 X-36.1256 Y-3.4984 F100.00
G01 X-36.1974 Y-3.5513 F100.00
G01 X-36.2747 Y-3.5974 F100.00
G01 X-36.3529 Y-3.6344 F100.00
G01 X-36.4376 Y-3.6649 F100.00
G01 X-36.5254 Y-3.6871 F100.00
G01 X-36.6152 Y-3.7005 F100.00
G01 X-36.7061 Y-3.7050 F100.00
G01 X-36.7970 Y-3.7005 F100.00
G01 X-36.8869 Y-3.6871 F100.00
G00 Z2.0000
G00 X-37.1925 Y-3.7631
G01 F60.00
G01 Z-0.0700
G01 F100.00
G01 X-37.0047 Y-3.8358 F100.00
G01 X-36.8068 Y-3.8728 F100.00
G01 X-36.6054 Y-3.8728 F100.00
G01 X-36.4075 Y-3.8358 F100.00
G01 X-36.2197 Y-3.7631 F100.00
G01 X-36.0485 Y-3.6571 F100.00
G01 X-35.8997 Y-3.5214 F100.00
G01 X-35.7784 Y-3.3607 F100.00
G01 X-35.6886 Y-3.1805 F100.00
G01 X-35.6335 Y-2.9868 F100.00
G01 X-35.6149 Y-2.7863 F100.00
G01 X-35.6335 Y-2.5858 F100.00
G01 X-35.6886 Y-2.3921 F100.00
G01 X-35.7784 Y-2.2119 F100.00
G01 X-35.8997 Y-2.0512 F100.00
G01 X-36.0485 Y-1.9155 F100.00
G01 X-36.2197 Y-1.8095 F100.00
G01 X-36.4075 Y-1.7368 F100.00
G01 X-36.6054 Y-1.6998 F100.00
G01 X-36.8068 Y-1.6998 F100.00
G01 X-37.0047 Y-1.7368 F100.00
G01 X-37.1925 Y-1.8095 F100.00
G01 X-37.3637 Y-1.9155 F100.00
G01 X-37.5125 Y-2.0512 F100.00
G01 X-37.6339 Y-2.2119 F100.00
G01 X-37.7236 Y-2.3921 F100.00
G01 X-37.7787 Y-2.5858 F100.00
G01 X-37.7973 Y-2.7863 F100.00
G01 X-37.7787 Y-2.9868 F100.00
G01 X-37.7236 Y-3.1805 F100.00
G01 X-37.6339 Y-3.3607 F100.00
G01 X-37.5125 Y-3.5214 F100.00
G01 X-37.3637 Y-3.6571 F100.00
G01 X-37.1925 Y-3.7631 F100.00
G00 Z2.0000
G00 X-39.4269 Y-3.6871
G01 F60.00
G01 Z-0.0700
G01 F100.00
G01 X-39.5146 Y-3.6649 F100.00
G01 X-39.5993 Y-3.6344 F100.00
G01 X-39.6776 Y-3.5974 F100.00
G01 X-39.7548 Y-3.5513 F100.00
G01 X-39.8266 Y-3.4984 F100.00
G01 X-39.8958 Y-3.4360 F100.00
G01 X-39.9582 Y-3.3668 F100.00
G01 X-40.0112 Y-3.2950 F100.00
G01 X-40.0572 Y-3.2177 F100.00
G01 X-40.0942 Y-3.1395 F100.00
G01 X-40.1247 Y-3.0548 F100.00
G01 X-40.1469 Y-2.9670 F100.00
G01 X-40.1604 Y-2.8772 F100.00
G01 X-40.1649 Y-2.7863 F100.00
G01 X-40.1604 Y-2.6954 F100.00
G01 X-40.1469 Y-2.6056 F100.00
G01 X-40.1247 Y-2.5178 F100.00
G01 X-40.0942 Y-2.4331 F100.00
G01 X-40.0572 Y-2.3549 F100.00
G01 X-40.0112 Y-2.2776 F100.00
G01 X-39.9582 Y-2.2058 F100.00
G01 X-39.8958 Y-2.1366 F100.00
G01 X-39.8266 Y-2.0742 F100.00
G01 X-39.7548 Y-2.0213 F100.00
G01 X-39.6776 Y-1.9752 F100.00
G01 X-39.5993 Y-1.9382 F100.00
G01 X-39.5146 Y-1.9077 F100.00
G01 X-39.4269 Y-1.8855 F100.00
G01 X-39.3370 Y-1.8721 F100.00
G01 X-39.2461 Y-1.8676 F100.00
G01 X-39.1552 Y-1.8721 F100.00
G01 X-39.0654 Y-1.8855 F100.00
G01 X-38.9776 Y-1.9077 F100.00
G01 X-38.8929 Y-1.9382 F100.00
G01 X-38.8147 Y-1.9752 F100.00
G01 X-38.7374 Y-2.0213 F100.00
G01 X-38.6656 Y-2.0742 F100.00
G01 X-38.5965 Y-2.1366 F100.00
G01 X-38.5341 Y-2.2058 F100.00
G01 X-38.4811 Y-2.2776 F100.00
G01 X-38.4350 Y-2.3549 F100.00
G01 X-38.3980 Y-2.4331 F100.00
G01 X-38.3675 Y-2.5178 F100.00
G01 X-38.3453 Y-2.6056 F100.00
G01 X-38.3319 Y-2.6954 F100.00
G01 X-38.3274 Y-2.7863 F100.00
G01 X-38.3319 Y-2.8772 F100.00
G01 X-38.3453 Y-2.9670 F100.00
G01 X-38.3675 Y-3.0548 F100.00
G01 X-38.3980 Y-3.1395 F100.00
G01 X-38.4350 Y-3.2177 F100.00
G01 X-38.4811 Y-3.2950 F100.00
G01 X-38.5341 Y-3.3668 F100.00
G01 X-38.5965 Y-3.4360 F100.00
G01 X-38.6656 Y-3.4984 F100.00
G01 X-38.7374 Y-3.5513 F100.00
G01 X-38.8147 Y-3.5974 F100.00
G01 X-38.8929 Y-3.6344 F100.00
G01 X-38.9776 Y-3.6649 F100.00
G01 X-39.0654 Y-3.6871 F100.00
G01 X-39.1552 Y-3.7005 F100.00
G01 X-39.2461 Y-3.7050 F100.00
G01 X-39.3370 Y-3.7005 F100.00
G01 X-39.4269 Y-3.6871 F100.00
G00 Z2.0000
G00 X-39.7325 Y-3.7631
G01 F60.00
G01 Z-0.0700
G01 F100.00
G01 X-39.5447 Y-3.8358 F100.00
G01 X-39.3468 Y-3.8728 F100.00
G01 X-39.1454 Y-3.8728 F100.00
G01 X-38.9475 Y-3.8358 F100.00
G01 X-38.7597 Y-3.7631 F100.00
G01 X-38.5885 Y-3.6571 F100.00
G01 X-38.4397 Y-3.5214 F100.00
G01 X-38.3184 Y-3.3607 F100.00
G01 X-38.2286 Y-3.1805 F100.00
G01 X-38.1735 Y-2.9868 F100.00
G01 X-38.1549 Y-2.7863 F100.00
G01 X-38.1735 Y-2.5858 F100.00
G01 X-38.2286 Y-2.3921 F100.00
G01 X-38.3184 Y-2.2119 F100.00
G01 X-38.4397 Y-2.0512 F100.00
G01 X-38.5885 Y-1.9155 F100.00
G01 X-38.7597 Y-1.8095 F100.00
G01 X-38.9475 Y-1.7368 F100.00
G01 X-39.1454 Y-1.6998 F100.00
G01 X-39.3468 Y-1.6998 F100.00
G01 X-39.5447 Y-1.7368 F100.00
G01 X-39.7325 Y-1.8095 F100.00
G01 X-39.9037 Y-1.9155 F100.00
G01 X-40.0525 Y-2.0512 F100.00
G01 X-40.1739 Y-2.2119 F100.00
G01 X-40.2636 Y-2.3921 F100.00
G01 X-40.3187 Y-2.5858 F100.00
G01 X-40.3373 Y-2.7863 F100.00
G01 X-40.3187 Y-2.9868 F100.00
G01 X-40.2636 Y-3.1805 F100.00
G01 X-40.1739 Y-3.3607 F100.00
G01 X-40.0525 Y-3.5214 F100.00
G01 X-39.9037 Y-3.6571 F100.00
G01 X-39.7325 Y-3.7631 F100.00
G00 Z2.0000
G00 X-41.9669 Y-3.6871
G01 F60.00
G01 Z-0.0700
G01 F100.00
G01 X-42.0546 Y-3.6649 F100.00
G01 X-42.1393 Y-3.6344 F100.00
G01 X-42.2176 Y-3.5974 F100.00
G01 X-42.2948 Y-3.5513 F100.00
G01 X-42.3666 Y-3.4984 F100.00
G01 X-42.4358 Y-3.4360 F100.00
G01 X-42.4982 Y-3.3668 F100.00
G01 X-42.5512 Y-3.2950 F100.00
G01 X-42.5972 Y-3.2177 F100.00
G01 X-42.6342 Y-3.1395 F100.00
G01 X-42.6647 Y-3.0548 F100.00
G01 X-42.6869 Y-2.9670 F100.00
G01 X-42.7004 Y-2.8772 F100.00
G01 X-42.7049 Y-2.7863 F100.00
G01 X-42.7004 Y-2.6954 F100.00
G01 X-42.6869 Y-2.6056 F100.00
G01 X-42.6647 Y-2.5178 F100.00
G01 X-42.6342 Y-2.4331 F100.00
G01 X-42.5972 Y-2.3549 F100.00
G01 X-42.5512 Y-2.2776 F100.00
G01 X-42.4982 Y-2.2058 F100.00
G01 X-42.4358 Y-2.1366 F100.00
G01 X-42.3666 Y-2.0742 F100.00
G01 X-42.2948 Y-2.0213 F100.00
G01 X-42.2176 Y-1.9752 F100.00
G01 X-42.1393 Y-1.9382 F100.00
G01 X-42.0546 Y-1.9077 F100.00
G01 X-41.9669 Y-1.8855 F100.00
G01 X-41.8770 Y-1.8721 F100.00
G01 X-41.7861 Y-1.8676 F100.00
G01 X-41.6952 Y-1.8721 F100.00
G01 X-41.6054 Y-1.8855 F100.00
G01 X-41.5176 Y-1.9077 F100.00
G01 X-41.4329 Y-1.9382 F100.00
G01 X-41.3547 Y-1.9752 F100.00
G01 X-41.2774 Y-2.0213 F100.00
G01 X-41.2056 Y-2.0742 F100.00
G01 X-41.1365 Y-2.1366 F100.00
G01 X-41.0741 Y-2.2058 F100.00
G01 X-41.0211 Y-2.2776 F100.00
G01 X-40.9750 Y-2.3549 F100.00
G01 X-40.9380 Y-2.4331 F100.00
G01 X-40.9075 Y-2.5178 F100.00
G01 X-40.8853 Y-2.6056 F100.00
G01 X-40.8719 Y-2.6954 F100.00
G01 X-40.8674 Y-2.7863 F100.00
G01 X-40.8719 Y-2.8772 F100.00
G01 X-40.8853 Y-2.9670 F100.00
G01 X-40.9075 Y-3.0548 F100.00
G01 X-40.9380 Y-3.1395 F100.00
G01 X-40.9750 Y-3.2177 F100.00
G01 X-41.0211 Y-3.2950 F100.00
G01 X-41.0741 Y-3.3668 F100.00
G01 X-41.1365 Y-3.4360 F100.00
G01 X-41.2056 Y-3.4984 F100.00
G01 X-41.2774 Y-3.5513 F100.00
G01 X-41.3547 Y-3.5974 F100.00
G01 X-41.4329 Y-3.6344 F100.00
G01 X-41.5176 Y-3.6649 F100.00
G01 X-41.6054 Y-3.6871 F100.00
G01 X-41.6952 Y-3.7005 F100.00
G01 X-41.7861 Y-3.7050 F100.00
G01 X-41.8770 Y-3.7005 F100.00
G01 X-41.9669 Y-3.6871 F100.00
G00 Z2.0000
G00 X-42.2725 Y-3.7631
G01 F60.00
G01 Z-0.0700
G01 F100.00
G01 X-42.0847 Y-3.8358 F100.00
G01 X-41.8868 Y-3.8728 F100.00
G01 X-41.6854 Y-3.8728 F100.00
G01 X-41.4875 Y-3.8358 F100.00
G01 X-41.2997 Y-3.7631 F100.00
G01 X-41.1285 Y-3.6571 F100.00
G01 X-40.9797 Y-3.5214 F100.00
G01 X-40.8584 Y-3.3607 F100.00
G01 X-40.7686 Y-3.1805 F100.00
G01 X-40.7135 Y-2.9868 F100.00
G01 X-40.6949 Y-2.7863 F100.00
G01 X-40.7135 Y-2.5858 F100.00
G01 X-40.7686 Y-2.3921 F100.00
G01 X-40.8584 Y-2.2119 F100.00
G01 X-40.9797 Y-2.0512 F100.00
G01 X-41.1285 Y-1.9155 F100.00
G01 X-41.2997 Y-1.8095 F100.00
G01 X-41.4875 Y-1.7368 F100.00
G01 X-41.6854 Y-1.6998 F100.00
G01 X-41.8868 Y-1.6998 F100.00
G01 X-42.0847 Y-1.7368 F100.00
G01 X-42.2725 Y-1.8095 F100.00
G01 X-42.4437 Y-1.9155 F100.00
G01 X-42.5925 Y-2.0512 F100.00
G01 X-42.7139 Y-2.2119 F100.00
G01 X-42.8036 Y-2.3921 F100.00
G01 X-42.8587 Y-2.5858 F100.00
G01 X-42.8773 Y-2.7863 F100.00
G01 X-42.8587 Y-2.9868 F100.00
G01 X-42.8036 Y-3.1805 F100.00
G01 X-42.7139 Y-3.3607 F100.00
G01 X-42.5925 Y-3.5214 F100.00
G01 X-42.4437 Y-3.6571 F100.00
G01 X-42.2725 Y-3.7631 F100.00
G00 Z2.0000
G00 X-43.3417 Y-3.1051
G01 F60.00
G01 Z-0.0700
G01 F100.00
G01 X-43.4074 Y-3.1051 F100.00
G01 X-43.4075 Y-3.6398 F100.00
G01 X-43.4133 Y-3.6642 F100.00
G01 X-43.4275 Y-3.6849 F100.00
G01 X-43.4482 Y-3.6991 F100.00
G01 X-43.4726 Y-3.7050 F100.00
G01 X-44.0074 Y-3.7051 F100.00
G01 X-44.0074 Y-3.7707 F100.00
G01 X-43.4629 Y-3.7707 F100.00
G01 X-43.4237 Y-3.7629 F100.00
G01 X-43.3792 Y-3.7332 F100.00
G01 X-43.3495 Y-3.6888 F100.00
G01 X-43.3417 Y-3.6495 F100.00
G01 X-43.3417 Y-3.1051 F100.00
G00 Z2.0000
G00 X-44.0074 Y-1.8019
G01 F60.00
G01 Z-0.0700
G01 F100.00
G01 X-44.0074 Y-1.8675 F100.00
G01 X-43.4726 Y-1.8676 F100.00
G01 X-43.4482 Y-1.8735 F100.00
G01 X-43.4275 Y-1.8877 F100.00
G01 X-43.4133 Y-1.9084 F100.00
G01 X-43.4075 Y-1.9328 F100.00
G01 X-43.4074 Y-2.4675 F100.00
G01 X-43.3417 Y-2.4675 F100.00
G01 X-43.3417 Y-1.9231 F100.00
G01 X-43.3495 Y-1.8838 F100.00
G01 X-43.3792 Y-1.8394 F100.00
G01 X-43.4237 Y-1.8097 F100.00
G01 X-43.4629 Y-1.8019 F100.00
G01 X-44.0074 Y-1.8019 F100.00
G00 Z2.0000
G00 X-45.2445 Y-1.9295
G01 F60.00
G01 Z-0.0700
G01 F100.00
G01 X-45.2383 Y-1.9070 F100.00
G01 X-45.2247 Y-1.8877 F100.00
G01 X-45.2054 Y-1.8741 F100.00
G01 X-45.1830 Y-1.8679 F100.00
G01 X-44.6449 Y-1.8675 F100.00
G01 X-44.6449 Y-1.8019 F100.00
G01 X-45.1894 Y-1.8019 F100.00
G01 X-45.2286 Y-1.8097 F100.00
G01 X-45.2731 Y-1.8394 F100.00
G01 X-45.3028 Y-1.8838 F100.00
G01 X-45.3106 Y-1.9231 F100.00
G01 X-45.3106 Y-2.4675 F100.00
G01 X-45.2449 Y-2.4675 F100.00
G01 X-45.2445 Y-1.9295 F100.00
G00 Z2.0000
G00 X-45.1830 Y-3.7047
G01 F60.00
G01 Z-0.0700
G01 F100.00
G01 X-45.2054 Y-3.6985 F100.00
G01 X-45.2247 Y-3.6849 F100.00
G01 X-45.2383 Y-3.6656 F100.00
G01 X-45.2445 Y-3.6431 F100.00
G01 X-45.2449 Y-3.1051 F100.00
G01 X-45.3106 Y-3.1051 F100.00
G01 X-45.3106 Y-3.6495 F100.00
G01 X-45.3028 Y-3.6888 F100.00
G01 X-45.2731 Y-3.7332 F100.00
G01 X-45.2286 Y-3.7629 F100.00
G01 X-45.1894 Y-3.7707 F100.00
G01 X-44.6449 Y-3.7707 F100.00
G01 X-44.6449 Y-3.7051 F100.00
G01 X-45.1830 Y-3.7047 F100.00
G00 Z2.0000
G00 X-48.4153 Y-11.4178
G01 F60.00
G01 Z-0.0700
G01 F100.00
G01 X-48.4596 Y-11.4945 F100.00
G01 X-48.4825 Y-11.5801 F100.00
G01 X-48.4825 Y-12.0243 F100.00
G01 X-48.4596 Y-12.1099 F100.00
G01 X-48.4153 Y-12.1866 F100.00
G01 X-48.3526 Y-12.2493 F100.00
G01 X-48.2759 Y-12.2936 F100.00
G01 X-48.1903 Y-12.3165 F100.00
G01 X-48.1017 Y-12.3165 F100.00
G01 X-48.0161 Y-12.2936 F100.00
G01 X-47.9393 Y-12.2493 F100.00
G01 X-47.8767 Y-12.1866 F100.00
G01 X-47.8324 Y-12.1099 F100.00
G01 X-47.8095 Y-12.0243 F100.00
G01 X-47.8093 Y-11.7507 F100.00
G01 X-47.7841 Y-11.6433 F100.00
G01 X-47.7841 Y-11.5547 F100.00
G01 X-47.8070 Y-11.4691 F100.00
G01 X-47.8513 Y-11.3924 F100.00
G01 X-47.9140 Y-11.3297 F100.00
G01 X-47.9907 Y-11.2854 F100.00
G01 X-48.0763 Y-11.2625 F100.00
G01 X-48.1649 Y-11.2625 F100.00
G01 X-48.2505 Y-11.2854 F100.00
G01 X-48.3272 Y-11.3297 F100.00
G01 X-48.4153 Y-11.4178 F100.00
G00 Z2.0000
G00 X-48.2677 Y-11.5075
G01 F60.00
G01 Z-0.0700
G01 F100.00
G01 X-48.2253 Y-11.4667 F100.00
G01 X-48.1883 Y-11.4444 F100.00
G01 X-48.1405 Y-11.4314 F100.00
G01 X-48.1007 Y-11.4314 F100.00
G01 X-48.0529 Y-11.4444 F100.00
G01 X-48.0110 Y-11.4707 F100.00
G01 X-47.9784 Y-11.5081 F100.00
G01 X-47.9582 Y-11.5533 F100.00
G01 X-47.9526 Y-11.5824 F100.00
G01 X-47.9530 Y-11.6189 F100.00
G01 X-47.9601 Y-11.6512 F100.00
G01 X-47.9772 Y-11.6879 F100.00
G01 X-47.9772 Y-11.9800 F100.00
G01 X-47.9812 Y-12.0162 F100.00
G01 X-47.9977 Y-12.0606 F100.00
G01 X-48.0243 Y-12.0969 F100.00
G01 X-48.0551 Y-12.1222 F100.00
G01 X-48.1003 Y-12.1424 F100.00
G01 X-48.1626 Y-12.1480 F100.00
G01 X-48.1948 Y-12.1416 F100.00
G01 X-48.2266 Y-12.1283 F100.00
G01 X-48.2556 Y-12.1083 F100.00
G01 X-48.2783 Y-12.0847 F100.00
G01 X-48.2964 Y-12.0566 F100.00
G01 X-48.3084 Y-12.0257 F100.00
G01 X-48.3148 Y-11.9800 F100.00
G01 X-48.3140 Y-11.6078 F100.00
G01 X-48.3006 Y-11.5567 F100.00
G01 X-48.2677 Y-11.5075 F100.00
G00 Z2.0000
G00 X-54.4452 Y-4.1088
G01 F60.00
G01 Z-0.0700
G01 F100.00
G01 X-54.2946 Y-3.9452 F100.00
G01 X-54.1696 Y-3.7538 F100.00
G01 X-54.0777 Y-3.5445 F100.00
G01 X-54.0216 Y-3.3228 F100.00
G01 X-54.0027 Y-3.0950 F100.00
G01 X-54.0216 Y-2.8672 F100.00
G01 X-54.0777 Y-2.6455 F100.00
G01 X-54.1696 Y-2.4362 F100.00
G01 X-54.2946 Y-2.2448 F100.00
G01 X-54.4495 Y-2.0765 F100.00
G01 X-54.6299 Y-1.9361 F100.00
G01 X-54.8310 Y-1.8273 F100.00
G01 X-55.0472 Y-1.7531 F100.00
G01 X-55.2727 Y-1.7155 F100.00
G01 X-55.5013 Y-1.7155 F100.00
G01 X-55.7268 Y-1.7531 F100.00
G01 X-55.9431 Y-1.8273 F100.00
G01 X-56.1441 Y-1.9361 F100.00
G01 X-56.3245 Y-2.0766 F100.00
G01 X-56.4794 Y-2.2448 F100.00
G01 X-56.6044 Y-2.4362 F100.00
G01 X-56.6963 Y-2.6455 F100.00
G01 X-56.7524 Y-2.8672 F100.00
G01 X-56.7713 Y-3.0950 F100.00
G01 X-56.7524 Y-3.3228 F100.00
G01 X-56.6963 Y-3.5445 F100.00
G01 X-56.6044 Y-3.7538 F100.00
G01 X-56.4794 Y-3.9452 F100.00
G01 X-56.3245 Y-4.1134 F100.00
G01 X-56.1441 Y-4.2539 F100.00
G01 X-55.9431 Y-4.3627 F100.00
G01 X-55.7268 Y-4.4369 F100.00
G01 X-55.5013 Y-4.4745 F100.00
G01 X-55.2727 Y-4.4745 F100.00
G01 X-55.0472 Y-4.4369 F100.00
G01 X-54.8309 Y-4.3627 F100.00
G01 X-54.6299 Y-4.2539 F100.00
G01 X-54.4452 Y-4.1088 F100.00
G00 Z2.0000
G00 X-56.5755 Y-2.8585
G01 F60.00
G01 Z-0.0700
G01 F100.00
G01 X-56.5455 Y-2.7400 F100.00
G01 X-56.5058 Y-2.6297 F100.00
G01 X-56.4572 Y-2.5268 F100.00
G01 X-56.3957 Y-2.4235 F100.00
G01 X-56.3227 Y-2.3251 F100.00
G01 X-56.2438 Y-2.2382 F100.00
G01 X-56.1569 Y-2.1593 F100.00
G01 X-56.0585 Y-2.0863 F100.00
G01 X-55.9552 Y-2.0248 F100.00
G01 X-55.8523 Y-1.9762 F100.00
G01 X-55.7420 Y-1.9365 F100.00
G01 X-55.6235 Y-1.9065 F100.00
G01 X-55.5059 Y-1.8891 F100.00
G01 X-55.3870 Y-1.8833 F100.00
G01 X-55.2681 Y-1.8891 F100.00
G01 X-55.1505 Y-1.9065 F100.00
G01 X-55.0320 Y-1.9365 F100.00
G01 X-54.9217 Y-1.9762 F100.00
G01 X-54.8188 Y-2.0248 F100.00
G01 X-54.7155 Y-2.0863 F100.00
G01 X-54.6171 Y-2.1593 F100.00
G01 X-54.5302 Y-2.2382 F100.00
G01 X-54.4513 Y-2.3251 F100.00
G01 X-54.3783 Y-2.4235 F100.00
G01 X-54.3168 Y-2.5268 F100.00
G01 X-54.2682 Y-2.6297 F100.00
G01 X-54.2285 Y-2.7400 F100.00
G01 X-54.1985 Y-2.8585 F100.00
G01 X-54.1811 Y-2.9761 F100.00
G01 X-54.1753 Y-3.0950 F100.00
G01 X-54.1811 Y-3.2139 F100.00
G01 X-54.1985 Y-3.3315 F100.00
G01 X-54.2285 Y-3.4500 F100.00
G01 X-54.2682 Y-3.5603 F100.00
G01 X-54.3168 Y-3.6632 F100.00
G01 X-54.3783 Y-3.7665 F100.00
G01 X-54.4513 Y-3.8649 F100.00
G01 X-54.5302 Y-3.9518 F100.00
G01 X-54.6171 Y-4.0307 F100.00
G01 X-54.7155 Y-4.1037 F100.00
G01 X-54.8188 Y-4.1652 F100.00
G01 X-54.9217 Y-4.2138 F100.00
G01 X-55.0320 Y-4.2535 F100.00
G01 X-55.1505 Y-4.2835 F100.00
G01 X-55.2681 Y-4.3009 F100.00
G01 X-55.3870 Y-4.3067 F100.00
G01 X-55.5059 Y-4.3009 F100.00
G01 X-55.6235 Y-4.2835 F100.00
G01 X-55.7420 Y-4.2535 F100.00
G01 X-55.8523 Y-4.2138 F100.00
G01 X-55.9552 Y-4.1652 F100.00
G01 X-56.0585 Y-4.1037 F100.00
G01 X-56.1569 Y-4.0307 F100.00
G01 X-56.2438 Y-3.9518 F100.00
G01 X-56.3227 Y-3.8649 F100.00
G01 X-56.3957 Y-3.7665 F100.00
G01 X-56.4572 Y-3.6632 F100.00
G01 X-56.5058 Y-3.5603 F100.00
G01 X-56.5455 Y-3.4500 F100.00
G01 X-56.5755 Y-3.3315 F100.00
G01 X-56.5929 Y-3.2139 F100.00
G01 X-56.5987 Y-3.0950 F100.00
G01 X-56.5929 Y-2.9761 F100.00
G01 X-56.5755 Y-2.8585 F100.00
G00 Z2.0000
G00 X-59.3479 Y-3.0163
G01 F60.00
G01 Z-0.0700
G01 F100.00
G01 X-59.3380 Y-2.9839 F100.00
G01 X-59.3190 Y-2.7906 F100.00
G01 X-59.3380 Y-2.5973 F100.00
G01 X-59.3944 Y-2.4115 F100.00
G01 X-59.4859 Y-2.2402 F100.00
G01 X-59.6091 Y-2.0901 F100.00
G01 X-59.7592 Y-1.9669 F100.00
G01 X-59.9305 Y-1.8754 F100.00
G01 X-60.1163 Y-1.8190 F100.00
G01 X-60.3096 Y-1.8000 F100.00
G01 X-60.5029 Y-1.8190 F100.00
G01 X-60.6887 Y-1.8754 F100.00
G01 X-60.8600 Y-1.9669 F100.00
G01 X-61.0101 Y-2.0901 F100.00
G01 X-61.1333 Y-2.2402 F100.00
G01 X-61.2248 Y-2.4115 F100.00
G01 X-61.2812 Y-2.5973 F100.00
G01 X-61.3002 Y-2.7906 F100.00
G01 X-61.2812 Y-2.9839 F100.00
G01 X-61.2248 Y-3.1697 F100.00
G01 X-61.1333 Y-3.3410 F100.00
G01 X-61.0101 Y-3.4911 F100.00
G01 X-60.8600 Y-3.6143 F100.00
G01 X-60.6887 Y-3.7058 F100.00
G01 X-60.5029 Y-3.7622 F100.00
G01 X-60.3096 Y-3.7812 F100.00
G01 X-60.1163 Y-3.7622 F100.00
G01 X-59.9305 Y-3.7058 F100.00
G01 X-59.7592 Y-3.6143 F100.00
G01 X-59.6091 Y-3.4911 F100.00
G01 X-59.4859 Y-3.3410 F100.00
G01 X-59.3944 Y-3.1697 F100.00
G01 X-59.3479 Y-3.0163 F100.00
G00 Z2.0000
G00 X-61.1116 Y-2.6295
G01 F60.00
G01 Z-0.0700
G01 F100.00
G01 X-61.0919 Y-2.5513 F100.00
G01 X-61.0640 Y-2.4745 F100.00
G01 X-61.0319 Y-2.4066 F100.00
G01 X-60.9898 Y-2.3362 F100.00
G01 X-60.9410 Y-2.2705 F100.00
G01 X-60.8880 Y-2.2122 F100.00
G01 X-60.8297 Y-2.1592 F100.00
G01 X-60.7640 Y-2.1104 F100.00
G01 X-60.6936 Y-2.0683 F100.00
G01 X-60.6257 Y-2.0362 F100.00
G01 X-60.5489 Y-2.0083 F100.00
G01 X-60.4707 Y-1.9886 F100.00
G01 X-60.3899 Y-1.9765 F100.00
G01 X-60.3096 Y-1.9725 F100.00
G01 X-60.2293 Y-1.9765 F100.00
G01 X-60.1485 Y-1.9886 F100.00
G01 X-60.0703 Y-2.0083 F100.00
G01 X-59.9935 Y-2.0362 F100.00
G01 X-59.9256 Y-2.0683 F100.00
G01 X-59.8552 Y-2.1104 F100.00
G01 X-59.7895 Y-2.1592 F100.00
G01 X-59.7312 Y-2.2122 F100.00
G01 X-59.6782 Y-2.2705 F100.00
G01 X-59.6294 Y-2.3362 F100.00
G01 X-59.5873 Y-2.4066 F100.00
G01 X-59.5552 Y-2.4745 F100.00
G01 X-59.5273 Y-2.5513 F100.00
G01 X-59.5076 Y-2.6295 F100.00
G01 X-59.4955 Y-2.7103 F100.00
G01 X-59.4916 Y-2.7906 F100.00
G01 X-59.4955 Y-2.8709 F100.00
G01 X-59.5076 Y-2.9517 F100.00
G01 X-59.5273 Y-3.0298 F100.00
G01 X-59.5552 Y-3.1067 F100.00
G01 X-59.5873 Y-3.1746 F100.00
G01 X-59.6294 Y-3.2450 F100.00
G01 X-59.6782 Y-3.3107 F100.00
G01 X-59.7312 Y-3.3690 F100.00
G01 X-59.7895 Y-3.4220 F100.00
G01 X-59.8552 Y-3.4708 F100.00
G01 X-59.9256 Y-3.5129 F100.00
G01 X-59.9935 Y-3.5450 F100.00
G01 X-60.0703 Y-3.5729 F100.00
G01 X-60.1485 Y-3.5926 F100.00
G01 X-60.2293 Y-3.6047 F100.00
G01 X-60.3096 Y-3.6086 F100.00
G01 X-60.3899 Y-3.6047 F100.00
G01 X-60.4707 Y-3.5926 F100.00
G01 X-60.5489 Y-3.5729 F100.00
G01 X-60.6257 Y-3.5450 F100.00
G01 X-60.6936 Y-3.5129 F100.00
G01 X-60.7640 Y-3.4708 F100.00
G01 X-60.8297 Y-3.4220 F100.00
G01 X-60.8880 Y-3.3690 F100.00
G01 X-60.9410 Y-3.3107 F100.00
G01 X-60.9898 Y-3.2450 F100.00
G01 X-61.0319 Y-3.1746 F100.00
G01 X-61.0640 Y-3.1067 F100.00
G01 X-61.0919 Y-3.0298 F100.00
G01 X-61.1116 Y-2.9517 F100.00
G01 X-61.1237 Y-2.8709 F100.00
G01 X-61.1276 Y-2.7906 F100.00
G01 X-61.1237 Y-2.7103 F100.00
G01 X-61.1116 Y-2.6295 F100.00
G00 Z2.0000
G00 X-62.0076 Y-2.6295
G01 F60.00
G01 Z-0.0700
G01 F100.00
G01 X-61.9952 Y-2.7138 F100.00
G01 X-61.9916 Y-2.7906 F100.00
G01 X-61.9955 Y-2.8709 F100.00
G01 X-62.0080 Y-2.9535 F100.00
G01 X-62.0273 Y-3.0298 F100.00
G01 X-62.0516 Y-3.0978 F100.00
G01 X-61.9996 Y-3.1499 F100.00
G01 X-61.9892 Y-3.1304 F100.00
G01 X-61.9386 Y-2.9638 F100.00
G01 X-61.9216 Y-2.7906 F100.00
G01 X-61.9386 Y-2.6174 F100.00
G01 X-61.9892 Y-2.4508 F100.00
G01 X-61.9996 Y-2.4313 F100.00
G01 X-62.0516 Y-2.4834 F100.00
G01 X-62.0273 Y-2.5513 F100.00
G01 X-62.0076 Y-2.6295 F100.00
G00 Z2.0000
G00 X-62.9707 Y-1.9886
G01 F60.00
G01 Z-0.0700
G01 F100.00
G01 X-62.8864 Y-1.9762 F100.00
G01 X-62.8096 Y-1.9725 F100.00
G01 X-62.7293 Y-1.9765 F100.00
G01 X-62.6467 Y-1.9890 F100.00
G01 X-62.5703 Y-2.0083 F100.00
G01 X-62.5024 Y-2.0326 F100.00
G01 X-62.4503 Y-1.9806 F100.00
G01 X-62.4698 Y-1.9702 F100.00
G01 X-62.6364 Y-1.9196 F100.00
G01 X-62.8096 Y-1.9026 F100.00
G01 X-62.9828 Y-1.9196 F100.00
G01 X-63.1494 Y-1.9702 F100.00
G01 X-63.1689 Y-1.9806 F100.00
G01 X-63.1168 Y-2.0326 F100.00
G01 X-63.0489 Y-2.0083 F100.00
G01 X-62.9707 Y-1.9886 F100.00
G00 Z2.0000
G00 X-63.6116 Y-2.9517
G01 F60.00
G01 Z-0.0700
G01 F100.00
G01 X-63.6240 Y-2.8674 F100.00
G01 X-63.6276 Y-2.7906 F100.00
G01 X-63.6237 Y-2.7103 F100.00
G01 X-63.6112 Y-2.6277 F100.00
G01 X-63.5919 Y-2.5513 F100.00
G01 X-63.5676 Y-2.4834 F100.00
G01 X-63.6196 Y-2.4313 F100.00
G01 X-63.6300 Y-2.4508 F100.00
G01 X-63.6806 Y-2.6174 F100.00
G01 X-63.6976 Y-2.7906 F100.00
G01 X-63.6806 Y-2.9638 F100.00
G01 X-63.6300 Y-3.1304 F100.00
G01 X-63.6196 Y-3.1499 F100.00
G01 X-63.5676 Y-3.0978 F100.00
G01 X-63.5919 Y-3.0298 F100.00
G01 X-63.6116 Y-2.9517 F100.00
G00 Z2.0000
G00 X-62.6364 Y-3.6616
G01 F60.00
G01 Z-0.0700
G01 F100.00
G01 X-62.4698 Y-3.6110 F100.00
G01 X-62.4503 Y-3.6006 F100.00
G01 X-62.5024 Y-3.5486 F100.00
G01 X-62.5703 Y-3.5729 F100.00
G01 X-62.6485 Y-3.5926 F100.00
G01 X-62.7293 Y-3.6047 F100.00
G01 X-62.8096 Y-3.6086 F100.00
G01 X-62.8899 Y-3.6047 F100.00
G01 X-62.9707 Y-3.5926 F100.00
G01 X-63.0489 Y-3.5729 F100.00
G01 X-63.1168 Y-3.5486 F100.00
G01 X-63.1689 Y-3.6006 F100.00
G01 X-63.1494 Y-3.6110 F100.00
G01 X-62.9828 Y-3.6616 F100.00
G01 X-62.8096 Y-3.6786 F100.00
G01 X-62.6364 Y-3.6616 F100.00
G00 Z2.0000
G00 X-66.5550 Y-3.5538
G01 F60.00
G01 Z-0.0700
G01 F100.00
G01 X-66.4972 Y-3.3379 F100.00
G01 X-66.4777 Y-3.1152 F100.00
G01 X-66.4972 Y-2.8925 F100.00
G01 X-66.5550 Y-2.6766 F100.00
G01 X-66.6571 Y-2.4631 F100.00
G01 X-66.7088 Y-2.5147 F100.00
G01 X-66.6412 Y-2.6499 F100.00
G01 X-66.5995 Y-2.7667 F100.00
G01 X-66.5715 Y-2.8787 F100.00
G01 X-66.5545 Y-2.9931 F100.00
G01 X-66.5483 Y-3.1152 F100.00
G01 X-66.5545 Y-3.2373 F100.00
G01 X-66.5715 Y-3.3517 F100.00
G01 X-66.5995 Y-3.4637 F100.00
G01 X-66.6412 Y-3.5805 F100.00
G01 X-66.7088 Y-3.7157 F100.00
G01 X-66.6571 Y-3.7673 F100.00
G01 X-66.5550 Y-3.5538 F100.00
G00 Z2.0000
G00 X-68.1986 Y-4.3202
G01 F60.00
G01 Z-0.0700
G01 F100.00
G01 X-67.9827 Y-4.3780 F100.00
G01 X-67.7600 Y-4.3975 F100.00
G01 X-67.5373 Y-4.3780 F100.00
G01 X-67.3214 Y-4.3202 F100.00
G01 X-67.1079 Y-4.2181 F100.00
G01 X-67.1595 Y-4.1664 F100.00
G01 X-67.2947 Y-4.2340 F100.00
G01 X-67.4115 Y-4.2757 F100.00
G01 X-67.5235 Y-4.3037 F100.00
G01 X-67.6379 Y-4.3207 F100.00
G01 X-67.7600 Y-4.3269 F100.00
G01 X-67.8821 Y-4.3207 F100.00
G01 X-67.9965 Y-4.3037 F100.00
G01 X-68.1085 Y-4.2757 F100.00
G01 X-68.2253 Y-4.2340 F100.00
G01 X-68.3605 Y-4.1664 F100.00
G01 X-68.4121 Y-4.2181 F100.00
G01 X-68.1986 Y-4.3202 F100.00
G00 Z2.0000
G00 X-68.9655 Y-3.2373
G01 F60.00
G01 Z-0.0700
G01 F100.00
G01 X-68.9717 Y-3.1118 F100.00
G01 X-68.9659 Y-2.9963 F100.00
G01 X-68.9485 Y-2.8787 F100.00
G01 X-68.9205 Y-2.7667 F100.00
G01 X-68.8807 Y-2.6546 F100.00
G01 X-68.8112 Y-2.5147 F100.00
G01 X-68.8629 Y-2.4631 F100.00
G01 X-68.9650 Y-2.6766 F100.00
G01 X-69.0228 Y-2.8925 F100.00
G01 X-69.0423 Y-3.1152 F100.00
G01 X-69.0228 Y-3.3379 F100.00
G01 X-68.9650 Y-3.5538 F100.00
G01 X-68.8629 Y-3.7673 F100.00
G01 X-68.8112 Y-3.7157 F100.00
G01 X-68.8788 Y-3.5805 F100.00
G01 X-68.9185 Y-3.4702 F100.00
G01 X-68.9485 Y-3.3517 F100.00
G01 X-68.9655 Y-3.2373 F100.00
G00 Z2.0000
G00 X-68.2206 Y-1.9945
G01 F60.00
G01 Z-0.0700
G01 F100.00
G01 X-68.1085 Y-1.9547 F100.00
G01 X-67.9965 Y-1.9267 F100.00
G01 X-67.8789 Y-1.9093 F100.00
G01 X-67.7600 Y-1.9035 F100.00
G01 X-67.6379 Y-1.9097 F100.00
G01 X-67.5235 Y-1.9267 F100.00
G01 X-67.4115 Y-1.9547 F100.00
G01 X-67.2947 Y-1.9964 F100.00
G01 X-67.1595 Y-2.0640 F100.00
G01 X-67.1079 Y-2.0123 F100.00
G01 X-67.3214 Y-1.9102 F100.00
G01 X-67.5373 Y-1.8524 F100.00
G01 X-67.7600 Y-1.8329 F100.00
G01 X-67.9827 Y-1.8524 F100.00
G01 X-68.1986 Y-1.9102 F100.00
G01 X-68.4121 Y-2.0123 F100.00
G01 X-68.3605 Y-2.0640 F100.00
G01 X-68.2206 Y-1.9945 F100.00
G00 Z2.0000
G00 X-68.3450 Y-6.1410
G01 F60.00
G01 Z-0.0700
G01 F100.00
G01 X-68.3388 Y-6.1185 F100.00
G01 X-68.3252 Y-6.0992 F100.00
G01 X-68.3059 Y-6.0856 F100.00
G01 X-68.2834 Y-6.0794 F100.00
G01 X-67.7454 Y-6.0790 F100.00
G01 X-67.7454 Y-6.0134 F100.00
G01 X-68.2898 Y-6.0134 F100.00
G01 X-68.3291 Y-6.0212 F100.00
G01 X-68.3735 Y-6.0509 F100.00
G01 X-68.4032 Y-6.0953 F100.00
G01 X-68.4110 Y-6.1346 F100.00
G01 X-68.4110 Y-6.6790 F100.00
G01 X-68.3454 Y-6.6790 F100.00
G01 X-68.3450 Y-6.1410 F100.00
G00 Z2.0000
G00 X-67.1078 Y-6.0134
G01 F60.00
G01 Z-0.0700
G01 F100.00
G01 X-67.1078 Y-6.0790 F100.00
G01 X-66.5731 Y-6.0791 F100.00
G01 X-66.5487 Y-6.0850 F100.00
G01 X-66.5280 Y-6.0992 F100.00
G01 X-66.5138 Y-6.1199 F100.00
G01 X-66.5079 Y-6.1443 F100.00
G01 X-66.5078 Y-6.6790 F100.00
G01 X-66.4422 Y-6.6790 F100.00
G01 X-66.4422 Y-6.1346 F100.00
G01 X-66.4500 Y-6.0953 F100.00
G01 X-66.4797 Y-6.0509 F100.00
G01 X-66.5241 Y-6.0212 F100.00
G01 X-66.5634 Y-6.0134 F100.00
G01 X-67.1078 Y-6.0134 F100.00
G00 Z2.0000
G00 X-66.4422 Y-7.3166
G01 F60.00
G01 Z-0.0700
G01 F100.00
G01 X-66.5078 Y-7.3166 F100.00
G01 X-66.5079 Y-7.8513 F100.00
G01 X-66.5138 Y-7.8757 F100.00
G01 X-66.5280 Y-7.8964 F100.00
G01 X-66.5487 Y-7.9106 F100.00
G01 X-66.5731 Y-7.9165 F100.00
G01 X-67.1078 Y-7.9166 F100.00
G01 X-67.1078 Y-7.9822 F100.00
G01 X-66.5634 Y-7.9822 F100.00
G01 X-66.5241 Y-7.9744 F100.00
G01 X-66.4797 Y-7.9447 F100.00
G01 X-66.4500 Y-7.9003 F100.00
G01 X-66.4422 Y-7.8610 F100.00
G01 X-66.4422 Y-7.3166 F100.00
G00 Z2.0000
G00 X-68.2834 Y-7.9162
G01 F60.00
G01 Z-0.0700
G01 F100.00
G01 X-68.3059 Y-7.9100 F100.00
G01 X-68.3252 Y-7.8964 F100.00
G01 X-68.3388 Y-7.8771 F100.00
G01 X-68.3450 Y-7.8546 F100.00
G01 X-68.3454 Y-7.3166 F100.00
G01 X-68.4110 Y-7.3166 F100.00
G01 X-68.4110 Y-7.8610 F100.00
G01 X-68.4032 Y-7.9003 F100.00
G01 X-68.3735 Y-7.9447 F100.00
G01 X-68.3291 Y-7.9744 F100.00
G01 X-68.2898 Y-7.9822 F100.00
G01 X-67.7454 Y-7.9822 F100.00
G01 X-67.7454 Y-7.9166 F100.00
G01 X-68.2834 Y-7.9162 F100.00
G00 Z2.0000
G00 X-70.1888 Y-7.3236
G01 F60.00
G01 Z-0.0700
G01 F100.00
G01 X-70.2544 Y-7.3236 F100.00
G01 X-70.2545 Y-7.8583 F100.00
G01 X-70.2604 Y-7.8827 F100.00
G01 X-70.2746 Y-7.9034 F100.00
G01 X-70.2953 Y-7.9176 F100.00
G01 X-70.3197 Y-7.9235 F100.00
G01 X-70.8544 Y-7.9236 F100.00
G01 X-70.8544 Y-7.9892 F100.00
G01 X-70.3100 Y-7.9892 F100.00
G01 X-70.2707 Y-7.9814 F100.00
G01 X-70.2263 Y-7.9517 F100.00
G01 X-70.1966 Y-7.9073 F100.00
G01 X-70.1888 Y-7.8680 F100.00
G01 X-70.1888 Y-7.3236 F100.00
G00 Z2.0000
G00 X-70.8544 Y-6.0204
G01 F60.00
G01 Z-0.0700
G01 F100.00
G01 X-70.8544 Y-6.0860 F100.00
G01 X-70.3197 Y-6.0861 F100.00
G01 X-70.2953 Y-6.0920 F100.00
G01 X-70.2746 Y-6.1062 F100.00
G01 X-70.2604 Y-6.1269 F100.00
G01 X-70.2545 Y-6.1513 F100.00
G01 X-70.2544 Y-6.6860 F100.00
G01 X-70.1888 Y-6.6860 F100.00
G01 X-70.1888 Y-6.1416 F100.00
G01 X-70.1966 Y-6.1023 F100.00
G01 X-70.2263 Y-6.0579 F100.00
G01 X-70.2707 Y-6.0282 F100.00
G01 X-70.3100 Y-6.0204 F100.00
G01 X-70.8544 Y-6.0204 F100.00
G00 Z2.0000
G00 X-72.0916 Y-6.1480
G01 F60.00
G01 Z-0.0700
G01 F100.00
G01 X-72.0854 Y-6.1255 F100.00
G01 X-72.0718 Y-6.1062 F100.00
G01 X-72.0525 Y-6.0926 F100.00
G01 X-72.0300 Y-6.0864 F100.00
G01 X-71.4920 Y-6.0860 F100.00
G01 X-71.4920 Y-6.0204 F100.00
G01 X-72.0364 Y-6.0204 F100.00
G01 X-72.0757 Y-6.0282 F100.00
G01 X-72.1201 Y-6.0579 F100.00
G01 X-72.1498 Y-6.1023 F100.00
G01 X-72.1576 Y-6.1416 F100.00
G01 X-72.1576 Y-6.6860 F100.00
G01 X-72.0920 Y-6.6860 F100.00
G01 X-72.0916 Y-6.1480 F100.00
G00 Z2.0000
G00 X-72.0300 Y-7.9232
G01 F60.00
G01 Z-0.0700
G01 F100.00
G01 X-72.0525 Y-7.9170 F100.00
G01 X-72.0718 Y-7.9034 F100.00
G01 X-72.0854 Y-7.8841 F100.00
G01 X-72.0916 Y-7.8616 F100.00
G01 X-72.0920 Y-7.3236 F100.00
G01 X-72.1576 Y-7.3236 F100.00
G01 X-72.1576 Y-7.8680 F100.00
G01 X-72.1498 Y-7.9073 F100.00
G01 X-72.1201 Y-7.9517 F100.00
G01 X-72.0757 Y-7.9814 F100.00
G01 X-72.0364 Y-7.9892 F100.00
G01 X-71.4920 Y-7.9892 F100.00
G01 X-71.4920 Y-7.9236 F100.00
G01 X-72.0300 Y-7.9232 F100.00
G00 Z2.0000
G00 X-73.7648 Y-8.1208
G01 F60.00
G01 Z-0.0700
G01 F100.00
G01 X-73.7464 Y-7.5906 F100.00
G01 X-73.6933 Y-7.0745 F100.00
G01 X-73.6046 Y-6.5589 F100.00
G01 X-73.4787 Y-6.0419 F100.00
G01 X-73.3188 Y-5.5388 F100.00
G01 X-73.1267 Y-5.0522 F100.00
G01 X-72.9039 Y-4.5836 F100.00
G01 X-72.6454 Y-4.1233 F100.00
G01 X-72.3534 Y-3.6784 F100.00
G01 X-72.0398 Y-3.2650 F100.00
G01 X-71.6962 Y-2.8706 F100.00
G01 X-71.3200 Y-2.4942 F100.00
G01 X-70.9220 Y-2.1475 F100.00
G01 X-70.5085 Y-1.8340 F100.00
G01 X-70.0711 Y-1.5469 F100.00
G01 X-69.6111 Y-1.2880 F100.00
G01 X-69.1306 Y-1.0595 F100.00
G01 X-68.6478 Y-0.8692 F100.00
G01 X-68.1492 Y-0.7108 F100.00
G01 X-67.6364 Y-0.5855 F100.00
G01 X-67.1127 Y-0.4953 F100.00
G01 X-66.5916 Y-0.4419 F100.00
G01 X-66.0674 Y-0.4240 F100.00
G01 X-8.1582 Y-0.4240 F100.00
G01 X-7.6358 Y-0.4418 F100.00
G01 X-7.1041 Y-0.4965 F100.00
G01 X-6.5886 Y-0.5855 F100.00
G01 X-6.0821 Y-0.7090 F100.00
G01 X-5.5812 Y-0.8678 F100.00
G01 X-5.0945 Y-1.0595 F100.00
G01 X-4.6118 Y-1.2891 F100.00
G01 X-4.1559 Y-1.5457 F100.00
G01 X-3.7165 Y-1.8340 F100.00
G01 X-3.3012 Y-2.1490 F100.00
G01 X-2.9068 Y-2.4926 F100.00
G01 X-2.5289 Y-2.8705 F100.00
G01 X-2.1852 Y-3.2650 F100.00
G01 X-1.8667 Y-3.6853 F100.00
G01 X-1.5797 Y-4.1233 F100.00
G01 X-1.3242 Y-4.5777 F100.00
G01 X-1.0983 Y-5.0522 F100.00
G01 X-0.9063 Y-5.5388 F100.00
G01 X-0.7446 Y-6.0482 F100.00
G01 X-0.6209 Y-6.5566 F100.00
G01 X-0.5323 Y-7.0702 F100.00
G01 X-0.4781 Y-7.5972 F100.00
G01 X-0.4603 Y-8.1181 F100.00
G01 X-0.4604 Y-11.2098 F100.00
G01 X-0.4858 Y-11.2812 F100.00
G01 X-0.5120 Y-11.3094 F100.00
G01 X-0.5839 Y-11.3371 F100.00
G01 X-0.7956 Y-11.3375 F100.00
G01 X-0.7956 Y-11.4032 F100.00
G01 X-0.1223 Y-11.4032 F100.00
G01 X-0.1223 Y-8.1277 F100.00
G01 X-0.5166 Y-5.6379 F100.00
G01 X-1.6576 Y-3.3986 F100.00
G01 X-3.4348 Y-1.6214 F100.00
G01 X-5.6742 Y-0.4804 F100.00
G01 X-8.1640 Y-0.0861 F100.00
G01 X-66.0593 Y-0.0861 F100.00
G01 X-69.1424 Y-0.6993 F100.00
G01 X-71.7483 Y-2.4405 F100.00
G01 X-73.4895 Y-5.0464 F100.00
G01 X-74.1028 Y-8.1296 F100.00
G01 X-74.1028 Y-21.0651 F100.00
G01 X-73.4895 Y-24.1482 F100.00
G01 X-71.7483 Y-26.7541 F100.00
G01 X-69.1424 Y-28.4953 F100.00
G01 X-66.0594 Y-29.1085 F100.00
G01 X-8.1639 Y-29.1085 F100.00
G01 X-5.6742 Y-28.7142 F100.00
G01 X-3.4348 Y-27.5732 F100.00
G01 X-1.6576 Y-25.7960 F100.00
G01 X-0.5166 Y-23.5567 F100.00
G01 X-0.1223 Y-21.0671 F100.00
G01 X-0.1223 Y-15.6047 F100.00
G01 X-0.7956 Y-15.6047 F100.00
G01 X-0.7956 Y-15.6704 F100.00
G01 X-0.5839 Y-15.6709 F100.00
G01 X-0.5120 Y-15.6986 F100.00
G01 X-0.4858 Y-15.7268 F100.00
G01 X-0.4604 Y-15.7982 F100.00
G01 X-0.4603 Y-21.0738 F100.00
G01 X-0.4781 Y-21.5974 F100.00
G01 X-0.5327 Y-22.1267 F100.00
G01 X-0.6217 Y-22.6422 F100.00
G01 X-0.7451 Y-23.1486 F100.00
G01 X-0.9062 Y-23.6558 F100.00
G01 X-1.0983 Y-24.1424 F100.00
G01 X-1.3217 Y-24.6123 F100.00
G01 X-1.5796 Y-25.0713 F100.00
G01 X-1.8664 Y-25.5089 F100.00
G01 X-2.1894 Y-25.9347 F100.00
G01 X-2.5333 Y-26.3289 F100.00
G01 X-2.9050 Y-26.7004 F100.00
G01 X-3.3012 Y-27.0456 F100.00
G01 X-3.7146 Y-27.3592 F100.00
G01 X-4.1615 Y-27.6524 F100.00
G01 X-4.6177 Y-27.9086 F100.00
G01 X-5.0884 Y-28.1325 F100.00
G01 X-5.5772 Y-28.3254 F100.00
G01 X-6.0758 Y-28.4838 F100.00
G01 X-6.5938 Y-28.6102 F100.00
G01 X-7.1064 Y-28.6985 F100.00
G01 X-7.6268 Y-28.7522 F100.00
G01 X-8.1576 Y-28.7706 F100.00
G01 X-66.0681 Y-28.7706 F100.00
G01 X-66.5916 Y-28.7527 F100.00
G01 X-67.1120 Y-28.6994 F100.00
G01 X-67.6364 Y-28.6091 F100.00
G01 X-68.1470 Y-28.4845 F100.00
G01 X-68.6438 Y-28.3268 F100.00
G01 X-69.1366 Y-28.1325 F100.00
G01 X-69.6112 Y-27.9067 F100.00
G01 X-70.0692 Y-27.6490 F100.00
G01 X-70.5085 Y-27.3606 F100.00
G01 X-70.9238 Y-27.0457 F100.00
G01 X-71.3200 Y-26.7004 F100.00
G01 X-71.6917 Y-26.3289 F100.00
G01 X-72.0372 Y-25.9329 F100.00
G01 X-72.3548 Y-25.5143 F100.00
G01 X-72.6432 Y-25.0750 F100.00
G01 X-72.9009 Y-24.6169 F100.00
G01 X-73.1267 Y-24.1424 F100.00
G01 X-73.3196 Y-23.6536 F100.00
G01 X-73.4783 Y-23.1541 F100.00
G01 X-73.6033 Y-22.6422 F100.00
G01 X-73.6927 Y-22.1244 F100.00
G01 X-73.7466 Y-21.6017 F100.00
G01 X-73.7647 Y-21.0765 F100.00
G01 X-73.7648 Y-8.1208 F100.00
G00 Z2.0000
G00 X-74.2891 Y-8.1053
G01 F60.00
G01 Z-0.0700
G01 F100.00
G01 X-73.6631 Y-4.9709 F100.00
G01 X-71.8822 Y-2.3066 F100.00
G01 X-69.2165 Y-0.5251 F100.00
G01 X-66.0778 Y0.1010 F100.00
G01 X-8.1565 Y0.1015 F100.00
G01 X-5.6266 Y-0.2982 F100.00
G01 X-5.6023 Y-0.3066 F100.00
G01 X-3.3364 Y-1.4611 F100.00
G01 X-3.3127 Y-1.4783 F100.00
G01 X-1.5042 Y-3.2888 F100.00
G01 X-0.3349 Y-5.5878 F100.00
G01 X0.0650 Y-8.1135 F100.00
G01 X0.0652 Y-11.4032 F100.00
G01 X0.3610 Y-11.4049 F100.00
G01 X0.3825 Y-11.4137 F100.00
G01 X0.4011 Y-11.4307 F100.00
G01 X0.4113 Y-11.4503 F100.00
G01 X0.4149 Y-11.4720 F100.00
G01 X0.4148 Y-15.5395 F100.00
G01 X0.4089 Y-15.5639 F100.00
G01 X0.3968 Y-15.5825 F100.00
G01 X0.3818 Y-15.5948 F100.00
G01 X0.3610 Y-15.6031 F100.00
G01 X0.0652 Y-15.6047 F100.00
G01 X0.0651 Y-21.0779 F100.00
G01 X-0.3344 Y-23.6042 F100.00
G01 X-0.3428 Y-23.6286 F100.00
G01 X-1.5042 Y-25.9059 F100.00
G01 X-3.3228 Y-27.7251 F100.00
G01 X-5.6146 Y-28.8932 F100.00
G01 X-8.1497 Y-29.2958 F100.00
G01 X-66.0685 Y-29.2961 F100.00
G01 X-69.1973 Y-28.6756 F100.00
G01 X-69.2311 Y-28.6616 F100.00
G01 X-71.8797 Y-26.8903 F100.00
G01 X-73.6558 Y-24.2368 F100.00
G01 X-73.6690 Y-24.2063 F100.00
G01 X-74.2902 Y-21.0777 F100.00
G01 X-74.2891 Y-8.1053 F100.00
G00 Z2.0000
G00 X-71.8946 Y-14.3986
G01 F60.00
G01 Z-0.0700
G01 F100.00
G01 X-71.8946 Y-16.4818 F100.00
G01 X-71.8566 Y-16.5762 F100.00
G01 X-71.7941 Y-16.6387 F100.00
G01 X-71.6997 Y-16.6767 F100.00
G01 X-70.2241 Y-16.6771 F100.00
G01 X-70.1681 Y-16.6941 F100.00
G01 X-70.1480 Y-16.7064 F100.00
G01 X-70.1340 Y-16.7233 F100.00
G01 X-70.1031 Y-16.7797 F100.00
G01 X-70.1017 Y-16.8134 F100.00
G01 X-70.1179 Y-16.8730 F100.00
G01 X-70.2258 Y-17.0829 F100.00
G01 X-70.2831 Y-17.2843 F100.00
G01 X-70.2943 Y-17.4043 F100.00
G01 X-70.3001 Y-17.4239 F100.00
G01 X-70.3299 Y-17.4797 F100.00
G01 X-70.5121 Y-17.6620 F100.00
G01 X-70.5121 Y-18.8980 F100.00
G01 X-70.4927 Y-18.9173 F100.00
G01 X-70.4464 Y-18.8709 F100.00
G01 X-70.4459 Y-18.0097 F100.00
G01 X-70.4402 Y-17.9782 F100.00
G01 X-70.4316 Y-17.9600 F100.00
G01 X-70.3916 Y-17.9134 F100.00
G01 X-70.3641 Y-17.8966 F100.00
G01 X-70.2966 Y-17.8900 F100.00
G01 X-70.2755 Y-17.8929 F100.00
G01 X-70.2540 Y-17.9037 F100.00
G01 X-70.2105 Y-17.9415 F100.00
G01 X-70.1976 Y-17.9595 F100.00
G01 X-70.1324 Y-18.0904 F100.00
G01 X-70.0062 Y-18.2576 F100.00
G01 X-69.8514 Y-18.3987 F100.00
G01 X-69.6733 Y-18.5090 F100.00
G01 X-69.4780 Y-18.5847 F100.00
G01 X-69.2721 Y-18.6231 F100.00
G01 X-69.0626 Y-18.6231 F100.00
G01 X-68.8567 Y-18.5847 F100.00
G01 X-68.6614 Y-18.5090 F100.00
G01 X-68.4833 Y-18.3987 F100.00
G01 X-68.3285 Y-18.2576 F100.00
G01 X-68.2220 Y-18.1166 F100.00
G01 X-68.2014 Y-18.0955 F100.00
G01 X-68.1402 Y-18.0684 F100.00
G01 X-68.1172 Y-18.0644 F100.00
G01 X-68.0942 Y-18.0684 F100.00
G01 X-68.0320 Y-18.0963 F100.00
G01 X-68.0110 Y-18.1219 F100.00
G01 X-67.9861 Y-18.1922 F100.00
G01 X-67.9861 Y-18.7771 F100.00
G01 X-67.9893 Y-18.8028 F100.00
G01 X-67.9970 Y-18.8213 F100.00
G01 X-68.0303 Y-18.8704 F100.00
G01 X-68.0529 Y-18.8877 F100.00
G01 X-68.1294 Y-18.9038 F100.00
G01 X-68.1519 Y-18.9007 F100.00
G01 X-69.8488 Y-18.9007 F100.00
G01 X-69.7831 Y-18.9663 F100.00
G01 X-68.1651 Y-18.9663 F100.00
G01 X-68.1372 Y-18.9723 F100.00
G01 X-68.1165 Y-18.9865 F100.00
G01 X-68.1023 Y-19.0072 F100.00
G01 X-68.0964 Y-19.0351 F100.00
G01 X-68.0964 Y-20.6531 F100.00
G01 X-68.0307 Y-20.7188 F100.00
G01 X-68.0306 Y-19.6125 F100.00
G01 X-68.0232 Y-19.5734 F100.00
G01 X-68.0147 Y-19.5539 F100.00
G01 X-67.9527 Y-19.4961 F100.00
G01 X-67.9241 Y-19.4888 F100.00
G01 X-67.8622 Y-19.4910 F100.00
G01 X-67.7910 Y-19.5166 F100.00
G01 X-65.7078 Y-19.5166 F100.00
G01 X-65.6134 Y-19.4785 F100.00
G01 X-65.5509 Y-19.4160 F100.00
G01 X-65.5129 Y-19.3216 F100.00
G01 X-65.5129 Y-17.2384 F100.00
G01 X-65.5509 Y-17.1440 F100.00
G01 X-65.6134 Y-17.0815 F100.00
G01 X-65.7078 Y-17.0435 F100.00
G01 X-67.7910 Y-17.0435 F100.00
G01 X-67.8854 Y-17.0815 F100.00
G01 X-67.9124 Y-17.1077 F100.00
G01 X-67.9455 Y-17.1291 F100.00
G01 X-68.0243 Y-17.1371 F100.00
G01 X-68.0600 Y-17.1236 F100.00
G01 X-68.1114 Y-17.0763 F100.00
G01 X-68.2151 Y-16.8764 F100.00
G01 X-68.2340 Y-16.8195 F100.00
G01 X-68.2315 Y-16.7863 F100.00
G01 X-68.2001 Y-16.7191 F100.00
G01 X-68.1775 Y-16.7018 F100.00
G01 X-68.1136 Y-16.6775 F100.00
G01 X-66.6305 Y-16.6767 F100.00
G01 X-66.5361 Y-16.6387 F100.00
G01 X-66.4736 Y-16.5762 F100.00
G01 X-66.4356 Y-16.4818 F100.00
G01 X-66.4356 Y-14.3986 F100.00
G01 X-66.4736 Y-14.3042 F100.00
G01 X-66.5361 Y-14.2417 F100.00
G01 X-66.6305 Y-14.2036 F100.00
G01 X-68.7138 Y-14.2036 F100.00
G01 X-68.8081 Y-14.2417 F100.00
G01 X-68.8707 Y-14.3042 F100.00
G01 X-68.9087 Y-14.3986 F100.00
G01 X-68.9101 Y-16.2512 F100.00
G01 X-68.9190 Y-16.2792 F100.00
G01 X-68.9631 Y-16.3397 F100.00
G01 X-68.9871 Y-16.3514 F100.00
G01 X-69.0514 Y-16.3635 F100.00
G01 X-69.3101 Y-16.3609 F100.00
G01 X-69.3641 Y-16.3388 F100.00
G01 X-69.3831 Y-16.3253 F100.00
G01 X-69.3965 Y-16.3063 F100.00
G01 X-69.4202 Y-16.2460 F100.00
G01 X-69.4215 Y-14.3986 F100.00
G01 X-69.4596 Y-14.3042 F100.00
G01 X-69.5221 Y-14.2417 F100.00
G01 X-69.6165 Y-14.2036 F100.00
G01 X-71.6997 Y-14.2036 F100.00
G01 X-71.7941 Y-14.2417 F100.00
G01 X-71.8566 Y-14.3042 F100.00
G01 X-71.8946 Y-14.3986 F100.00
G00 Z2.0000
G00 X-71.6748 Y-16.5069
G01 F60.00
G01 Z-0.0700
G01 F100.00
G01 X-71.6945 Y-16.4985 F100.00
G01 X-71.7131 Y-16.4814 F100.00
G01 X-71.7233 Y-16.4619 F100.00
G01 X-71.7268 Y-16.4402 F100.00
G01 X-71.7268 Y-14.4402 F100.00
G01 X-71.7209 Y-14.4123 F100.00
G01 X-71.7067 Y-14.3916 F100.00
G01 X-71.6860 Y-14.3774 F100.00
G01 X-71.6581 Y-14.3714 F100.00
G01 X-69.6581 Y-14.3714 F100.00
G01 X-69.6302 Y-14.3774 F100.00
G01 X-69.6095 Y-14.3916 F100.00
G01 X-69.5953 Y-14.4123 F100.00
G01 X-69.5893 Y-14.4402 F100.00
G01 X-69.5893 Y-16.4402 F100.00
G01 X-69.5953 Y-16.4681 F100.00
G01 X-69.6095 Y-16.4888 F100.00
G01 X-69.6302 Y-16.5030 F100.00
G01 X-69.6581 Y-16.5089 F100.00
G01 X-71.6748 Y-16.5069 F100.00
G00 Z2.0000
G00 X-70.9628 Y-17.2113
G01 F60.00
G01 Z-0.0700
G01 F100.00
G01 X-70.8971 Y-17.1456 F100.00
G01 X-72.2645 Y-17.1456 F100.00
G01 X-72.1988 Y-17.2113 F100.00
G01 X-70.9628 Y-17.2113 F100.00
G00 Z2.0000
G00 X-69.9033 Y-17.2016
G01 F60.00
G01 Z-0.0700
G01 F100.00
G01 X-69.8906 Y-17.1735 F100.00
G01 X-69.7275 Y-16.9327 F100.00
G01 X-69.4721 Y-16.7616 F100.00
G01 X-69.1673 Y-16.7006 F100.00
G01 X-68.8625 Y-16.7616 F100.00
G01 X-68.6071 Y-16.9327 F100.00
G01 X-68.4361 Y-17.1881 F100.00
G01 X-68.3751 Y-17.4929 F100.00
G01 X-68.4361 Y-17.7977 F100.00
G01 X-68.6071 Y-18.0531 F100.00
G01 X-68.8625 Y-18.2242 F100.00
G01 X-69.1673 Y-18.2852 F100.00
G01 X-69.4721 Y-18.2242 F100.00
G01 X-69.7275 Y-18.0531 F100.00
G01 X-69.8986 Y-17.7977 F100.00
G01 X-69.9596 Y-17.4929 F100.00
G01 X-69.9033 Y-17.2016 F100.00
G00 Z2.0000
G00 X-69.3980 Y-16.9359
G01 F60.00
G01 Z-0.0700
G01 F100.00
G01 X-69.5936 Y-17.0666 F100.00
G01 X-69.7243 Y-17.2622 F100.00
G01 X-69.7702 Y-17.4929 F100.00
G01 X-69.7243 Y-17.7236 F100.00
G01 X-69.5936 Y-17.9192 F100.00
G01 X-69.3980 Y-18.0499 F100.00
G01 X-69.1673 Y-18.0958 F100.00
G01 X-68.9366 Y-18.0499 F100.00
G01 X-68.7410 Y-17.9192 F100.00
G01 X-68.6103 Y-17.7236 F100.00
G01 X-68.5644 Y-17.4929 F100.00
G01 X-68.6103 Y-17.2622 F100.00
G01 X-68.7410 Y-17.0666 F100.00
G01 X-68.9366 Y-16.9359 F100.00
G01 X-69.1673 Y-16.8900 F100.00
G01 X-69.3980 Y-16.9359 F100.00
G00 Z2.0000
G00 X-68.6888 Y-16.5069
G01 F60.00
G01 Z-0.0700
G01 F100.00
G01 X-68.7086 Y-16.4985 F100.00
G01 X-68.7271 Y-16.4814 F100.00
G01 X-68.7374 Y-16.4619 F100.00
G01 X-68.7409 Y-16.4402 F100.00
G01 X-68.7409 Y-14.4402 F100.00
G01 X-68.7350 Y-14.4123 F100.00
G01 X-68.7208 Y-14.3916 F100.00
G01 X-68.7001 Y-14.3774 F100.00
G01 X-68.6721 Y-14.3714 F100.00
G01 X-66.6721 Y-14.3714 F100.00
G01 X-66.6442 Y-14.3774 F100.00
G01 X-66.6235 Y-14.3916 F100.00
G01 X-66.6093 Y-14.4123 F100.00
G01 X-66.6034 Y-14.4402 F100.00
G01 X-66.6034 Y-16.4402 F100.00
G01 X-66.6093 Y-16.4681 F100.00
G01 X-66.6235 Y-16.4888 F100.00
G01 X-66.6442 Y-16.5030 F100.00
G01 X-66.6721 Y-16.5089 F100.00
G01 X-68.6888 Y-16.5069 F100.00
G00 Z2.0000
G00 X-67.7661 Y-19.3467
G01 F60.00
G01 Z-0.0700
G01 F100.00
G01 X-67.7859 Y-19.3383 F100.00
G01 X-67.8044 Y-19.3213 F100.00
G01 X-67.8147 Y-19.3017 F100.00
G01 X-67.8182 Y-19.2800 F100.00
G01 X-67.8182 Y-17.2800 F100.00
G01 X-67.8123 Y-17.2521 F100.00
G01 X-67.7981 Y-17.2314 F100.00
G01 X-67.7774 Y-17.2172 F100.00
G01 X-67.7494 Y-17.2113 F100.00
G01 X-65.7494 Y-17.2113 F100.00
G01 X-65.7215 Y-17.2172 F100.00
G01 X-65.7008 Y-17.2314 F100.00
G01 X-65.6866 Y-17.2521 F100.00
G01 X-65.6807 Y-17.2800 F100.00
G01 X-65.6807 Y-19.2800 F100.00
G01 X-65.6866 Y-19.3079 F100.00
G01 X-65.7008 Y-19.3286 F100.00
G01 X-65.7215 Y-19.3428 F100.00
G01 X-65.7494 Y-19.3488 F100.00
G01 X-67.7661 Y-19.3467 F100.00
G00 Z2.0000
G00 X-69.7831 Y-21.1039
G01 F60.00
G01 Z-0.0700
G01 F100.00
G01 X-69.8488 Y-21.1695 F100.00
G01 X-68.4815 Y-21.1695 F100.00
G01 X-68.5472 Y-21.1039 F100.00
G01 X-69.7831 Y-21.1039 F100.00
G00 Z2.0000
G00 X-70.2339 Y-20.6531
G01 F60.00
G01 Z-0.0700
G01 F100.00
G01 X-70.2339 Y-19.4171 F100.00
G01 X-70.2532 Y-19.3978 F100.00
G01 X-70.2996 Y-19.4442 F100.00
G01 X-70.2996 Y-20.7188 F100.00
G01 X-70.2339 Y-20.6531 F100.00
G00 Z2.0000
G00 X-72.1988 Y-19.3488
G01 F60.00
G01 Z-0.0700
G01 F100.00
G01 X-72.2645 Y-19.4145 F100.00
G01 X-70.8971 Y-19.4145 F100.00
G01 X-70.9628 Y-19.3488 F100.00
G01 X-72.1988 Y-19.3488 F100.00
G00 Z2.0000
G00 X-72.6496 Y-17.6620
G01 F60.00
G01 Z-0.0700
G01 F100.00
G01 X-72.7153 Y-17.5963 F100.00
G01 X-72.7153 Y-18.9637 F100.00
G01 X-72.6496 Y-18.8980 F100.00
G01 X-72.6496 Y-17.6620 F100.00
G00 Z2.0000
G00 X-63.7351 Y-12.8555
G01 F60.00
G01 Z-0.0700
G01 F100.00
G01 X-63.7548 Y-12.8471 F100.00
G01 X-63.7734 Y-12.8301 F100.00
G01 X-63.7836 Y-12.8105 F100.00
G01 X-63.7872 Y-12.7888 F100.00
G01 X-63.7872 Y-11.0888 F100.00
G01 X-63.7812 Y-11.0609 F100.00
G01 X-63.7670 Y-11.0402 F100.00
G01 X-63.7463 Y-11.0260 F100.00
G01 X-63.7184 Y-11.0200 F100.00
G01 X-62.0184 Y-11.0200 F100.00
G01 X-61.9905 Y-11.0260 F100.00
G01 X-61.9698 Y-11.0402 F100.00
G01 X-61.9556 Y-11.0609 F100.00
G01 X-61.9496 Y-11.0888 F100.00
G01 X-61.9496 Y-12.7888 F100.00
G01 X-61.9556 Y-12.8167 F100.00
G01 X-61.9698 Y-12.8374 F100.00
G01 X-61.9905 Y-12.8516 F100.00
G01 X-62.0184 Y-12.8576 F100.00
G01 X-63.7351 Y-12.8555 F100.00
G00 Z2.0000
G00 X-63.9549 Y-11.0472
G01 F60.00
G01 Z-0.0700
G01 F100.00
G01 X-63.9549 Y-12.8304 F100.00
G01 X-63.9169 Y-12.9248 F100.00
G01 X-63.8544 Y-12.9873 F100.00
G01 X-63.7600 Y-13.0253 F100.00
G01 X-61.9768 Y-13.0253 F100.00
G01 X-61.8824 Y-12.9873 F100.00
G01 X-61.8199 Y-12.9248 F100.00
G01 X-61.7819 Y-12.8304 F100.00
G01 X-61.7819 Y-11.0472 F100.00
G01 X-61.8199 Y-10.9528 F100.00
G01 X-61.8824 Y-10.8903 F100.00
G01 X-61.9768 Y-10.8523 F100.00
G01 X-63.7600 Y-10.8523 F100.00
G01 X-63.8544 Y-10.8903 F100.00
G01 X-63.9169 Y-10.9528 F100.00
G01 X-63.9549 Y-11.0472 F100.00
G00 Z2.0000
G00 X-63.7399 Y-9.2519
G01 F60.00
G01 Z-0.0700
G01 F100.00
G01 X-63.7596 Y-9.2435 F100.00
G01 X-63.7782 Y-9.2265 F100.00
G01 X-63.7884 Y-9.2069 F100.00
G01 X-63.7920 Y-9.1852 F100.00
G01 X-63.7920 Y-7.4852 F100.00
G01 X-63.7860 Y-7.4573 F100.00
G01 X-63.7718 Y-7.4366 F100.00
G01 X-63.7511 Y-7.4224 F100.00
G01 X-63.7232 Y-7.4164 F100.00
G01 X-62.0232 Y-7.4164 F100.00
G01 X-61.9953 Y-7.4224 F100.00
G01 X-61.9746 Y-7.4366 F100.00
G01 X-61.9604 Y-7.4573 F100.00
G01 X-61.9544 Y-7.4852 F100.00
G01 X-61.9544 Y-9.1852 F100.00
G01 X-61.9604 Y-9.2131 F100.00
G01 X-61.9746 Y-9.2338 F100.00
G01 X-61.9953 Y-9.2480 F100.00
G01 X-62.0232 Y-9.2540 F100.00
G01 X-63.7399 Y-9.2519 F100.00
G00 Z2.0000
G00 X-63.9597 Y-7.4436
G01 F60.00
G01 Z-0.0700
G01 F100.00
G01 X-63.9597 Y-9.2268 F100.00
G01 X-63.9217 Y-9.3212 F100.00
G01 X-63.8592 Y-9.3837 F100.00
G01 X-63.7648 Y-9.4217 F100.00
G01 X-61.9816 Y-9.4217 F100.00
G01 X-61.8872 Y-9.3837 F100.00
G01 X-61.8247 Y-9.3212 F100.00
G01 X-61.7867 Y-9.2268 F100.00
G01 X-61.7867 Y-7.4436 F100.00
G01 X-61.8247 Y-7.3492 F100.00
G01 X-61.8872 Y-7.2867 F100.00
G01 X-61.9816 Y-7.2487 F100.00
G01 X-63.7648 Y-7.2487 F100.00
G01 X-63.8592 Y-7.2867 F100.00
G01 X-63.9217 Y-7.3492 F100.00
G01 X-63.9597 Y-7.4436 F100.00
G00 Z2.0000
G00 X-61.2428 Y-14.4930
G01 F60.00
G01 Z-0.0700
G01 F100.00
G01 X-61.2260 Y-14.4269 F100.00
G01 X-61.2031 Y-14.3632 F100.00
G01 X-61.1731 Y-14.3006 F100.00
G01 X-61.1379 Y-14.2426 F100.00
G01 X-61.0981 Y-14.1892 F100.00
G01 X-61.0539 Y-14.1407 F100.00
G01 X-61.0054 Y-14.0965 F100.00
G01 X-60.9464 Y-14.0529 F100.00
G01 X-60.8880 Y-14.0183 F100.00
G01 X-60.8314 Y-13.9915 F100.00
G01 X-60.7677 Y-13.9686 F100.00
G01 X-60.7016 Y-13.9518 F100.00
G01 X-60.6331 Y-13.9416 F100.00
G01 X-60.5653 Y-13.9382 F100.00
G01 X-60.4975 Y-13.9416 F100.00
G01 X-60.4290 Y-13.9518 F100.00
G01 X-60.3629 Y-13.9686 F100.00
G01 X-60.2992 Y-13.9915 F100.00
G01 X-60.2366 Y-14.0215 F100.00
G01 X-60.1786 Y-14.0567 F100.00
G01 X-60.1252 Y-14.0965 F100.00
G01 X-60.0767 Y-14.1407 F100.00
G01 X-60.0325 Y-14.1892 F100.00
G01 X-59.9889 Y-14.2482 F100.00
G01 X-59.9543 Y-14.3066 F100.00
G01 X-59.9275 Y-14.3632 F100.00
G01 X-59.9046 Y-14.4269 F100.00
G01 X-59.8878 Y-14.4930 F100.00
G01 X-59.8776 Y-14.5615 F100.00
G01 X-59.8743 Y-14.6293 F100.00
G01 X-59.8776 Y-14.6971 F100.00
G01 X-59.8878 Y-14.7656 F100.00
G01 X-59.9046 Y-14.8317 F100.00
G01 X-59.9275 Y-14.8954 F100.00
G01 X-59.9575 Y-14.9580 F100.00
G01 X-59.9927 Y-15.0160 F100.00
G01 X-60.0325 Y-15.0694 F100.00
G01 X-60.0767 Y-15.1179 F100.00
G01 X-60.1252 Y-15.1621 F100.00
G01 X-60.1842 Y-15.2057 F100.00
